(Block-name: tinystar20.nc)
(Block-expand: 0)
(Block-enable: 1)
( Generated by VirTriad   )
( Pic 2 GCode for Grbl    )
( Start Point : LL        )
( Frame Mode  : Abs.      )
( Image Width : 50.0   mm )
(               500    px )
( Image Height: 50.0   mm )
(               500    px )
( X Maximum   : 50.0   mm )
( Y Maximum   : 50.0   mm )
( X Minimum   : -0.0   mm )
( Y Minimum   : 0.0    mm )
( X Overshoot : 0.0    mm )
( Laser Max   : 1000      )
( Feed Rate   : 2500      )
( Pixel Width : 0.1    mm )
( Resolution  : 0.1    mm )
( Image Name  : F:\Codez\testvm\gcode\test\tinystar20.png )
G21
G90
F2500
M05
M03 S0
G0 X-50121.08 Y-32186.333
G1 X-50121.08 M03 S0
X-50120.18 M03 S1000
X-50120.18 M03 S0
G1 X-50120.08 Y-32186.233 M03 S0
X-50119.98 M03 S0
X-50121.28 M03 S1000
X-50121.28 M03 S0
G1 X-50121.48 Y-32186.133 M03 S0
X-50121.48 M03 S0
X-50119.78 M03 S1000
X-50119.78 M03 S0
G1 X-50119.78 Y-32186.033 M03 S0
X-50119.68 M03 S0
X-50121.58 M03 S1000
X-50121.58 M03 S0
G1 X-50121.68 Y-32185.933 M03 S0
X-50121.68 M03 S0
X-50119.58 M03 S1000
X-50119.58 M03 S0
G1 X-50119.68 Y-32185.833 M03 S0
X-50119.58 M03 S0
X-50121.68 M03 S1000
X-50121.68 M03 S0
G1 X-50121.78 Y-32185.733 M03 S0
X-50121.78 M03 S0
X-50119.48 M03 S1000
X-50119.48 M03 S0
G1 X-50119.58 Y-32185.633 M03 S0
X-50119.48 M03 S0
X-50121.78 M03 S1000
X-50121.78 M03 S0
G1 X-50121.88 Y-32185.533 M03 S0
X-50121.88 M03 S0
X-50119.38 M03 S1000
X-50119.38 M03 S0
G1 X-50119.48 Y-32185.433 M03 S0
X-50119.38 M03 S0
X-50121.88 M03 S1000
X-50121.88 M03 S0
G1 X-50121.88 Y-32185.333 M03 S0
X-50121.88 M03 S0
X-50119.38 M03 S1000
X-50119.38 M03 S0
G1 X-50119.38 Y-32185.233 M03 S0
X-50119.28 M03 S0
X-50121.98 M03 S1000
X-50121.98 M03 S0
G1 X-50121.98 Y-32185.133 M03 S0
X-50121.98 M03 S0
X-50119.28 M03 S1000
X-50119.28 M03 S0
G1 X-50119.38 Y-32185.033 M03 S0
X-50119.28 M03 S0
X-50121.98 M03 S1000
X-50121.98 M03 S0
G1 X-50121.98 Y-32184.933 M03 S0
X-50121.98 M03 S0
X-50119.28 M03 S1000
X-50119.28 M03 S0
G1 X-50119.38 Y-32184.833 M03 S0
X-50119.28 M03 S0
X-50121.98 M03 S1000
X-50121.98 M03 S0
G1 X-50121.98 Y-32184.733 M03 S0
X-50121.98 M03 S0
X-50119.28 M03 S1000
X-50119.28 M03 S0
G1 X-50119.38 Y-32184.633 M03 S0
X-50119.28 M03 S0
X-50121.98 M03 S1000
X-50121.98 M03 S0
G1 X-50121.98 Y-32184.533 M03 S0
X-50121.98 M03 S0
X-50119.28 M03 S1000
X-50119.28 M03 S0
G1 X-50119.38 Y-32184.433 M03 S0
X-50119.28 M03 S0
X-50121.98 M03 S1000
X-50121.98 M03 S0
G1 X-50121.98 Y-32184.333 M03 S0
X-50121.98 M03 S0
X-50119.28 M03 S1000
X-50119.28 M03 S0
G1 X-50119.38 Y-32184.233 M03 S0
X-50119.28 M03 S0
X-50121.98 M03 S1000
X-50121.98 M03 S0
G1 X-50121.98 Y-32184.133 M03 S0
X-50121.98 M03 S0
X-50119.28 M03 S1000
X-50119.28 M03 S0
G1 X-50119.38 Y-32184.033 M03 S0
X-50119.28 M03 S0
X-50121.98 M03 S1000
X-50121.98 M03 S0
G1 X-50121.98 Y-32183.933 M03 S0
X-50121.98 M03 S0
X-50119.28 M03 S1000
X-50119.28 M03 S0
G1 X-50119.38 Y-32183.833 M03 S0
X-50119.28 M03 S0
X-50121.98 M03 S1000
X-50121.98 M03 S0
G1 X-50121.98 Y-32183.733 M03 S0
X-50121.98 M03 S0
X-50119.38 M03 S1000
X-50119.38 M03 S0
G1 X-50119.48 Y-32183.633 M03 S0
X-50119.38 M03 S0
X-50121.98 M03 S1000
X-50121.98 M03 S0
G1 X-50121.98 Y-32183.533 M03 S0
X-50121.98 M03 S0
X-50119.38 M03 S1000
X-50119.38 M03 S0
G1 X-50119.48 Y-32183.433 M03 S0
X-50119.38 M03 S0
X-50121.98 M03 S1000
X-50121.98 M03 S0
G1 X-50121.98 Y-32183.333 M03 S0
X-50121.98 M03 S0
X-50119.38 M03 S1000
X-50119.38 M03 S0
G1 X-50119.48 Y-32183.233 M03 S0
X-50119.38 M03 S0
X-50121.98 M03 S1000
X-50121.98 M03 S0
G1 X-50121.98 Y-32183.133 M03 S0
X-50121.98 M03 S0
X-50119.38 M03 S1000
X-50119.38 M03 S0
G1 X-50119.48 Y-32183.033 M03 S0
X-50119.38 M03 S0
X-50121.98 M03 S1000
X-50121.98 M03 S0
G1 X-50121.98 Y-32182.933 M03 S0
X-50121.98 M03 S0
X-50119.38 M03 S1000
X-50119.38 M03 S0
G1 X-50119.48 Y-32182.833 M03 S0
X-50119.38 M03 S0
X-50121.98 M03 S1000
X-50121.98 M03 S0
G1 X-50121.98 Y-32182.733 M03 S0
X-50121.98 M03 S0
X-50119.28 M03 S1000
X-50119.28 M03 S0
G1 X-50119.38 Y-32182.633 M03 S0
X-50119.28 M03 S0
X-50121.98 M03 S1000
X-50121.98 M03 S0
G1 X-50121.98 Y-32182.533 M03 S0
X-50121.98 M03 S0
X-50119.28 M03 S1000
X-50119.28 M03 S0
G1 X-50119.38 Y-32182.433 M03 S0
X-50119.28 M03 S0
X-50121.88 M03 S1000
X-50121.88 M03 S0
G1 X-50121.88 Y-32182.333 M03 S0
X-50121.88 M03 S0
X-50119.18 M03 S1000
X-50119.18 M03 S0
G1 X-50119.28 Y-32182.233 M03 S0
X-50119.18 M03 S0
X-50121.88 M03 S1000
X-50121.88 M03 S0
G1 X-50121.88 Y-32182.133 M03 S0
X-50121.88 M03 S0
X-50119.08 M03 S1000
X-50119.08 M03 S0
G1 X-50119.18 Y-32182.033 M03 S0
X-50119.08 M03 S0
X-50121.88 M03 S1000
X-50121.88 M03 S0
G1 X-50121.88 Y-32181.933 M03 S0
X-50121.88 M03 S0
X-50118.98 M03 S1000
X-50118.98 M03 S0
G1 X-50118.98 Y-32181.833 M03 S0
X-50118.88 M03 S0
X-50121.88 M03 S1000
X-50121.88 M03 S0
G1 X-50121.88 Y-32181.733 M03 S0
X-50121.88 M03 S0
X-50118.78 M03 S1000
X-50118.78 M03 S0
G1 X-50118.78 Y-32181.633 M03 S0
X-50118.68 M03 S0
X-50121.88 M03 S1000
X-50121.88 M03 S0
G1 X-50121.88 Y-32181.533 M03 S0
X-50121.88 M03 S0
X-50118.48 M03 S1000
X-50118.48 M03 S0
G1 X-50118.28 Y-32181.433 M03 S0
X-50118.18 M03 S0
X-50121.78 M03 S1000
X-50121.78 M03 S0
G1 X-50121.78 Y-32181.333 M03 S0
X-50121.78 M03 S0
X-50117.78 M03 S1000
X-50117.78 M03 S0
G1 X-50117.68 Y-32181.233 M03 S0
X-50117.58 M03 S0
X-50121.78 M03 S1000
X-50121.78 M03 S0
G1 X-50121.78 Y-32181.133 M03 S0
X-50121.78 M03 S0
X-50117.48 M03 S1000
X-50117.48 M03 S0
G1 X-50117.48 Y-32181.033 M03 S0
X-50117.38 M03 S0
X-50121.78 M03 S1000
X-50121.78 M03 S0
G1 X-50121.78 Y-32180.933 M03 S0
X-50121.78 M03 S0
X-50117.28 M03 S1000
X-50117.28 M03 S0
G1 X-50117.28 Y-32180.833 M03 S0
X-50117.18 M03 S0
X-50121.78 M03 S1000
X-50121.78 M03 S0
G1 X-50121.78 Y-32180.733 M03 S0
X-50121.78 M03 S0
X-50117.08 M03 S1000
X-50117.08 M03 S0
G1 X-50117.18 Y-32180.633 M03 S0
X-50117.08 M03 S0
X-50121.78 M03 S1000
X-50121.78 M03 S0
G1 X-50121.78 Y-32180.533 M03 S0
X-50121.78 M03 S0
X-50116.98 M03 S1000
X-50116.98 M03 S0
G1 X-50117.08 Y-32180.433 M03 S0
X-50116.98 M03 S0
X-50121.78 M03 S1000
X-50121.78 M03 S0
G1 X-50121.78 Y-32180.333 M03 S0
X-50121.78 M03 S0
X-50116.98 M03 S1000
X-50116.98 M03 S0
G1 X-50117.08 Y-32180.233 M03 S0
X-50116.98 M03 S0
X-50121.78 M03 S1000
X-50121.78 M03 S0
G1 X-50121.88 Y-32180.133 M03 S0
X-50121.88 M03 S0
X-50116.88 M03 S1000
X-50116.88 M03 S0
G1 X-50116.98 Y-32180.033 M03 S0
X-50116.88 M03 S0
X-50121.88 M03 S1000
X-50121.88 M03 S0
G1 X-50121.88 Y-32179.933 M03 S0
X-50121.88 M03 S0
X-50116.88 M03 S1000
X-50116.88 M03 S0
G1 X-50116.98 Y-32179.833 M03 S0
X-50116.88 M03 S0
X-50121.98 M03 S1000
X-50121.98 M03 S0
G1 X-50121.98 Y-32179.733 M03 S0
X-50121.98 M03 S0
X-50116.88 M03 S1000
X-50116.88 M03 S0
G1 X-50116.98 Y-32179.633 M03 S0
X-50116.88 M03 S0
X-50122.08 M03 S1000
X-50122.08 M03 S0
G1 X-50122.08 Y-32179.533 M03 S0
X-50122.08 M03 S0
X-50116.88 M03 S1000
X-50116.88 M03 S0
G1 X-50116.98 Y-32179.433 M03 S0
X-50116.88 M03 S0
X-50122.18 M03 S1000
X-50122.18 M03 S0
G1 X-50122.28 Y-32179.333 M03 S0
X-50122.28 M03 S0
X-50116.88 M03 S1000
X-50116.88 M03 S0
G1 X-50116.98 Y-32179.233 M03 S0
X-50116.88 M03 S0
X-50122.38 M03 S1000
X-50122.38 M03 S0
G1 X-50122.58 Y-32179.133 M03 S0
X-50122.58 M03 S0
X-50116.88 M03 S1000
X-50116.88 M03 S0
G1 X-50116.98 Y-32179.033 M03 S0
X-50116.88 M03 S0
X-50122.78 M03 S1000
X-50122.78 M03 S0
G1 X-50123.08 Y-32178.933 M03 S0
X-50123.08 M03 S0
X-50116.88 M03 S1000
X-50116.88 M03 S0
G1 X-50116.98 Y-32178.833 M03 S0
X-50116.88 M03 S0
X-50123.48 M03 S1000
X-50123.48 M03 S0
G1 X-50123.68 Y-32178.733 M03 S0
X-50123.68 M03 S0
X-50116.88 M03 S1000
X-50116.88 M03 S0
G1 X-50116.98 Y-32178.633 M03 S0
X-50116.88 M03 S0
X-50123.78 M03 S1000
X-50123.78 M03 S0
G1 X-50123.88 Y-32178.533 M03 S0
X-50123.88 M03 S0
X-50116.88 M03 S1000
X-50116.88 M03 S0
G1 X-50116.98 Y-32178.433 M03 S0
X-50116.88 M03 S0
X-50123.98 M03 S1000
X-50123.98 M03 S0
G1 X-50124.08 Y-32178.333 M03 S0
X-50124.08 M03 S0
X-50116.88 M03 S1000
X-50116.88 M03 S0
G1 X-50116.98 Y-32178.233 M03 S0
X-50116.88 M03 S0
X-50124.18 M03 S1000
X-50124.18 M03 S0
G1 X-50124.18 Y-32178.133 M03 S0
X-50124.18 M03 S0
X-50116.88 M03 S1000
X-50116.88 M03 S0
G1 X-50116.98 Y-32178.033 M03 S0
X-50116.88 M03 S0
X-50124.28 M03 S1000
X-50124.28 M03 S0
G1 X-50124.28 Y-32177.933 M03 S0
X-50124.28 M03 S0
X-50116.98 M03 S1000
X-50116.98 M03 S0
G1 X-50117.08 Y-32177.833 M03 S0
X-50116.98 M03 S0
X-50124.28 M03 S1000
X-50124.28 M03 S0
G1 X-50124.28 Y-32177.733 M03 S0
X-50124.28 M03 S0
X-50116.98 M03 S1000
X-50116.98 M03 S0
G1 X-50117.08 Y-32177.633 M03 S0
X-50116.98 M03 S0
X-50124.38 M03 S1000
X-50124.38 M03 S0
G1 X-50124.38 Y-32177.533 M03 S0
X-50124.38 M03 S0
X-50116.98 M03 S1000
X-50116.98 M03 S0
G1 X-50117.08 Y-32177.433 M03 S0
X-50116.98 M03 S0
X-50124.38 M03 S1000
X-50124.38 M03 S0
G1 X-50124.38 Y-32177.333 M03 S0
X-50124.38 M03 S0
X-50116.98 M03 S1000
X-50116.98 M03 S0
G1 X-50117.08 Y-32177.233 M03 S0
X-50116.98 M03 S0
X-50124.38 M03 S1000
X-50124.38 M03 S0
G1 X-50124.38 Y-32177.133 M03 S0
X-50124.38 M03 S0
X-50116.98 M03 S1000
X-50116.98 M03 S0
G1 X-50117.08 Y-32177.033 M03 S0
X-50116.98 M03 S0
X-50124.38 M03 S1000
X-50124.38 M03 S0
G1 X-50124.38 Y-32176.933 M03 S0
X-50124.38 M03 S0
X-50116.98 M03 S1000
X-50116.98 M03 S0
G1 X-50117.08 Y-32176.833 M03 S0
X-50116.98 M03 S0
X-50124.38 M03 S1000
X-50124.38 M03 S0
G1 X-50124.38 Y-32176.733 M03 S0
X-50124.38 M03 S0
X-50116.98 M03 S1000
X-50116.98 M03 S0
G1 X-50117.08 Y-32176.633 M03 S0
X-50116.98 M03 S0
X-50124.38 M03 S1000
X-50124.38 M03 S0
G1 X-50124.38 Y-32176.533 M03 S0
X-50124.38 M03 S0
X-50116.98 M03 S1000
X-50116.98 M03 S0
G1 X-50117.08 Y-32176.433 M03 S0
X-50116.98 M03 S0
X-50124.28 M03 S1000
X-50124.28 M03 S0
G1 X-50124.28 Y-32176.333 M03 S0
X-50124.28 M03 S0
X-50116.98 M03 S1000
X-50116.98 M03 S0
G1 X-50117.08 Y-32176.233 M03 S0
X-50116.98 M03 S0
X-50124.28 M03 S1000
X-50124.28 M03 S0
G1 X-50124.28 Y-32176.133 M03 S0
X-50124.28 M03 S0
X-50116.98 M03 S1000
X-50116.98 M03 S0
G1 X-50117.08 Y-32176.033 M03 S0
X-50116.98 M03 S0
X-50124.28 M03 S1000
X-50124.28 M03 S0
G1 X-50124.28 Y-32175.933 M03 S0
X-50124.28 M03 S0
X-50116.98 M03 S1000
X-50116.98 M03 S0
G1 X-50117.08 Y-32175.833 M03 S0
X-50116.98 M03 S0
X-50124.28 M03 S1000
X-50124.28 M03 S0
G1 X-50124.28 Y-32175.733 M03 S0
X-50124.28 M03 S0
X-50116.98 M03 S1000
X-50116.98 M03 S0
G1 X-50117.08 Y-32175.633 M03 S0
X-50116.98 M03 S0
X-50124.28 M03 S1000
X-50124.28 M03 S0
G1 X-50124.28 Y-32175.533 M03 S0
X-50124.28 M03 S0
X-50116.98 M03 S1000
X-50116.98 M03 S0
G1 X-50117.08 Y-32175.433 M03 S0
X-50116.98 M03 S0
X-50124.28 M03 S1000
X-50124.28 M03 S0
G1 X-50124.28 Y-32175.333 M03 S0
X-50124.28 M03 S0
X-50116.98 M03 S1000
X-50116.98 M03 S0
G1 X-50117.08 Y-32175.233 M03 S0
X-50116.98 M03 S0
X-50124.28 M03 S1000
X-50124.28 M03 S0
G1 X-50124.38 Y-32175.133 M03 S0
X-50124.38 M03 S0
X-50116.88 M03 S1000
X-50116.88 M03 S0
G1 X-50116.98 Y-32175.033 M03 S0
X-50116.88 M03 S0
X-50124.38 M03 S1000
X-50124.38 M03 S0
G1 X-50124.38 Y-32174.933 M03 S0
X-50124.38 M03 S0
X-50116.88 M03 S1000
X-50116.88 M03 S0
G1 X-50116.88 Y-32174.833 M03 S0
X-50116.78 M03 S0
X-50124.48 M03 S1000
X-50124.48 M03 S0
G1 X-50124.48 Y-32174.733 M03 S0
X-50124.48 M03 S0
X-50116.78 M03 S1000
X-50116.78 M03 S0
G1 X-50116.78 Y-32174.633 M03 S0
X-50116.68 M03 S0
X-50124.58 M03 S1000
X-50124.58 M03 S0
G1 X-50124.58 Y-32174.533 M03 S0
X-50124.58 M03 S0
X-50116.68 M03 S1000
X-50116.68 M03 S0
G1 X-50116.68 Y-32174.433 M03 S0
X-50116.58 M03 S0
X-50124.68 M03 S1000
X-50124.68 M03 S0
G1 X-50124.78 Y-32174.333 M03 S0
X-50124.78 M03 S0
X-50116.48 M03 S1000
X-50116.48 M03 S0
G1 X-50116.48 Y-32174.233 M03 S0
X-50116.38 M03 S0
X-50124.88 M03 S1000
X-50124.88 M03 S0
G1 X-50125.08 Y-32174.133 M03 S0
X-50125.08 M03 S0
X-50116.18 M03 S1000
X-50116.18 M03 S0
G1 X-50116.08 Y-32174.033 M03 S0
X-50115.98 M03 S0
X-50125.28 M03 S1000
X-50125.28 M03 S0
G1 X-50125.58 Y-32173.933 M03 S0
X-50125.58 M03 S0
X-50115.68 M03 S1000
X-50115.68 M03 S0
G1 X-50115.48 Y-32173.833 M03 S0
X-50115.38 M03 S0
X-50125.88 M03 S1000
X-50125.88 M03 S0
G1 X-50126.08 Y-32173.733 M03 S0
X-50126.08 M03 S0
X-50115.18 M03 S1000
X-50115.18 M03 S0
G1 X-50115.08 Y-32173.633 M03 S0
X-50114.98 M03 S0
X-50126.28 M03 S1000
X-50126.28 M03 S0
G1 X-50126.38 Y-32173.533 M03 S0
X-50126.38 M03 S0
X-50114.88 M03 S1000
X-50114.88 M03 S0
G1 X-50114.88 Y-32173.433 M03 S0
X-50114.78 M03 S0
X-50126.48 M03 S1000
X-50126.48 M03 S0
G1 X-50126.48 Y-32173.333 M03 S0
X-50126.48 M03 S0
X-50114.78 M03 S1000
X-50114.78 M03 S0
G1 X-50114.78 Y-32173.233 M03 S0
X-50114.68 M03 S0
X-50126.58 M03 S1000
X-50126.58 M03 S0
G1 X-50126.68 Y-32173.133 M03 S0
X-50126.68 M03 S0
X-50114.58 M03 S1000
X-50114.58 M03 S0
G1 X-50114.68 Y-32173.033 M03 S0
X-50114.58 M03 S0
X-50126.68 M03 S1000
X-50126.68 M03 S0
G1 X-50126.78 Y-32172.933 M03 S0
X-50126.78 M03 S0
X-50114.48 M03 S1000
X-50114.48 M03 S0
G1 X-50114.58 Y-32172.833 M03 S0
X-50114.48 M03 S0
X-50126.78 M03 S1000
X-50126.78 M03 S0
G1 X-50126.78 Y-32172.733 M03 S0
X-50126.78 M03 S0
X-50114.48 M03 S1000
X-50114.48 M03 S0
G1 X-50114.48 Y-32172.633 M03 S0
X-50114.38 M03 S0
X-50126.88 M03 S1000
X-50126.88 M03 S0
G1 X-50126.88 Y-32172.533 M03 S0
X-50126.88 M03 S0
X-50114.38 M03 S1000
X-50114.38 M03 S0
G1 X-50114.38 Y-32172.433 M03 S0
X-50114.28 M03 S0
X-50126.98 M03 S1000
X-50126.98 M03 S0
G1 X-50126.98 Y-32172.333 M03 S0
X-50126.98 M03 S0
X-50114.28 M03 S1000
X-50114.28 M03 S0
G1 X-50114.28 Y-32172.233 M03 S0
X-50114.18 M03 S0
X-50127.08 M03 S1000
X-50127.08 M03 S0
G1 X-50127.08 Y-32172.133 M03 S0
X-50127.08 M03 S0
X-50114.18 M03 S1000
X-50114.18 M03 S0
G1 X-50114.18 Y-32172.033 M03 S0
X-50114.08 M03 S0
X-50127.18 M03 S1000
X-50127.18 M03 S0
G1 X-50127.28 Y-32171.933 M03 S0
X-50127.28 M03 S0
X-50113.98 M03 S1000
X-50113.98 M03 S0
G1 X-50113.98 Y-32171.833 M03 S0
X-50113.88 M03 S0
X-50127.38 M03 S1000
X-50127.38 M03 S0
G1 X-50127.48 Y-32171.733 M03 S0
X-50127.48 M03 S0
X-50113.78 M03 S1000
X-50113.78 M03 S0
G1 X-50113.78 Y-32171.633 M03 S0
X-50113.68 M03 S0
X-50127.58 M03 S1000
X-50127.58 M03 S0
G1 X-50140.68 Y-32171.533 M03 S0
X-50140.68 M03 S0
X-50140.18 M03 S1000
X-50127.78 M03 S0
X-50113.48 M03 S1000
X-50113.48 M03 S0
G1 X-50113.28 Y-32171.433 M03 S0
X-50113.18 M03 S0
X-50128.08 M03 S1000
X-50138.28 M03 S0
X-50140.98 M03 S1000
X-50140.98 M03 S0
G1 X-50141.18 Y-32171.333 M03 S0
X-50141.18 M03 S0
X-50105.38 M03 S1000
X-50105.38 M03 S0
G1 X-50105.28 Y-32171.233 M03 S0
X-50105.18 M03 S0
X-50141.28 M03 S1000
X-50141.28 M03 S0
G1 X-50141.38 Y-32171.133 M03 S0
X-50141.38 M03 S0
X-50104.98 M03 S1000
X-50104.98 M03 S0
G1 X-50104.98 Y-32171.033 M03 S0
X-50104.88 M03 S0
X-50141.48 M03 S1000
X-50141.48 M03 S0
G1 X-50141.58 Y-32170.933 M03 S0
X-50141.58 M03 S0
X-50104.78 M03 S1000
X-50104.78 M03 S0
G1 X-50104.88 Y-32170.833 M03 S0
X-50104.78 M03 S0
X-50141.58 M03 S1000
X-50141.58 M03 S0
G1 X-50141.68 Y-32170.733 M03 S0
X-50141.68 M03 S0
X-50104.68 M03 S1000
X-50104.68 M03 S0
G1 X-50104.68 Y-32170.633 M03 S0
X-50104.58 M03 S0
X-50141.68 M03 S1000
X-50141.68 M03 S0
G1 X-50141.68 Y-32170.533 M03 S0
X-50141.68 M03 S0
X-50104.58 M03 S1000
X-50104.58 M03 S0
G1 X-50104.58 Y-32170.433 M03 S0
X-50104.48 M03 S0
X-50141.78 M03 S1000
X-50141.78 M03 S0
G1 X-50141.78 Y-32170.333 M03 S0
X-50141.78 M03 S0
X-50104.48 M03 S1000
X-50104.48 M03 S0
G1 X-50104.58 Y-32170.233 M03 S0
X-50104.48 M03 S0
X-50141.78 M03 S1000
X-50141.78 M03 S0
G1 X-50141.78 Y-32170.133 M03 S0
X-50141.78 M03 S0
X-50104.38 M03 S1000
X-50104.38 M03 S0
G1 X-50104.48 Y-32170.033 M03 S0
X-50104.38 M03 S0
X-50141.78 M03 S1000
X-50141.78 M03 S0
G1 X-50141.68 Y-32169.933 M03 S0
X-50141.68 M03 S0
X-50104.28 M03 S1000
X-50104.28 M03 S0
G1 X-50104.38 Y-32169.833 M03 S0
X-50104.28 M03 S0
X-50141.68 M03 S1000
X-50141.68 M03 S0
G1 X-50141.68 Y-32169.733 M03 S0
X-50141.68 M03 S0
X-50104.18 M03 S1000
X-50104.18 M03 S0
G1 X-50104.18 Y-32169.633 M03 S0
X-50104.08 M03 S0
X-50141.58 M03 S1000
X-50141.58 M03 S0
G1 X-50141.58 Y-32169.533 M03 S0
X-50141.58 M03 S0
X-50103.98 M03 S1000
X-50103.98 M03 S0
G1 X-50103.98 Y-32169.433 M03 S0
X-50103.88 M03 S0
X-50141.48 M03 S1000
X-50141.48 M03 S0
G1 X-50141.38 Y-32169.333 M03 S0
X-50141.38 M03 S0
X-50103.78 M03 S1000
X-50103.78 M03 S0
G1 X-50103.78 Y-32169.233 M03 S0
X-50103.68 M03 S0
X-50141.28 M03 S1000
X-50141.28 M03 S0
G1 X-50141.18 Y-32169.133 M03 S0
X-50141.18 M03 S0
X-50103.48 M03 S1000
X-50103.48 M03 S0
G1 X-50103.18 Y-32169.033 M03 S0
X-50103.08 M03 S0
X-50140.98 M03 S1000
X-50140.98 M03 S0
G1 X-50140.68 Y-32168.933 M03 S0
X-50140.68 M03 S0
X-50102.78 M03 S1000
X-50102.78 M03 S0
G1 X-50102.68 Y-32168.833 M03 S0
X-50102.58 M03 S0
X-50140.38 M03 S1000
X-50140.38 M03 S0
G1 X-50140.18 Y-32168.733 M03 S0
X-50140.18 M03 S0
X-50102.38 M03 S1000
X-50102.38 M03 S0
G1 X-50102.38 Y-32168.633 M03 S0
X-50102.28 M03 S0
X-50139.98 M03 S1000
X-50139.98 M03 S0
G1 X-50139.88 Y-32168.533 M03 S0
X-50139.88 M03 S0
X-50102.18 M03 S1000
X-50102.18 M03 S0
G1 X-50102.28 Y-32168.433 M03 S0
X-50102.18 M03 S0
X-50139.78 M03 S1000
X-50139.78 M03 S0
G1 X-50139.68 Y-32168.333 M03 S0
X-50139.68 M03 S0
X-50102.08 M03 S1000
X-50102.08 M03 S0
G1 X-50102.18 Y-32168.233 M03 S0
X-50102.08 M03 S0
X-50139.58 M03 S1000
X-50139.58 M03 S0
G1 X-50139.48 Y-32168.133 M03 S0
X-50139.48 M03 S0
X-50101.98 M03 S1000
X-50101.98 M03 S0
G1 X-50102.08 Y-32168.033 M03 S0
X-50101.98 M03 S0
X-50139.48 M03 S1000
X-50139.48 M03 S0
G1 X-50139.38 Y-32167.933 M03 S0
X-50139.38 M03 S0
X-50101.98 M03 S1000
X-50101.98 M03 S0
G1 X-50102.08 Y-32167.833 M03 S0
X-50101.98 M03 S0
X-50139.38 M03 S1000
X-50139.38 M03 S0
G1 X-50139.28 Y-32167.733 M03 S0
X-50139.28 M03 S0
X-50101.98 M03 S1000
X-50101.98 M03 S0
G1 X-50102.08 Y-32167.633 M03 S0
X-50101.98 M03 S0
X-50139.28 M03 S1000
X-50139.28 M03 S0
G1 X-50139.28 Y-32167.533 M03 S0
X-50139.28 M03 S0
X-50101.98 M03 S1000
X-50101.98 M03 S0
G1 X-50102.08 Y-32167.433 M03 S0
X-50101.98 M03 S0
X-50139.18 M03 S1000
X-50139.18 M03 S0
G1 X-50139.18 Y-32167.333 M03 S0
X-50139.18 M03 S0
X-50101.98 M03 S1000
X-50101.98 M03 S0
G1 X-50102.18 Y-32167.233 M03 S0
X-50102.08 M03 S0
X-50139.08 M03 S1000
X-50139.08 M03 S0
G1 X-50138.98 Y-32167.133 M03 S0
X-50138.98 M03 S0
X-50102.08 M03 S1000
X-50102.08 M03 S0
G1 X-50102.28 Y-32167.033 M03 S0
X-50102.18 M03 S0
X-50138.98 M03 S1000
X-50138.98 M03 S0
G1 X-50138.88 Y-32166.933 M03 S0
X-50138.88 M03 S0
X-50102.18 M03 S1000
X-50102.18 M03 S0
G1 X-50102.38 Y-32166.833 M03 S0
X-50102.28 M03 S0
X-50138.78 M03 S1000
X-50138.78 M03 S0
G1 X-50138.58 Y-32166.733 M03 S0
X-50138.58 M03 S0
X-50102.38 M03 S1000
X-50102.38 M03 S0
G1 X-50102.68 Y-32166.633 M03 S0
X-50102.58 M03 S0
X-50138.38 M03 S1000
X-50138.38 M03 S0
G1 X-50138.08 Y-32166.533 M03 S0
X-50138.08 M03 S0
X-50102.78 M03 S1000
X-50102.78 M03 S0
G1 X-50103.18 Y-32166.433 M03 S0
X-50103.08 M03 S0
X-50137.78 M03 S1000
X-50137.78 M03 S0
G1 X-50137.58 Y-32166.333 M03 S0
X-50137.58 M03 S0
X-50103.48 M03 S1000
X-50103.48 M03 S0
G1 X-50103.78 Y-32166.233 M03 S0
X-50103.68 M03 S0
X-50137.48 M03 S1000
X-50137.48 M03 S0
G1 X-50137.38 Y-32166.133 M03 S0
X-50137.38 M03 S0
X-50103.78 M03 S1000
X-50103.78 M03 S0
G1 X-50103.98 Y-32166.033 M03 S0
X-50103.88 M03 S0
X-50137.28 M03 S1000
X-50137.28 M03 S0
G1 X-50137.18 Y-32165.933 M03 S0
X-50137.18 M03 S0
X-50103.98 M03 S1000
X-50103.98 M03 S0
G1 X-50104.18 Y-32165.833 M03 S0
X-50104.08 M03 S0
X-50137.08 M03 S1000
X-50137.08 M03 S0
G1 X-50137.08 Y-32165.733 M03 S0
X-50137.08 M03 S0
X-50104.18 M03 S1000
X-50104.18 M03 S0
G1 X-50104.38 Y-32165.633 M03 S0
X-50104.28 M03 S0
X-50136.98 M03 S1000
X-50136.98 M03 S0
G1 X-50136.98 Y-32165.533 M03 S0
X-50136.98 M03 S0
X-50104.28 M03 S1000
X-50104.28 M03 S0
G1 X-50104.48 Y-32165.433 M03 S0
X-50104.38 M03 S0
X-50136.88 M03 S1000
X-50136.88 M03 S0
G1 X-50136.88 Y-32165.333 M03 S0
X-50136.88 M03 S0
X-50104.38 M03 S1000
X-50104.38 M03 S0
G1 X-50104.58 Y-32165.233 M03 S0
X-50104.48 M03 S0
X-50136.78 M03 S1000
X-50136.78 M03 S0
G1 X-50136.78 Y-32165.133 M03 S0
X-50136.78 M03 S0
X-50104.48 M03 S1000
X-50104.48 M03 S0
G1 X-50104.58 Y-32165.033 M03 S0
X-50104.48 M03 S0
X-50136.78 M03 S1000
X-50136.78 M03 S0
G1 X-50136.68 Y-32164.933 M03 S0
X-50136.68 M03 S0
X-50104.58 M03 S1000
X-50104.58 M03 S0
G1 X-50104.68 Y-32164.833 M03 S0
X-50104.58 M03 S0
X-50136.68 M03 S1000
X-50136.68 M03 S0
G1 X-50136.58 Y-32164.733 M03 S0
X-50136.58 M03 S0
X-50104.68 M03 S1000
X-50104.68 M03 S0
G1 X-50104.88 Y-32164.633 M03 S0
X-50104.78 M03 S0
X-50136.48 M03 S1000
X-50136.48 M03 S0
G1 X-50136.48 Y-32164.533 M03 S0
X-50136.48 M03 S0
X-50104.78 M03 S1000
X-50104.78 M03 S0
G1 X-50104.98 Y-32164.433 M03 S0
X-50104.88 M03 S0
X-50136.38 M03 S1000
X-50136.38 M03 S0
G1 X-50136.28 Y-32164.333 M03 S0
X-50136.28 M03 S0
X-50104.98 M03 S1000
X-50104.98 M03 S0
G1 X-50105.28 Y-32164.233 M03 S0
X-50105.18 M03 S0
X-50136.08 M03 S1000
X-50136.08 M03 S0
G1 X-50135.88 Y-32164.133 M03 S0
X-50135.88 M03 S0
X-50105.38 M03 S1000
X-50105.38 M03 S0
G1 X-50105.78 Y-32164.033 M03 S0
X-50105.68 M03 S0
X-50135.58 M03 S1000
X-50135.58 M03 S0
G1 X-50135.28 Y-32163.933 M03 S0
X-50135.28 M03 S0
X-50105.98 M03 S1000
X-50105.98 M03 S0
G1 X-50106.28 Y-32163.833 M03 S0
X-50106.18 M03 S0
X-50135.08 M03 S1000
X-50135.08 M03 S0
G1 X-50134.98 Y-32163.733 M03 S0
X-50134.98 M03 S0
X-50106.28 M03 S1000
X-50106.28 M03 S0
G1 X-50106.48 Y-32163.633 M03 S0
X-50106.38 M03 S0
X-50134.88 M03 S1000
X-50134.88 M03 S0
G1 X-50134.78 Y-32163.533 M03 S0
X-50134.78 M03 S0
X-50106.48 M03 S1000
X-50106.48 M03 S0
G1 X-50106.68 Y-32163.433 M03 S0
X-50106.58 M03 S0
X-50134.68 M03 S1000
X-50134.68 M03 S0
G1 X-50134.58 Y-32163.333 M03 S0
X-50134.58 M03 S0
X-50106.68 M03 S1000
X-50106.68 M03 S0
G1 X-50106.78 Y-32163.233 M03 S0
X-50106.68 M03 S0
X-50134.58 M03 S1000
X-50134.58 M03 S0
G1 X-50134.48 Y-32163.133 M03 S0
X-50134.48 M03 S0
X-50106.78 M03 S1000
X-50106.78 M03 S0
G1 X-50106.88 Y-32163.033 M03 S0
X-50106.78 M03 S0
X-50134.48 M03 S1000
X-50134.48 M03 S0
G1 X-50134.38 Y-32162.933 M03 S0
X-50134.38 M03 S0
X-50106.88 M03 S1000
X-50106.88 M03 S0
G1 X-50106.98 Y-32162.833 M03 S0
X-50106.88 M03 S0
X-50134.38 M03 S1000
X-50134.38 M03 S0
G1 X-50134.28 Y-32162.733 M03 S0
X-50134.28 M03 S0
X-50106.98 M03 S1000
X-50106.98 M03 S0
G1 X-50107.08 Y-32162.633 M03 S0
X-50106.98 M03 S0
X-50134.28 M03 S1000
X-50134.28 M03 S0
G1 X-50134.28 Y-32162.533 M03 S0
X-50134.28 M03 S0
X-50106.98 M03 S1000
X-50106.98 M03 S0
G1 X-50107.18 Y-32162.433 M03 S0
X-50107.08 M03 S0
X-50134.18 M03 S1000
X-50134.18 M03 S0
G1 X-50134.18 Y-32162.333 M03 S0
X-50134.18 M03 S0
X-50107.08 M03 S1000
X-50107.08 M03 S0
G1 X-50107.28 Y-32162.233 M03 S0
X-50107.18 M03 S0
X-50134.08 M03 S1000
X-50134.08 M03 S0
G1 X-50133.98 Y-32162.133 M03 S0
X-50133.98 M03 S0
X-50107.28 M03 S1000
X-50107.28 M03 S0
G1 X-50107.38 Y-32162.033 M03 S0
X-50107.28 M03 S0
X-50133.98 M03 S1000
X-50133.98 M03 S0
G1 X-50133.88 Y-32161.933 M03 S0
X-50133.88 M03 S0
X-50107.38 M03 S1000
X-50107.38 M03 S0
G1 X-50107.58 Y-32161.833 M03 S0
X-50107.48 M03 S0
X-50133.78 M03 S1000
X-50133.78 M03 S0
G1 X-50133.58 Y-32161.733 M03 S0
X-50133.58 M03 S0
X-50107.68 M03 S1000
X-50107.68 M03 S0
G1 X-50107.98 Y-32161.633 M03 S0
X-50107.88 M03 S0
X-50133.38 M03 S1000
X-50133.38 M03 S0
G1 X-50133.08 Y-32161.533 M03 S0
X-50133.08 M03 S0
X-50108.18 M03 S1000
X-50108.18 M03 S0
G1 X-50108.58 Y-32161.433 M03 S0
X-50108.48 M03 S0
X-50132.78 M03 S1000
X-50132.78 M03 S0
G1 X-50132.58 Y-32161.333 M03 S0
X-50132.58 M03 S0
X-50108.68 M03 S1000
X-50108.68 M03 S0
G1 X-50108.98 Y-32161.233 M03 S0
X-50108.88 M03 S0
X-50132.38 M03 S1000
X-50132.38 M03 S0
G1 X-50132.28 Y-32161.133 M03 S0
X-50132.28 M03 S0
X-50108.98 M03 S1000
X-50108.98 M03 S0
G1 X-50109.18 Y-32161.033 M03 S0
X-50109.08 M03 S0
X-50132.18 M03 S1000
X-50132.18 M03 S0
G1 X-50132.08 Y-32160.933 M03 S0
X-50132.08 M03 S0
X-50109.18 M03 S1000
X-50109.18 M03 S0
G1 X-50109.28 Y-32160.833 M03 S0
X-50109.18 M03 S0
X-50132.08 M03 S1000
X-50132.08 M03 S0
G1 X-50131.98 Y-32160.733 M03 S0
X-50131.98 M03 S0
X-50109.28 M03 S1000
X-50109.28 M03 S0
G1 X-50109.38 Y-32160.633 M03 S0
X-50109.28 M03 S0
X-50131.98 M03 S1000
X-50131.98 M03 S0
G1 X-50131.88 Y-32160.533 M03 S0
X-50131.88 M03 S0
X-50109.38 M03 S1000
X-50109.38 M03 S0
G1 X-50109.48 Y-32160.433 M03 S0
X-50109.38 M03 S0
X-50131.88 M03 S1000
X-50131.88 M03 S0
G1 X-50131.88 Y-32160.333 M03 S0
X-50131.88 M03 S0
X-50109.38 M03 S1000
X-50109.38 M03 S0
G1 X-50109.58 Y-32160.233 M03 S0
X-50109.48 M03 S0
X-50131.78 M03 S1000
X-50131.78 M03 S0
G1 X-50131.78 Y-32160.133 M03 S0
X-50131.78 M03 S0
X-50109.48 M03 S1000
X-50109.48 M03 S0
G1 X-50109.58 Y-32160.033 M03 S0
X-50109.48 M03 S0
X-50131.78 M03 S1000
X-50131.78 M03 S0
G1 X-50131.78 Y-32159.933 M03 S0
X-50131.78 M03 S0
X-50109.48 M03 S1000
X-50109.48 M03 S0
G1 X-50109.58 Y-32159.833 M03 S0
X-50109.48 M03 S0
X-50131.78 M03 S1000
X-50131.78 M03 S0
G1 X-50131.78 Y-32159.733 M03 S0
X-50131.78 M03 S0
X-50109.48 M03 S1000
X-50109.48 M03 S0
G1 X-50109.58 Y-32159.633 M03 S0
X-50109.48 M03 S0
X-50131.78 M03 S1000
X-50131.78 M03 S0
G1 X-50131.78 Y-32159.533 M03 S0
X-50131.78 M03 S0
X-50109.48 M03 S1000
X-50109.48 M03 S0
G1 X-50109.58 Y-32159.433 M03 S0
X-50109.48 M03 S0
X-50131.78 M03 S1000
X-50131.78 M03 S0
G1 X-50131.78 Y-32159.333 M03 S0
X-50131.78 M03 S0
X-50109.48 M03 S1000
X-50109.48 M03 S0
G1 X-50109.58 Y-32159.233 M03 S0
X-50109.48 M03 S0
X-50131.78 M03 S1000
X-50131.78 M03 S0
G1 X-50131.78 Y-32159.133 M03 S0
X-50131.78 M03 S0
X-50109.48 M03 S1000
X-50109.48 M03 S0
G1 X-50109.58 Y-32159.033 M03 S0
X-50109.48 M03 S0
X-50131.78 M03 S1000
X-50131.78 M03 S0
G1 X-50131.78 Y-32158.933 M03 S0
X-50131.78 M03 S0
X-50109.48 M03 S1000
X-50109.48 M03 S0
G1 X-50109.58 Y-32158.833 M03 S0
X-50109.48 M03 S0
X-50131.78 M03 S1000
X-50131.78 M03 S0
G1 X-50131.78 Y-32158.733 M03 S0
X-50131.78 M03 S0
X-50109.48 M03 S1000
X-50109.48 M03 S0
G1 X-50109.58 Y-32158.633 M03 S0
X-50109.48 M03 S0
X-50131.78 M03 S1000
X-50131.78 M03 S0
G1 X-50131.78 Y-32158.533 M03 S0
X-50131.78 M03 S0
X-50109.48 M03 S1000
X-50109.48 M03 S0
G1 X-50109.58 Y-32158.433 M03 S0
X-50109.48 M03 S0
X-50131.78 M03 S1000
X-50131.78 M03 S0
G1 X-50131.78 Y-32158.333 M03 S0
X-50131.78 M03 S0
X-50109.48 M03 S1000
X-50109.48 M03 S0
G1 X-50109.58 Y-32158.233 M03 S0
X-50109.48 M03 S0
X-50131.78 M03 S1000
X-50131.78 M03 S0
G1 X-50131.78 Y-32158.133 M03 S0
X-50131.78 M03 S0
X-50109.48 M03 S1000
X-50109.48 M03 S0
G1 X-50109.58 Y-32158.033 M03 S0
X-50109.48 M03 S0
X-50131.78 M03 S1000
X-50131.78 M03 S0
G1 X-50131.78 Y-32157.933 M03 S0
X-50131.78 M03 S0
X-50109.48 M03 S1000
X-50109.48 M03 S0
G1 X-50109.58 Y-32157.833 M03 S0
X-50109.48 M03 S0
X-50131.78 M03 S1000
X-50131.78 M03 S0
G1 X-50131.78 Y-32157.733 M03 S0
X-50131.78 M03 S0
X-50109.48 M03 S1000
X-50109.48 M03 S0
G1 X-50109.58 Y-32157.633 M03 S0
X-50109.48 M03 S0
X-50131.78 M03 S1000
X-50131.78 M03 S0
G1 X-50131.78 Y-32157.533 M03 S0
X-50131.78 M03 S0
X-50109.48 M03 S1000
X-50109.48 M03 S0
G1 X-50109.58 Y-32157.433 M03 S0
X-50109.48 M03 S0
X-50131.78 M03 S1000
X-50131.78 M03 S0
G1 X-50131.78 Y-32157.333 M03 S0
X-50131.78 M03 S0
X-50109.48 M03 S1000
X-50109.48 M03 S0
G1 X-50109.58 Y-32157.233 M03 S0
X-50109.48 M03 S0
X-50131.78 M03 S1000
X-50131.78 M03 S0
G1 X-50131.78 Y-32157.133 M03 S0
X-50131.78 M03 S0
X-50109.48 M03 S1000
X-50109.48 M03 S0
G1 X-50109.58 Y-32157.033 M03 S0
X-50109.48 M03 S0
X-50131.78 M03 S1000
X-50131.78 M03 S0
G1 X-50131.78 Y-32156.933 M03 S0
X-50131.78 M03 S0
X-50109.48 M03 S1000
X-50109.48 M03 S0
G1 X-50109.58 Y-32156.833 M03 S0
X-50109.48 M03 S0
X-50131.78 M03 S1000
X-50131.78 M03 S0
G1 X-50131.78 Y-32156.733 M03 S0
X-50131.78 M03 S0
X-50109.48 M03 S1000
X-50109.48 M03 S0
G1 X-50109.58 Y-32156.633 M03 S0
X-50109.48 M03 S0
X-50131.78 M03 S1000
X-50131.78 M03 S0
G1 X-50131.78 Y-32156.533 M03 S0
X-50131.78 M03 S0
X-50109.48 M03 S1000
X-50109.48 M03 S0
G1 X-50109.58 Y-32156.433 M03 S0
X-50109.48 M03 S0
X-50131.78 M03 S1000
X-50131.78 M03 S0
G1 X-50131.78 Y-32156.333 M03 S0
X-50131.78 M03 S0
X-50109.48 M03 S1000
X-50109.48 M03 S0
G1 X-50109.58 Y-32156.233 M03 S0
X-50109.48 M03 S0
X-50131.78 M03 S1000
X-50131.78 M03 S0
G1 X-50131.78 Y-32156.133 M03 S0
X-50131.78 M03 S0
X-50109.48 M03 S1000
X-50109.48 M03 S0
G1 X-50109.58 Y-32156.033 M03 S0
X-50109.48 M03 S0
X-50131.78 M03 S1000
X-50131.78 M03 S0
G1 X-50131.78 Y-32155.933 M03 S0
X-50131.78 M03 S0
X-50109.48 M03 S1000
X-50109.48 M03 S0
G1 X-50109.58 Y-32155.833 M03 S0
X-50109.48 M03 S0
X-50131.78 M03 S1000
X-50131.78 M03 S0
G1 X-50131.78 Y-32155.733 M03 S0
X-50131.78 M03 S0
X-50109.48 M03 S1000
X-50109.48 M03 S0
G1 X-50109.58 Y-32155.633 M03 S0
X-50109.48 M03 S0
X-50131.78 M03 S1000
X-50131.78 M03 S0
G1 X-50131.78 Y-32155.533 M03 S0
X-50131.78 M03 S0
X-50109.48 M03 S1000
X-50109.48 M03 S0
G1 X-50109.58 Y-32155.433 M03 S0
X-50109.48 M03 S0
X-50131.78 M03 S1000
X-50131.78 M03 S0
G1 X-50131.78 Y-32155.333 M03 S0
X-50131.78 M03 S0
X-50109.48 M03 S1000
X-50109.48 M03 S0
G1 X-50109.58 Y-32155.233 M03 S0
X-50109.48 M03 S0
X-50131.78 M03 S1000
X-50131.78 M03 S0
G1 X-50131.78 Y-32155.133 M03 S0
X-50131.78 M03 S0
X-50109.48 M03 S1000
X-50109.48 M03 S0
G1 X-50109.58 Y-32155.033 M03 S0
X-50109.48 M03 S0
X-50131.78 M03 S1000
X-50131.78 M03 S0
G1 X-50131.78 Y-32154.933 M03 S0
X-50131.78 M03 S0
X-50109.48 M03 S1000
X-50109.48 M03 S0
G1 X-50109.58 Y-32154.833 M03 S0
X-50109.48 M03 S0
X-50131.78 M03 S1000
X-50131.78 M03 S0
G1 X-50131.78 Y-32154.733 M03 S0
X-50131.78 M03 S0
X-50109.48 M03 S1000
X-50109.48 M03 S0
G1 X-50109.58 Y-32154.633 M03 S0
X-50109.48 M03 S0
X-50131.78 M03 S1000
X-50131.78 M03 S0
G1 X-50131.78 Y-32154.533 M03 S0
X-50131.78 M03 S0
X-50109.48 M03 S1000
X-50109.48 M03 S0
G1 X-50109.58 Y-32154.433 M03 S0
X-50109.48 M03 S0
X-50131.78 M03 S1000
X-50131.78 M03 S0
G1 X-50131.78 Y-32154.333 M03 S0
X-50131.78 M03 S0
X-50109.48 M03 S1000
X-50109.48 M03 S0
G1 X-50109.58 Y-32154.233 M03 S0
X-50109.48 M03 S0
X-50131.78 M03 S1000
X-50131.78 M03 S0
G1 X-50131.78 Y-32154.133 M03 S0
X-50131.78 M03 S0
X-50109.48 M03 S1000
X-50109.48 M03 S0
G1 X-50109.58 Y-32154.033 M03 S0
X-50109.48 M03 S0
X-50131.78 M03 S1000
X-50131.78 M03 S0
G1 X-50131.78 Y-32153.933 M03 S0
X-50131.78 M03 S0
X-50109.48 M03 S1000
X-50109.48 M03 S0
G1 X-50109.58 Y-32153.833 M03 S0
X-50109.48 M03 S0
X-50131.78 M03 S1000
X-50131.78 M03 S0
G1 X-50131.78 Y-32153.733 M03 S0
X-50131.78 M03 S0
X-50109.48 M03 S1000
X-50109.48 M03 S0
G1 X-50109.58 Y-32153.633 M03 S0
X-50109.48 M03 S0
X-50131.78 M03 S1000
X-50131.78 M03 S0
G1 X-50131.78 Y-32153.533 M03 S0
X-50131.78 M03 S0
X-50109.48 M03 S1000
X-50109.48 M03 S0
G1 X-50109.58 Y-32153.433 M03 S0
X-50109.48 M03 S0
X-50131.78 M03 S1000
X-50131.78 M03 S0
G1 X-50131.78 Y-32153.333 M03 S0
X-50131.78 M03 S0
X-50109.48 M03 S1000
X-50109.48 M03 S0
G1 X-50109.58 Y-32153.233 M03 S0
X-50109.48 M03 S0
X-50131.78 M03 S1000
X-50131.78 M03 S0
G1 X-50131.78 Y-32153.133 M03 S0
X-50131.78 M03 S0
X-50109.48 M03 S1000
X-50109.48 M03 S0
G1 X-50109.58 Y-32153.033 M03 S0
X-50109.48 M03 S0
X-50131.78 M03 S1000
X-50131.78 M03 S0
G1 X-50131.78 Y-32152.933 M03 S0
X-50131.78 M03 S0
X-50109.48 M03 S1000
X-50109.48 M03 S0
G1 X-50109.58 Y-32152.833 M03 S0
X-50109.48 M03 S0
X-50131.78 M03 S1000
X-50131.78 M03 S0
G1 X-50131.78 Y-32152.733 M03 S0
X-50131.78 M03 S0
X-50109.48 M03 S1000
X-50109.48 M03 S0
G1 X-50109.58 Y-32152.633 M03 S0
X-50109.48 M03 S0
X-50131.78 M03 S1000
X-50131.78 M03 S0
G1 X-50131.78 Y-32152.533 M03 S0
X-50131.78 M03 S0
X-50109.48 M03 S1000
X-50109.48 M03 S0
G1 X-50109.58 Y-32152.433 M03 S0
X-50109.48 M03 S0
X-50131.78 M03 S1000
X-50131.78 M03 S0
G1 X-50131.78 Y-32152.333 M03 S0
X-50131.78 M03 S0
X-50109.48 M03 S1000
X-50109.48 M03 S0
G1 X-50109.58 Y-32152.233 M03 S0
X-50109.48 M03 S0
X-50131.78 M03 S1000
X-50131.78 M03 S0
G1 X-50131.78 Y-32152.133 M03 S0
X-50131.78 M03 S0
X-50109.48 M03 S1000
X-50109.48 M03 S0
G1 X-50109.58 Y-32152.033 M03 S0
X-50109.48 M03 S0
X-50131.78 M03 S1000
X-50131.78 M03 S0
G1 X-50131.78 Y-32151.933 M03 S0
X-50131.78 M03 S0
X-50109.48 M03 S1000
X-50109.48 M03 S0
G1 X-50109.58 Y-32151.833 M03 S0
X-50109.48 M03 S0
X-50131.78 M03 S1000
X-50131.78 M03 S0
G1 X-50131.78 Y-32151.733 M03 S0
X-50131.78 M03 S0
X-50109.48 M03 S1000
X-50109.48 M03 S0
G1 X-50109.58 Y-32151.633 M03 S0
X-50109.48 M03 S0
X-50131.78 M03 S1000
X-50131.78 M03 S0
G1 X-50131.78 Y-32151.533 M03 S0
X-50131.78 M03 S0
X-50123.18 M03 S1000
X-50118.08 M03 S0
X-50109.48 M03 S1000
X-50109.48 M03 S0
G1 X-50109.58 Y-32151.433 M03 S0
X-50109.48 M03 S0
X-50117.78 M03 S1000
X-50123.48 M03 S0
X-50131.78 M03 S1000
X-50131.78 M03 S0
G1 X-50131.78 Y-32151.333 M03 S0
X-50131.78 M03 S0
X-50123.68 M03 S1000
X-50117.58 M03 S0
X-50109.48 M03 S1000
X-50109.48 M03 S0
G1 X-50109.58 Y-32151.233 M03 S0
X-50109.48 M03 S0
X-50117.48 M03 S1000
X-50123.78 M03 S0
X-50131.78 M03 S1000
X-50131.78 M03 S0
G1 X-50131.78 Y-32151.133 M03 S0
X-50131.78 M03 S0
X-50123.88 M03 S1000
X-50117.38 M03 S0
X-50109.48 M03 S1000
X-50109.48 M03 S0
G1 X-50109.58 Y-32151.033 M03 S0
X-50109.48 M03 S0
X-50117.28 M03 S1000
X-50123.98 M03 S0
X-50131.78 M03 S1000
X-50131.78 M03 S0
G1 X-50131.78 Y-32150.933 M03 S0
X-50131.78 M03 S0
X-50124.08 M03 S1000
X-50117.18 M03 S0
X-50109.48 M03 S1000
X-50109.48 M03 S0
G1 X-50109.58 Y-32150.833 M03 S0
X-50109.48 M03 S0
X-50117.08 M03 S1000
X-50124.18 M03 S0
X-50131.78 M03 S1000
X-50131.78 M03 S0
G1 X-50131.78 Y-32150.733 M03 S0
X-50131.78 M03 S0
X-50124.18 M03 S1000
X-50117.08 M03 S0
X-50109.48 M03 S1000
X-50109.48 M03 S0
G1 X-50109.58 Y-32150.633 M03 S0
X-50109.48 M03 S0
X-50116.98 M03 S1000
X-50124.28 M03 S0
X-50131.78 M03 S1000
X-50131.78 M03 S0
G1 X-50131.78 Y-32150.533 M03 S0
X-50131.78 M03 S0
X-50124.28 M03 S1000
X-50116.98 M03 S0
X-50109.48 M03 S1000
X-50109.48 M03 S0
G1 X-50109.58 Y-32150.433 M03 S0
X-50109.48 M03 S0
X-50116.88 M03 S1000
X-50124.38 M03 S0
X-50131.78 M03 S1000
X-50131.78 M03 S0
G1 X-50131.78 Y-32150.333 M03 S0
X-50131.78 M03 S0
X-50124.38 M03 S1000
X-50116.88 M03 S0
X-50109.48 M03 S1000
X-50109.48 M03 S0
G1 X-50109.58 Y-32150.233 M03 S0
X-50109.48 M03 S0
X-50116.78 M03 S1000
X-50124.48 M03 S0
X-50131.78 M03 S1000
X-50131.78 M03 S0
G1 X-50131.88 Y-32150.133 M03 S0
X-50131.88 M03 S0
X-50124.48 M03 S1000
X-50116.78 M03 S0
X-50109.38 M03 S1000
X-50109.38 M03 S0
G1 X-50109.48 Y-32150.033 M03 S0
X-50109.38 M03 S0
X-50116.78 M03 S1000
X-50124.48 M03 S0
X-50131.88 M03 S1000
X-50131.88 M03 S0
G1 X-50131.88 Y-32149.933 M03 S0
X-50131.88 M03 S0
X-50124.58 M03 S1000
X-50116.68 M03 S0
X-50109.38 M03 S1000
X-50109.38 M03 S0
G1 X-50109.38 Y-32149.833 M03 S0
X-50109.28 M03 S0
X-50116.68 M03 S1000
X-50124.58 M03 S0
X-50131.98 M03 S1000
X-50131.98 M03 S0
G1 X-50131.98 Y-32149.733 M03 S0
X-50131.98 M03 S0
X-50124.68 M03 S1000
X-50116.58 M03 S0
X-50109.28 M03 S1000
X-50109.28 M03 S0
G1 X-50109.28 Y-32149.633 M03 S0
X-50109.18 M03 S0
X-50116.48 M03 S1000
X-50124.78 M03 S0
X-50132.08 M03 S1000
X-50132.08 M03 S0
G1 X-50132.18 Y-32149.533 M03 S0
X-50132.18 M03 S0
X-50124.78 M03 S1000
X-50116.48 M03 S0
X-50109.08 M03 S1000
X-50109.08 M03 S0
G1 X-50109.18 Y-32149.433 M03 S0
X-50109.08 M03 S0
X-50116.38 M03 S1000
X-50124.88 M03 S0
X-50132.18 M03 S1000
X-50132.18 M03 S0
G1 X-50132.28 Y-32149.333 M03 S0
X-50132.28 M03 S0
X-50124.98 M03 S1000
X-50116.28 M03 S0
X-50108.98 M03 S1000
X-50108.98 M03 S0
G1 X-50108.88 Y-32149.233 M03 S0
X-50108.78 M03 S0
X-50116.08 M03 S1000
X-50125.18 M03 S0
X-50132.48 M03 S1000
X-50132.48 M03 S0
G1 X-50132.58 Y-32149.133 M03 S0
X-50132.58 M03 S0
X-50125.38 M03 S1000
X-50115.88 M03 S0
X-50108.68 M03 S1000
X-50108.68 M03 S0
G1 X-50108.58 Y-32149.033 M03 S0
X-50108.48 M03 S0
X-50115.58 M03 S1000
X-50128.18 M03 S0
X-50132.78 M03 S1000
X-50132.78 M03 S0
G1 X-50133.08 Y-32148.933 M03 S0
X-50133.08 M03 S0
X-50128.48 M03 S1000
X-50115.28 M03 S0
X-50108.18 M03 S1000
X-50108.18 M03 S0
G1 X-50107.98 Y-32148.833 M03 S0
X-50107.88 M03 S0
X-50115.08 M03 S1000
X-50128.68 M03 S0
X-50133.38 M03 S1000
X-50133.38 M03 S0
G1 X-50133.58 Y-32148.733 M03 S0
X-50133.58 M03 S0
X-50128.78 M03 S1000
X-50114.98 M03 S0
X-50107.68 M03 S1000
X-50107.68 M03 S0
G1 X-50107.58 Y-32148.633 M03 S0
X-50107.48 M03 S0
X-50114.88 M03 S1000
X-50128.88 M03 S0
X-50133.78 M03 S1000
X-50133.78 M03 S0
G1 X-50133.88 Y-32148.533 M03 S0
X-50133.88 M03 S0
X-50128.98 M03 S1000
X-50114.78 M03 S0
X-50107.38 M03 S1000
X-50107.38 M03 S0
G1 X-50107.38 Y-32148.433 M03 S0
X-50107.28 M03 S0
X-50114.68 M03 S1000
X-50129.08 M03 S0
X-50133.98 M03 S1000
X-50133.98 M03 S0
G1 X-50134.08 Y-32148.333 M03 S0
X-50134.08 M03 S0
X-50129.18 M03 S1000
X-50114.58 M03 S0
X-50107.18 M03 S1000
X-50107.18 M03 S0
G1 X-50107.28 Y-32148.233 M03 S0
X-50107.18 M03 S0
X-50114.58 M03 S1000
X-50129.18 M03 S0
X-50134.08 M03 S1000
X-50134.08 M03 S0
G1 X-50134.18 Y-32148.133 M03 S0
X-50134.18 M03 S0
X-50129.28 M03 S1000
X-50114.48 M03 S0
X-50107.08 M03 S1000
X-50107.08 M03 S0
G1 X-50107.18 Y-32148.033 M03 S0
X-50107.08 M03 S0
X-50114.48 M03 S1000
X-50129.28 M03 S0
X-50134.18 M03 S1000
X-50134.18 M03 S0
G1 X-50134.28 Y-32147.933 M03 S0
X-50134.28 M03 S0
X-50129.38 M03 S1000
X-50114.38 M03 S0
X-50106.98 M03 S1000
X-50106.98 M03 S0
G1 X-50107.08 Y-32147.833 M03 S0
X-50106.98 M03 S0
X-50114.38 M03 S1000
X-50129.38 M03 S0
X-50134.28 M03 S1000
X-50134.28 M03 S0
G1 X-50134.28 Y-32147.733 M03 S0
X-50134.28 M03 S0
X-50129.48 M03 S1000
X-50114.28 M03 S0
X-50106.98 M03 S1000
X-50106.98 M03 S0
G1 X-50106.98 Y-32147.633 M03 S0
X-50106.88 M03 S0
X-50114.28 M03 S1000
X-50129.48 M03 S0
X-50134.38 M03 S1000
X-50134.38 M03 S0
G1 X-50134.38 Y-32147.533 M03 S0
X-50134.38 M03 S0
X-50129.48 M03 S1000
X-50114.28 M03 S0
X-50106.88 M03 S1000
X-50106.88 M03 S0
G1 X-50106.98 Y-32147.433 M03 S0
X-50106.88 M03 S0
X-50114.18 M03 S1000
X-50129.58 M03 S0
X-50134.38 M03 S1000
X-50134.38 M03 S0
G1 X-50134.38 Y-32147.333 M03 S0
X-50134.38 M03 S0
X-50129.58 M03 S1000
X-50114.18 M03 S0
X-50106.88 M03 S1000
X-50106.88 M03 S0
G1 X-50106.98 Y-32147.233 M03 S0
X-50106.88 M03 S0
X-50114.08 M03 S1000
X-50129.68 M03 S0
X-50134.38 M03 S1000
X-50134.38 M03 S0
G1 X-50134.48 Y-32147.133 M03 S0
X-50134.48 M03 S0
X-50129.78 M03 S1000
X-50113.98 M03 S0
X-50106.78 M03 S1000
X-50106.78 M03 S0
G1 X-50106.88 Y-32147.033 M03 S0
X-50106.78 M03 S0
X-50113.98 M03 S1000
X-50129.78 M03 S0
X-50134.48 M03 S1000
X-50134.48 M03 S0
G1 X-50134.48 Y-32146.933 M03 S0
X-50134.48 M03 S0
X-50129.88 M03 S1000
X-50113.88 M03 S0
X-50106.78 M03 S1000
X-50106.78 M03 S0
G1 X-50106.88 Y-32146.833 M03 S0
X-50106.78 M03 S0
X-50113.78 M03 S1000
X-50129.98 M03 S0
X-50134.48 M03 S1000
X-50134.48 M03 S0
G1 X-50134.48 Y-32146.733 M03 S0
X-50134.48 M03 S0
X-50130.18 M03 S1000
X-50113.58 M03 S0
X-50106.78 M03 S1000
X-50106.78 M03 S0
G1 X-50106.88 Y-32146.633 M03 S0
X-50106.78 M03 S0
X-50113.38 M03 S1000
X-50130.38 M03 S0
X-50134.48 M03 S1000
X-50134.48 M03 S0
G1 X-50134.48 Y-32146.533 M03 S0
X-50134.48 M03 S0
X-50130.68 M03 S1000
X-50110.58 M03 S0
X-50106.78 M03 S1000
X-50106.78 M03 S0
G1 X-50106.88 Y-32146.433 M03 S0
X-50106.78 M03 S0
X-50110.38 M03 S1000
X-50130.88 M03 S0
X-50134.48 M03 S1000
X-50134.48 M03 S0
G1 X-50134.48 Y-32146.333 M03 S0
X-50134.48 M03 S0
X-50131.08 M03 S1000
X-50110.18 M03 S0
X-50106.78 M03 S1000
X-50106.78 M03 S0
G1 X-50106.88 Y-32146.233 M03 S0
X-50106.78 M03 S0
X-50110.08 M03 S1000
X-50131.18 M03 S0
X-50134.48 M03 S1000
X-50134.48 M03 S0
G1 X-50134.48 Y-32146.133 M03 S0
X-50134.48 M03 S0
X-50131.28 M03 S1000
X-50109.98 M03 S0
X-50106.78 M03 S1000
X-50106.78 M03 S0
G1 X-50106.88 Y-32146.033 M03 S0
X-50106.78 M03 S0
X-50109.88 M03 S1000
X-50131.38 M03 S0
X-50134.48 M03 S1000
X-50134.48 M03 S0
G1 X-50134.48 Y-32145.933 M03 S0
X-50134.48 M03 S0
X-50131.48 M03 S1000
X-50109.78 M03 S0
X-50106.78 M03 S1000
X-50106.78 M03 S0
G1 X-50106.88 Y-32145.833 M03 S0
X-50106.78 M03 S0
X-50109.68 M03 S1000
X-50131.58 M03 S0
X-50134.48 M03 S1000
X-50134.48 M03 S0
G1 X-50134.48 Y-32145.733 M03 S0
X-50134.48 M03 S0
X-50131.58 M03 S1000
X-50109.68 M03 S0
X-50106.78 M03 S1000
X-50106.78 M03 S0
G1 X-50106.88 Y-32145.633 M03 S0
X-50106.78 M03 S0
X-50109.58 M03 S1000
X-50131.68 M03 S0
X-50134.48 M03 S1000
X-50134.48 M03 S0
G1 X-50134.48 Y-32145.533 M03 S0
X-50134.48 M03 S0
X-50131.68 M03 S1000
X-50109.58 M03 S0
X-50106.78 M03 S1000
X-50106.78 M03 S0
G1 X-50106.88 Y-32145.433 M03 S0
X-50106.78 M03 S0
X-50109.48 M03 S1000
X-50131.78 M03 S0
X-50134.48 M03 S1000
X-50134.48 M03 S0
G1 X-50134.48 Y-32145.333 M03 S0
X-50134.48 M03 S0
X-50131.78 M03 S1000
X-50109.48 M03 S0
X-50106.78 M03 S1000
X-50106.78 M03 S0
G1 X-50106.88 Y-32145.233 M03 S0
X-50106.78 M03 S0
X-50109.48 M03 S1000
X-50131.78 M03 S0
X-50134.48 M03 S1000
X-50134.48 M03 S0
G1 X-50134.38 Y-32145.133 M03 S0
X-50134.38 M03 S0
X-50131.88 M03 S1000
X-50109.38 M03 S0
X-50106.88 M03 S1000
X-50106.88 M03 S0
G1 X-50106.98 Y-32145.033 M03 S0
X-50106.88 M03 S0
X-50109.38 M03 S1000
X-50131.88 M03 S0
X-50134.38 M03 S1000
X-50134.38 M03 S0
G1 X-50134.38 Y-32144.933 M03 S0
X-50134.38 M03 S0
X-50131.98 M03 S1000
X-50109.28 M03 S0
X-50106.88 M03 S1000
X-50106.88 M03 S0
G1 X-50107.08 Y-32144.833 M03 S0
X-50106.98 M03 S0
X-50109.28 M03 S1000
X-50131.98 M03 S0
X-50134.28 M03 S1000
X-50134.28 M03 S0
G1 X-50134.28 Y-32144.733 M03 S0
X-50134.28 M03 S0
X-50132.08 M03 S1000
X-50109.18 M03 S0
X-50106.98 M03 S1000
X-50106.98 M03 S0
G1 X-50107.18 Y-32144.633 M03 S0
X-50107.08 M03 S0
X-50109.18 M03 S1000
X-50132.08 M03 S0
X-50134.18 M03 S1000
X-50134.18 M03 S0
G1 X-50134.08 Y-32144.533 M03 S0
X-50134.08 M03 S0
X-50132.18 M03 S1000
X-50109.08 M03 S0
X-50107.18 M03 S1000
X-50107.18 M03 S0
G1 X-50107.38 Y-32144.433 M03 S0
X-50107.28 M03 S0
X-50108.98 M03 S1000
X-50132.28 M03 S0
X-50133.98 M03 S1000
X-50133.98 M03 S0
G1 X-50133.88 Y-32144.333 M03 S0
X-50133.88 M03 S0
X-50132.38 M03 S1000
X-50108.88 M03 S0
X-50107.38 M03 S1000
X-50107.38 M03 S0
G1 X-50107.58 Y-32144.233 M03 S0
X-50107.48 M03 S0
X-50108.68 M03 S1000
X-50132.58 M03 S0
X-50133.78 M03 S1000
X-50133.78 M03 S0
G1 X-50133.48 Y-32144.133 M03 S0
X-50133.48 M03 S0
X-50132.88 M03 S1000
X-50108.38 M03 S0
X-50107.78 M03 S1000
X-50107.78 M03 S0
M03 S0
M05
G0 X-50144.38 Y-32191.433
(Block-name: fill_seed.nc)
(Block-expand: 0)
(Block-enable: 1)
( Generated by VirTriad   )
( Pic 2 GCode for Grbl    )
( Start Point : LL        )
( Frame Mode  : Abs.      )
( Image Width : 50.0   mm )
(               500    px )
( Image Height: 44.1   mm )
(               441    px )
( X Maximum   : 75.0   mm )
( Y Maximum   : 44.1   mm )
( X Minimum   : -25.0  mm )
( Y Minimum   : 0.0    mm )
( X Overshoot : 25.0   mm )
( Laser Max   : 1000      )
( Feed Rate   : 2500      )
( Pixel Width : 0.1    mm )
( Resolution  : 0.1    mm )
( Image Name  : F:\Codez\testvm\gcode\test\fill_seed.png )
G21
G90
F2500
M05
M03 S0
G0 X-2.6 Y4.8
G1 X22.4 M03 S0
X22.6 M03 S1000
X35.1 M03 S0
G01 X47.5 Y4.9 M03 S0
X22.6 M03 S0
X22.4 M03 S1000
X9.9 M03 S0
G01 X-2.8 Y5.0 M03 S0
X22.2 M03 S0
X22.8 M03 S1000
X35.3 M03 S0
G01 X47.7 Y5.1 M03 S0
X22.8 M03 S0
X22.2 M03 S1000
X9.7 M03 S0
G01 X-2.9 Y5.2 M03 S0
X22.1 M03 S0
X22.8 M03 S1000
X35.3 M03 S0
G01 X47.6 Y5.3 M03 S0
X22.7 M03 S0
X22.0 M03 S1000
X9.5 M03 S0
G01 X-3.1 Y5.4 M03 S0
X21.9 M03 S0
X22.6 M03 S1000
X35.1 M03 S0
G01 X47.5 Y5.5 M03 S0
X22.6 M03 S0
X21.8 M03 S1000
X9.3 M03 S0
G01 X-3.3 Y5.6 M03 S0
X21.7 M03 S0
X22.6 M03 S1000
X35.1 M03 S0
G01 X47.5 Y5.7 M03 S0
X22.6 M03 S0
X21.6 M03 S1000
X9.1 M03 S0
G01 X-3.5 Y5.8 M03 S0
X21.5 M03 S0
X22.6 M03 S1000
X35.1 M03 S0
G01 X47.5 Y5.9 M03 S0
X22.6 M03 S0
X21.4 M03 S1000
X8.9 M03 S0
G01 X-3.7 Y6.0 M03 S0
X21.3 M03 S0
X22.6 M03 S1000
X35.1 M03 S0
G01 X47.4 Y6.1 M03 S0
X22.5 M03 S0
X21.2 M03 S1000
X8.7 M03 S0
G01 X-3.9 Y6.2 M03 S0
X21.1 M03 S0
X22.4 M03 S1000
X34.9 M03 S0
G01 X47.3 Y6.3 M03 S0
X22.4 M03 S0
X20.9 M03 S1000
X8.4 M03 S0
G01 X-4.1 Y6.4 M03 S0
X20.9 M03 S0
X22.4 M03 S1000
X34.9 M03 S0
G01 X47.3 Y6.5 M03 S0
X22.4 M03 S0
X20.7 M03 S1000
X8.2 M03 S0
G01 X-4.3 Y6.6 M03 S0
X20.7 M03 S0
X22.4 M03 S1000
X34.9 M03 S0
G01 X47.1 Y6.7 M03 S0
X22.2 M03 S0
X20.5 M03 S1000
X8.0 M03 S0
G01 X-4.5 Y6.8 M03 S0
X20.5 M03 S0
X22.2 M03 S1000
X34.7 M03 S0
G01 X47.1 Y6.9 M03 S0
X22.2 M03 S0
X20.3 M03 S1000
X7.8 M03 S0
G01 X-4.7 Y7.0 M03 S0
X20.3 M03 S0
X22.2 M03 S1000
X34.7 M03 S0
G01 X47.1 Y7.1 M03 S0
X22.2 M03 S0
X20.0 M03 S1000
X7.5 M03 S0
G01 X-5.1 Y7.2 M03 S0
X19.9 M03 S0
X22.2 M03 S1000
X34.7 M03 S0
G01 X47.1 Y7.3 M03 S0
X22.2 M03 S0
X19.8 M03 S1000
X7.3 M03 S0
G01 X-5.3 Y7.4 M03 S0
X19.7 M03 S0
X22.2 M03 S1000
X34.7 M03 S0
G01 X47.1 Y7.5 M03 S0
X22.2 M03 S0
X19.6 M03 S1000
X7.1 M03 S0
G01 X-5.5 Y7.6 M03 S0
X19.5 M03 S0
X22.2 M03 S1000
X34.7 M03 S0
G01 X46.9 Y7.7 M03 S0
X22.0 M03 S0
X19.4 M03 S1000
X6.9 M03 S0
G01 X-5.7 Y7.8 M03 S0
X19.3 M03 S0
X22.0 M03 S1000
X34.5 M03 S0
G01 X46.9 Y7.9 M03 S0
X22.0 M03 S0
X19.0 M03 S1000
X6.5 M03 S0
G01 X-6.1 Y8.0 M03 S0
X18.9 M03 S0
X22.0 M03 S1000
X34.5 M03 S0
G01 X46.9 Y8.1 M03 S0
X22.0 M03 S0
X18.8 M03 S1000
X6.3 M03 S0
G01 X-6.5 Y8.2 M03 S0
X18.5 M03 S0
X18.6 M03 S1000
X18.7 M03 S0
X22.0 M03 S1000
X34.5 M03 S0
G01 X46.9 Y8.3 M03 S0
X22.0 M03 S0
X18.4 M03 S1000
X5.9 M03 S0
G01 X-6.7 Y8.4 M03 S0
X18.3 M03 S0
X22.0 M03 S1000
X34.5 M03 S0
G01 X46.9 Y8.5 M03 S0
X22.0 M03 S0
X18.2 M03 S1000
X5.7 M03 S0
G01 X-7.1 Y8.6 M03 S0
X17.9 M03 S0
X21.9 M03 S1000
X34.4 M03 S0
G01 X46.7 Y8.7 M03 S0
X21.8 M03 S0
X17.8 M03 S1000
X5.3 M03 S0
G01 X-7.3 Y8.8 M03 S0
X17.7 M03 S0
X21.8 M03 S1000
X34.3 M03 S0
G01 X46.7 Y8.9 M03 S0
X21.8 M03 S0
X17.6 M03 S1000
X5.1 M03 S0
G01 X-7.7 Y9.0 M03 S0
X17.3 M03 S0
X21.8 M03 S1000
X34.3 M03 S0
G01 X46.7 Y9.1 M03 S0
X21.8 M03 S0
X17.2 M03 S1000
X4.7 M03 S0
G01 X-8.1 Y9.2 M03 S0
X16.9 M03 S0
X21.8 M03 S1000
X34.3 M03 S0
G01 X46.7 Y9.3 M03 S0
X21.8 M03 S0
X16.8 M03 S1000
X4.3 M03 S0
G01 X-8.5 Y9.4 M03 S0
X16.5 M03 S0
X21.8 M03 S1000
X34.3 M03 S0
G01 X46.7 Y9.5 M03 S0
X21.8 M03 S0
X16.5 M03 S1000
X4.0 M03 S0
G01 X-8.9 Y9.6 M03 S0
X16.1 M03 S0
X21.8 M03 S1000
X34.3 M03 S0
G01 X46.7 Y9.7 M03 S0
X21.8 M03 S0
X16.1 M03 S1000
X3.6 M03 S0
G01 X-9.3 Y9.8 M03 S0
X15.7 M03 S0
X21.8 M03 S1000
X34.3 M03 S0
G01 X46.7 Y9.9 M03 S0
X21.8 M03 S0
X15.7 M03 S1000
X3.2 M03 S0
G01 X-9.7 Y10.0 M03 S0
X15.3 M03 S0
X21.8 M03 S1000
X34.3 M03 S0
G01 X46.7 Y10.1 M03 S0
X21.8 M03 S0
X15.3 M03 S1000
X2.8 M03 S0
G01 X-10.0 Y10.2 M03 S0
X15.0 M03 S0
X21.8 M03 S1000
X34.3 M03 S0
G01 X46.7 Y10.3 M03 S0
X21.8 M03 S0
X14.9 M03 S1000
X2.4 M03 S0
G01 X-10.6 Y10.4 M03 S0
X14.4 M03 S0
X21.8 M03 S1000
X34.3 M03 S0
G01 X46.6 Y10.5 M03 S0
X21.7 M03 S0
X14.3 M03 S1000
X14.2 M03 S0
X14.1 M03 S1000
X1.6 M03 S0
G01 X-11.0 Y10.6 M03 S0
X14.0 M03 S0
X21.6 M03 S1000
X34.1 M03 S0
G01 X46.5 Y10.7 M03 S0
X21.6 M03 S0
X13.5 M03 S1000
X1.0 M03 S0
G01 X-11.6 Y10.8 M03 S0
X13.4 M03 S0
X21.6 M03 S1000
X34.1 M03 S0
G01 X46.5 Y10.9 M03 S0
X21.6 M03 S0
X12.9 M03 S1000
X0.4 M03 S0
G01 X-12.2 Y11.0 M03 S0
X12.8 M03 S0
X21.6 M03 S1000
X34.1 M03 S0
G01 X46.5 Y11.1 M03 S0
X21.6 M03 S0
X12.3 M03 S1000
X-0.2 M03 S0
G01 X-12.7 Y11.2 M03 S0
X12.3 M03 S0
X21.6 M03 S1000
X34.1 M03 S0
G01 X46.5 Y11.3 M03 S0
X21.6 M03 S0
X11.5 M03 S1000
X-1.0 M03 S0
G01 X-13.5 Y11.4 M03 S0
X11.5 M03 S0
X21.6 M03 S1000
X34.1 M03 S0
G01 X46.5 Y11.5 M03 S0
X21.6 M03 S0
X10.6 M03 S1000
X-1.9 M03 S0
G01 X-14.5 Y11.6 M03 S0
X10.5 M03 S0
X21.6 M03 S1000
X34.1 M03 S0
G01 X46.5 Y11.7 M03 S0
X21.6 M03 S0
X10.4 M03 S1000
X-2.1 M03 S0
G01 X-14.6 Y11.8 M03 S0
X10.4 M03 S0
X21.6 M03 S1000
X34.1 M03 S0
G01 X46.5 Y11.9 M03 S0
X21.6 M03 S0
X10.5 M03 S1000
X-2.0 M03 S0
G01 X-14.4 Y12.0 M03 S0
X10.6 M03 S0
X21.6 M03 S1000
X34.1 M03 S0
G01 X46.5 Y12.1 M03 S0
X21.6 M03 S0
X10.7 M03 S1000
X-1.8 M03 S0
G01 X-14.2 Y12.2 M03 S0
X10.8 M03 S0
X21.6 M03 S1000
X34.1 M03 S0
G01 X66.6 Y12.3 M03 S0
X41.7 M03 S0
X41.0 M03 S1000
X21.6 M03 S0
X11.5 M03 S1000
X-1.0 M03 S0
G01 X-13.4 Y12.4 M03 S0
X11.6 M03 S0
X21.6 M03 S1000
X41.0 M03 S0
X41.8 M03 S1000
X54.3 M03 S0
G01 X66.8 Y12.5 M03 S0
X41.9 M03 S0
X39.5 M03 S1000
X21.6 M03 S0
X12.3 M03 S1000
X-0.2 M03 S0
G01 X-12.6 Y12.6 M03 S0
X12.4 M03 S0
X12.5 M03 S1000
X12.8 M03 S0
X21.6 M03 S1000
X39.4 M03 S0
X41.9 M03 S1000
X54.4 M03 S0
G01 X66.7 Y12.7 M03 S0
X41.8 M03 S0
X38.5 M03 S1000
X21.6 M03 S0
X12.8 M03 S1000
X0.3 M03 S0
G01 X-11.6 Y12.8 M03 S0
X13.4 M03 S0
X21.6 M03 S1000
X38.4 M03 S0
X41.8 M03 S1000
X54.3 M03 S0
G01 X66.7 Y12.9 M03 S0
X41.8 M03 S0
X37.7 M03 S1000
X21.6 M03 S0
X13.4 M03 S1000
X0.9 M03 S0
G01 X-11.1 Y13.0 M03 S0
X13.9 M03 S0
X21.6 M03 S1000
X37.1 M03 S0
X41.6 M03 S1000
X54.1 M03 S0
G01 X66.5 Y13.1 M03 S0
X41.6 M03 S0
X37.0 M03 S1000
X21.6 M03 S0
X14.0 M03 S1000
X1.5 M03 S0
G01 X-10.5 Y13.2 M03 S0
X14.5 M03 S0
X21.8 M03 S1000
X36.5 M03 S0
X41.4 M03 S1000
X53.9 M03 S0
G01 X66.3 Y13.3 M03 S0
X41.4 M03 S0
X36.4 M03 S1000
X21.8 M03 S0
X14.6 M03 S1000
X2.1 M03 S0
G01 X-10.1 Y13.4 M03 S0
X14.9 M03 S0
X21.8 M03 S1000
X35.9 M03 S0
X41.2 M03 S1000
X53.7 M03 S0
G01 X66.1 Y13.5 M03 S0
X41.2 M03 S0
X35.8 M03 S1000
X21.8 M03 S0
X15.0 M03 S1000
X2.5 M03 S0
G01 X-9.7 Y13.6 M03 S0
X15.3 M03 S0
X21.8 M03 S1000
X35.3 M03 S0
X41.2 M03 S1000
X53.7 M03 S0
G01 X66.1 Y13.7 M03 S0
X41.2 M03 S0
X35.2 M03 S1000
X21.8 M03 S0
X15.4 M03 S1000
X2.9 M03 S0
G01 X-9.3 Y13.8 M03 S0
X15.7 M03 S0
X21.8 M03 S1000
X34.9 M03 S0
X41.0 M03 S1000
X53.5 M03 S0
G01 X65.9 Y13.9 M03 S0
X41.0 M03 S0
X34.9 M03 S1000
X21.8 M03 S0
X15.7 M03 S1000
X3.2 M03 S0
G01 X-8.9 Y14.0 M03 S0
X16.1 M03 S0
X21.8 M03 S1000
X34.5 M03 S0
X40.8 M03 S1000
X53.3 M03 S0
G01 X65.7 Y14.1 M03 S0
X40.8 M03 S0
X34.5 M03 S1000
X21.8 M03 S0
X16.1 M03 S1000
X3.6 M03 S0
G01 X-8.5 Y14.2 M03 S0
X16.5 M03 S0
X21.8 M03 S1000
X34.1 M03 S0
X40.6 M03 S1000
X53.1 M03 S0
G01 X65.5 Y14.3 M03 S0
X40.6 M03 S0
X34.1 M03 S1000
X21.8 M03 S0
X16.5 M03 S1000
X4.0 M03 S0
G01 X-8.1 Y14.4 M03 S0
X16.9 M03 S0
X21.8 M03 S1000
X33.7 M03 S0
X40.4 M03 S1000
X52.9 M03 S0
G01 X65.3 Y14.5 M03 S0
X40.4 M03 S0
X33.7 M03 S1000
X21.8 M03 S0
X16.9 M03 S1000
X4.4 M03 S0
G01 X-7.8 Y14.6 M03 S0
X17.2 M03 S0
X21.8 M03 S1000
X33.4 M03 S0
X40.4 M03 S1000
X52.9 M03 S0
G01 X65.2 Y14.7 M03 S0
X40.3 M03 S0
X33.3 M03 S1000
X21.8 M03 S0
X17.3 M03 S1000
X4.8 M03 S0
G01 X-7.4 Y14.8 M03 S0
X17.6 M03 S0
X21.8 M03 S1000
X33.0 M03 S0
X40.2 M03 S1000
X52.7 M03 S0
G01 X65.0 Y14.9 M03 S0
X40.1 M03 S0
X32.9 M03 S1000
X21.9 M03 S0
X17.7 M03 S1000
X5.2 M03 S0
G01 X-7.2 Y15.0 M03 S0
X17.8 M03 S0
X22.0 M03 S1000
X32.6 M03 S0
X40.0 M03 S1000
X52.5 M03 S0
G01 X64.8 Y15.1 M03 S0
X39.9 M03 S0
X32.5 M03 S1000
X22.0 M03 S0
X18.1 M03 S1000
X5.6 M03 S0
G01 X-6.8 Y15.2 M03 S0
X18.2 M03 S0
X22.0 M03 S1000
X32.2 M03 S0
X39.8 M03 S1000
X52.3 M03 S0
G01 X64.6 Y15.3 M03 S0
X39.7 M03 S0
X32.1 M03 S1000
X22.0 M03 S0
X18.3 M03 S1000
X5.8 M03 S0
G01 X-6.6 Y15.4 M03 S0
X18.4 M03 S0
X22.0 M03 S1000
X32.0 M03 S0
X39.6 M03 S1000
X52.1 M03 S0
G01 X64.4 Y15.5 M03 S0
X39.5 M03 S0
X31.7 M03 S1000
X22.0 M03 S0
X18.7 M03 S1000
X6.2 M03 S0
G01 X-6.2 Y15.6 M03 S0
X18.8 M03 S0
X22.0 M03 S1000
X31.6 M03 S0
X39.4 M03 S1000
X51.9 M03 S0
G01 X64.2 Y15.7 M03 S0
X39.3 M03 S0
X31.5 M03 S1000
X22.0 M03 S0
X18.9 M03 S1000
X6.4 M03 S0
G01 X-6.0 Y15.8 M03 S0
X19.0 M03 S0
X22.0 M03 S1000
X31.4 M03 S0
X39.2 M03 S1000
X51.7 M03 S0
G01 X64.0 Y15.9 M03 S0
X39.1 M03 S0
X31.1 M03 S1000
X22.0 M03 S0
X19.3 M03 S1000
X6.8 M03 S0
G01 X-5.6 Y16.0 M03 S0
X19.4 M03 S0
X22.0 M03 S1000
X31.0 M03 S0
X39.1 M03 S1000
X51.6 M03 S0
G01 X63.8 Y16.1 M03 S0
X38.9 M03 S0
X30.9 M03 S1000
X22.2 M03 S0
X19.5 M03 S1000
X7.0 M03 S0
G01 X-5.4 Y16.2 M03 S0
X19.6 M03 S0
X22.2 M03 S1000
X30.8 M03 S0
X38.9 M03 S1000
X51.4 M03 S0
G01 X63.6 Y16.3 M03 S0
X38.7 M03 S0
X30.5 M03 S1000
X22.2 M03 S0
X19.7 M03 S1000
X7.2 M03 S0
G01 X-5.2 Y16.4 M03 S0
X19.8 M03 S0
X22.2 M03 S1000
X30.4 M03 S0
X38.7 M03 S1000
X51.2 M03 S0
G01 X63.4 Y16.5 M03 S0
X38.5 M03 S0
X30.3 M03 S1000
X22.2 M03 S0
X19.9 M03 S1000
X7.4 M03 S0
G01 X-5.0 Y16.6 M03 S0
X20.0 M03 S0
X22.2 M03 S1000
X30.2 M03 S0
X38.5 M03 S1000
X51.0 M03 S0
G01 X63.2 Y16.7 M03 S0
X38.3 M03 S0
X30.1 M03 S1000
X22.2 M03 S0
X20.3 M03 S1000
X7.8 M03 S0
G01 X-4.6 Y16.8 M03 S0
X20.4 M03 S0
X22.2 M03 S1000
X30.0 M03 S0
X38.2 M03 S1000
X50.7 M03 S0
G01 X63.0 Y16.9 M03 S0
X38.1 M03 S0
X29.9 M03 S1000
X22.2 M03 S0
X20.5 M03 S1000
X8.0 M03 S0
G01 X-4.4 Y17.0 M03 S0
X20.6 M03 S0
X22.3 M03 S1000
X29.8 M03 S0
X38.0 M03 S1000
X50.5 M03 S0
G01 X62.6 Y17.1 M03 S0
X37.7 M03 S0
X29.5 M03 S1000
X22.4 M03 S0
X20.7 M03 S1000
X8.2 M03 S0
G01 X-4.2 Y17.2 M03 S0
X20.8 M03 S0
X22.4 M03 S1000
X29.4 M03 S0
X37.6 M03 S1000
X50.1 M03 S0
G01 X62.4 Y17.3 M03 S0
X37.5 M03 S0
X29.3 M03 S1000
X22.4 M03 S0
X20.9 M03 S1000
X8.4 M03 S0
G01 X-4.0 Y17.4 M03 S0
X21.0 M03 S0
X22.4 M03 S1000
X29.2 M03 S0
X37.4 M03 S1000
X49.9 M03 S0
G01 X62.2 Y17.5 M03 S0
X37.3 M03 S0
X29.1 M03 S1000
X22.4 M03 S0
X21.1 M03 S1000
X8.6 M03 S0
G01 X-3.8 Y17.6 M03 S0
X21.2 M03 S0
X22.5 M03 S1000
X29.0 M03 S0
X37.2 M03 S1000
X49.7 M03 S0
G01 X62.0 Y17.7 M03 S0
X37.1 M03 S0
X28.9 M03 S1000
X22.6 M03 S0
X21.3 M03 S1000
X8.8 M03 S0
G01 X-3.6 Y17.8 M03 S0
X21.4 M03 S0
X22.6 M03 S1000
X28.8 M03 S0
X36.8 M03 S1000
X49.3 M03 S0
G01 X61.7 Y17.9 M03 S0
X36.8 M03 S0
X28.7 M03 S1000
X22.6 M03 S0
X21.5 M03 S1000
X9.0 M03 S0
G01 X-3.4 Y18.0 M03 S0
X21.6 M03 S0
X22.6 M03 S1000
X28.6 M03 S0
X36.6 M03 S1000
X49.1 M03 S0
G01 X61.5 Y18.1 M03 S0
X36.6 M03 S0
X28.5 M03 S1000
X22.6 M03 S0
X21.7 M03 S1000
X9.2 M03 S0
G01 X-3.2 Y18.2 M03 S0
X21.8 M03 S0
X22.6 M03 S1000
X28.4 M03 S0
X36.4 M03 S1000
X48.9 M03 S0
G01 X61.3 Y18.3 M03 S0
X36.4 M03 S0
X28.3 M03 S1000
X22.6 M03 S0
X21.9 M03 S1000
X9.4 M03 S0
G01 X-3.0 Y18.4 M03 S0
X22.0 M03 S0
X22.8 M03 S1000
X28.2 M03 S0
X36.0 M03 S1000
X48.5 M03 S0
G01 X60.9 Y18.5 M03 S0
X36.0 M03 S0
X28.1 M03 S1000
X22.8 M03 S0
X22.1 M03 S1000
X9.6 M03 S0
G01 X-2.8 Y18.6 M03 S0
X22.2 M03 S0
X22.8 M03 S1000
X28.0 M03 S0
X35.8 M03 S1000
X48.3 M03 S0
G01 X60.7 Y18.7 M03 S0
X35.8 M03 S0
X27.9 M03 S1000
X22.8 M03 S0
X22.3 M03 S1000
X9.8 M03 S0
G01 X-2.6 Y18.8 M03 S0
X22.4 M03 S0
X22.6 M03 S1000
X27.8 M03 S0
X35.4 M03 S1000
X47.9 M03 S0
G01 X60.3 Y18.9 M03 S0
X35.4 M03 S0
X27.7 M03 S1000
X22.6 M03 S0
X22.5 M03 S1000
X10.0 M03 S0
G01 X2.6 Y19.0 M03 S0
X27.6 M03 S0
X35.1 M03 S1000
X47.6 M03 S0
G01 X59.9 Y19.1 M03 S0
X35.0 M03 S0
X27.5 M03 S1000
X15.0 M03 S0
G01 X2.4 Y19.2 M03 S0
X27.4 M03 S0
X34.9 M03 S1000
X47.4 M03 S0
G01 X59.7 Y19.3 M03 S0
X34.8 M03 S0
X27.3 M03 S1000
X14.8 M03 S0
G01 X2.2 Y19.4 M03 S0
X27.2 M03 S0
X34.5 M03 S1000
X47.0 M03 S0
G01 X59.3 Y19.5 M03 S0
X34.4 M03 S0
X27.2 M03 S1000
X14.7 M03 S0
G01 X2.2 Y19.6 M03 S0
X27.2 M03 S0
X34.1 M03 S1000
X46.6 M03 S0
G01 X58.7 Y19.7 M03 S0
X33.8 M03 S0
X27.1 M03 S1000
X14.6 M03 S0
G01 X2.0 Y19.8 M03 S0
X27.0 M03 S0
X33.7 M03 S1000
X46.2 M03 S0
G01 X58.3 Y19.9 M03 S0
X33.4 M03 S0
X26.9 M03 S1000
X14.4 M03 S0
G01 X1.8 Y20.0 M03 S0
X26.8 M03 S0
X33.3 M03 S1000
X45.8 M03 S0
G01 X57.9 Y20.1 M03 S0
X33.0 M03 S0
X26.7 M03 S1000
X14.2 M03 S0
G01 X1.6 Y20.2 M03 S0
X26.6 M03 S0
X32.9 M03 S1000
X45.4 M03 S0
G01 X57.3 Y20.3 M03 S0
X32.4 M03 S0
X26.5 M03 S1000
X14.0 M03 S0
G01 X1.4 Y20.4 M03 S0
X26.4 M03 S0
X32.4 M03 S1000
X44.9 M03 S0
G01 X56.9 Y20.5 M03 S0
X32.0 M03 S0
X26.4 M03 S1000
X13.9 M03 S0
G01 X1.4 Y20.6 M03 S0
X26.4 M03 S0
X32.0 M03 S1000
X44.5 M03 S0
G01 X56.3 Y20.7 M03 S0
X31.4 M03 S0
X26.3 M03 S1000
X13.8 M03 S0
G01 X1.2 Y20.8 M03 S0
X26.2 M03 S0
X31.4 M03 S1000
X43.9 M03 S0
G01 X55.8 Y20.9 M03 S0
X30.9 M03 S0
X26.1 M03 S1000
X13.6 M03 S0
G01 X1.0 Y21.0 M03 S0
X26.0 M03 S0
X30.8 M03 S1000
X43.3 M03 S0
G01 X55.2 Y21.1 M03 S0
X30.3 M03 S0
X25.9 M03 S1000
X13.4 M03 S0
G01 X0.9 Y21.2 M03 S0
X25.9 M03 S0
X30.2 M03 S1000
X42.7 M03 S0
G01 X54.4 Y21.3 M03 S0
X29.5 M03 S0
X25.9 M03 S1000
X13.4 M03 S0
G01 X0.8 Y21.4 M03 S0
X25.8 M03 S0
X29.4 M03 S1000
X41.9 M03 S0
G01 X53.4 Y21.5 M03 S0
X28.5 M03 S0
X25.7 M03 S1000
X13.2 M03 S0
G01 X0.7 Y21.6 M03 S0
X25.7 M03 S0
X28.5 M03 S1000
X41.0 M03 S0
G01 X52.3 Y21.7 M03 S0
X27.4 M03 S0
X25.9 M03 S1000
X13.4 M03 S0
G01 X1.0 Y21.8 M03 S0
X26.0 M03 S0
X26.1 M03 S1000
X27.1 M03 S0
X27.3 M03 S1000
X39.8 M03 S0
G01 X50.7 Y22.4 M03 S0
X25.8 M03 S0
X25.7 M03 S1000
X23.5 M03 S0
X23.4 M03 S1000
X10.9 M03 S0
G01 X-1.6 Y22.5 M03 S0
X23.4 M03 S0
X23.6 M03 S1000
X25.7 M03 S0
X25.9 M03 S1000
X38.4 M03 S0
G01 X52.6 Y22.6 M03 S0
X27.7 M03 S0
X25.5 M03 S1000
X23.7 M03 S0
X21.7 M03 S1000
X9.2 M03 S0
G01 X-3.4 Y22.7 M03 S0
X21.6 M03 S0
X23.8 M03 S1000
X25.5 M03 S0
X27.8 M03 S1000
X40.3 M03 S0
G01 X53.8 Y22.8 M03 S0
X28.9 M03 S0
X25.5 M03 S1000
X23.8 M03 S0
X20.5 M03 S1000
X8.0 M03 S0
G01 X-4.5 Y22.9 M03 S0
X20.5 M03 S0
X23.7 M03 S1000
X25.5 M03 S0
X28.9 M03 S1000
X41.4 M03 S0
G01 X54.6 Y23.0 M03 S0
X29.7 M03 S0
X25.7 M03 S1000
X23.6 M03 S0
X19.8 M03 S1000
X7.3 M03 S0
G01 X-5.3 Y23.1 M03 S0
X19.7 M03 S0
X23.6 M03 S1000
X25.7 M03 S0
X29.7 M03 S1000
X42.2 M03 S0
G01 X55.3 Y23.2 M03 S0
X30.4 M03 S0
X25.7 M03 S1000
X23.6 M03 S0
X19.0 M03 S1000
X6.5 M03 S0
G01 X-6.1 Y23.3 M03 S0
X18.9 M03 S0
X23.5 M03 S1000
X25.7 M03 S0
X30.5 M03 S1000
X43.0 M03 S0
G01 X55.9 Y23.4 M03 S0
X31.0 M03 S0
X25.9 M03 S1000
X23.4 M03 S0
X18.4 M03 S1000
X5.9 M03 S0
G01 X-6.6 Y23.5 M03 S0
X18.4 M03 S0
X23.3 M03 S1000
X25.9 M03 S0
X31.1 M03 S1000
X43.6 M03 S0
G01 X56.5 Y23.6 M03 S0
X31.6 M03 S0
X26.0 M03 S1000
X24.7 M03 S0
X24.5 M03 S1000
X23.2 M03 S0
X17.8 M03 S1000
X5.3 M03 S0
G01 X-7.2 Y23.7 M03 S0
X17.8 M03 S0
X23.2 M03 S1000
X24.5 M03 S0
X24.8 M03 S1000
X26.1 M03 S0
X31.6 M03 S1000
X44.1 M03 S0
G01 X57.1 Y23.8 M03 S0
X32.2 M03 S0
X26.2 M03 S1000
X24.9 M03 S0
X24.3 M03 S1000
X23.2 M03 S0
X17.3 M03 S1000
X4.8 M03 S0
G01 X-7.8 Y23.9 M03 S0
X17.2 M03 S0
X23.1 M03 S1000
X24.3 M03 S0
X24.9 M03 S1000
X26.3 M03 S0
X32.2 M03 S1000
X44.7 M03 S0
G01 X57.5 Y24.0 M03 S0
X32.6 M03 S0
X26.3 M03 S1000
X25.1 M03 S0
X24.3 M03 S1000
X23.0 M03 S0
X16.9 M03 S1000
X4.4 M03 S0
G01 X-8.2 Y24.1 M03 S0
X16.8 M03 S0
X22.9 M03 S1000
X24.3 M03 S0
X25.1 M03 S1000
X26.3 M03 S0
X32.6 M03 S1000
X45.1 M03 S0
G01 X57.8 Y24.2 M03 S0
X32.9 M03 S0
X26.4 M03 S1000
X25.1 M03 S0
X24.1 M03 S1000
X22.8 M03 S0
X16.5 M03 S1000
X4.0 M03 S0
G01 X-8.6 Y24.3 M03 S0
X16.4 M03 S0
X22.7 M03 S1000
X24.1 M03 S0
X25.2 M03 S1000
X26.6 M03 S0
X33.0 M03 S1000
X45.5 M03 S0
G01 X58.4 Y24.4 M03 S0
X33.5 M03 S0
X26.6 M03 S1000
X25.3 M03 S0
X24.1 M03 S1000
X22.6 M03 S0
X15.9 M03 S1000
X3.4 M03 S0
G01 X-9.4 Y24.5 M03 S0
X15.6 M03 S0
X22.6 M03 S1000
X24.0 M03 S0
X25.3 M03 S1000
X26.8 M03 S0
X33.6 M03 S1000
X33.7 M03 S0
X33.8 M03 S1000
X46.3 M03 S0
G01 X58.8 Y24.6 M03 S0
X33.9 M03 S0
X26.8 M03 S1000
X25.3 M03 S0
X24.0 M03 S1000
X22.6 M03 S0
X15.5 M03 S1000
X3.0 M03 S0
G01 X-9.6 Y24.7 M03 S0
X15.4 M03 S0
X22.5 M03 S1000
X24.0 M03 S0
X25.3 M03 S1000
X26.8 M03 S0
X34.0 M03 S1000
X46.5 M03 S0
G01 X59.0 Y24.8 M03 S0
X34.1 M03 S0
X26.8 M03 S1000
X25.3 M03 S0
X23.9 M03 S1000
X22.4 M03 S0
X15.3 M03 S1000
X2.8 M03 S0
G01 X-10.0 Y24.9 M03 S0
X15.0 M03 S0
X22.3 M03 S1000
X23.8 M03 S0
X25.4 M03 S1000
X27.0 M03 S0
X34.4 M03 S1000
X46.9 M03 S0
G01 X59.4 Y25.0 M03 S0
X34.5 M03 S0
X27.0 M03 S1000
X25.5 M03 S0
X23.8 M03 S1000
X22.2 M03 S0
X14.9 M03 S1000
X2.4 M03 S0
G01 X-10.4 Y25.1 M03 S0
X14.6 M03 S0
X22.1 M03 S1000
X23.8 M03 S0
X25.5 M03 S1000
X27.2 M03 S0
X34.8 M03 S1000
X47.3 M03 S0
G01 X59.8 Y25.2 M03 S0
X34.9 M03 S0
X27.2 M03 S1000
X25.5 M03 S0
X23.8 M03 S1000
X22.0 M03 S0
X14.6 M03 S1000
X2.1 M03 S0
G01 X-10.8 Y25.3 M03 S0
X14.2 M03 S0
X21.9 M03 S1000
X23.8 M03 S0
X25.6 M03 S1000
X27.4 M03 S0
X35.2 M03 S1000
X47.7 M03 S0
G01 X60.2 Y25.4 M03 S0
X35.3 M03 S0
X27.4 M03 S1000
X25.7 M03 S0
X23.7 M03 S1000
X21.8 M03 S0
X14.2 M03 S1000
X1.7 M03 S0
G01 X-11.0 Y25.5 M03 S0
X14.0 M03 S0
X21.7 M03 S1000
X23.6 M03 S0
X25.7 M03 S1000
X27.6 M03 S0
X35.4 M03 S1000
X47.9 M03 S0
G01 X60.4 Y25.6 M03 S0
X35.5 M03 S0
X27.6 M03 S1000
X25.7 M03 S0
X23.6 M03 S1000
X21.6 M03 S0
X14.0 M03 S1000
X1.5 M03 S0
G01 X-11.4 Y25.7 M03 S0
X13.6 M03 S0
X21.5 M03 S1000
X23.6 M03 S0
X25.7 M03 S1000
X27.8 M03 S0
X35.8 M03 S1000
X48.3 M03 S0
G01 X60.7 Y25.8 M03 S0
X35.8 M03 S0
X27.8 M03 S1000
X25.7 M03 S0
X23.5 M03 S1000
X21.4 M03 S0
X13.6 M03 S1000
X1.1 M03 S0
G01 X-11.8 Y25.9 M03 S0
X13.2 M03 S0
X21.3 M03 S1000
X23.4 M03 S0
X25.8 M03 S1000
X28.0 M03 S0
X36.2 M03 S1000
X48.7 M03 S0
G01 X61.1 Y26.0 M03 S0
X36.2 M03 S0
X28.0 M03 S1000
X25.9 M03 S0
X23.4 M03 S1000
X21.3 M03 S0
X13.2 M03 S1000
X0.7 M03 S0
G01 X-12.0 Y26.1 M03 S0
X13.0 M03 S0
X21.3 M03 S1000
X23.4 M03 S0
X25.9 M03 S1000
X28.2 M03 S0
X36.4 M03 S1000
X48.9 M03 S0
G01 X61.3 Y26.2 M03 S0
X36.4 M03 S0
X28.2 M03 S1000
X25.9 M03 S0
X23.4 M03 S1000
X21.2 M03 S0
X13.0 M03 S1000
X0.5 M03 S0
G01 X-12.1 Y26.3 M03 S0
X12.9 M03 S0
X21.1 M03 S1000
X23.4 M03 S0
X26.0 M03 S1000
X28.4 M03 S0
X36.6 M03 S1000
X49.1 M03 S0
G01 X61.5 Y26.4 M03 S0
X36.6 M03 S0
X28.4 M03 S1000
X26.1 M03 S0
X23.3 M03 S1000
X21.0 M03 S0
X12.8 M03 S1000
X0.3 M03 S0
G01 X-12.5 Y26.5 M03 S0
X12.5 M03 S0
X20.9 M03 S1000
X23.2 M03 S0
X26.0 M03 S1000
X28.6 M03 S0
X37.0 M03 S1000
X49.5 M03 S0
G01 X61.9 Y26.6 M03 S0
X37.0 M03 S0
X28.7 M03 S1000
X26.0 M03 S0
X23.2 M03 S1000
X20.8 M03 S0
X12.4 M03 S1000
X-0.1 M03 S0
G01 X-12.7 Y26.7 M03 S0
X12.3 M03 S0
X20.7 M03 S1000
X23.2 M03 S0
X26.0 M03 S1000
X28.7 M03 S0
X37.2 M03 S1000
X49.7 M03 S0
G01 X62.2 Y26.8 M03 S0
X37.3 M03 S0
X28.9 M03 S1000
X26.0 M03 S0
X23.2 M03 S1000
X20.4 M03 S0
X12.2 M03 S1000
X-0.3 M03 S0
G01 X-12.9 Y26.9 M03 S0
X12.1 M03 S0
X20.3 M03 S1000
X23.2 M03 S0
X26.0 M03 S1000
X28.9 M03 S0
X37.4 M03 S1000
X49.9 M03 S0
G01 X62.6 Y27.0 M03 S0
X37.7 M03 S0
X29.1 M03 S1000
X26.2 M03 S0
X23.1 M03 S1000
X20.2 M03 S0
X11.8 M03 S1000
X-0.7 M03 S0
G01 X-13.3 Y27.1 M03 S0
X11.7 M03 S0
X20.1 M03 S1000
X23.0 M03 S0
X26.2 M03 S1000
X29.1 M03 S0
X37.7 M03 S1000
X50.2 M03 S0
G01 X62.8 Y27.2 M03 S0
X37.9 M03 S0
X29.3 M03 S1000
X26.2 M03 S0
X23.0 M03 S1000
X20.0 M03 S0
X11.6 M03 S1000
X-0.9 M03 S0
G01 X-13.5 Y27.3 M03 S0
X11.5 M03 S0
X19.9 M03 S1000
X23.0 M03 S0
X26.2 M03 S1000
X29.3 M03 S0
X37.9 M03 S1000
X50.4 M03 S0
G01 X63.0 Y27.4 M03 S0
X38.1 M03 S0
X29.5 M03 S1000
X26.2 M03 S0
X23.0 M03 S1000
X19.8 M03 S0
X11.4 M03 S1000
X-1.1 M03 S0
G01 X-13.7 Y27.5 M03 S0
X11.3 M03 S0
X19.7 M03 S1000
X23.0 M03 S0
X26.2 M03 S1000
X29.5 M03 S0
X38.1 M03 S1000
X50.6 M03 S0
G01 X63.2 Y27.6 M03 S0
X38.3 M03 S0
X29.7 M03 S1000
X26.4 M03 S0
X23.0 M03 S1000
X19.6 M03 S0
X11.2 M03 S1000
X-1.3 M03 S0
G01 X-13.9 Y27.7 M03 S0
X11.1 M03 S0
X19.5 M03 S1000
X23.0 M03 S0
X26.4 M03 S1000
X29.7 M03 S0
X38.3 M03 S1000
X50.8 M03 S0
G01 X63.4 Y27.8 M03 S0
X38.5 M03 S0
X29.9 M03 S1000
X26.4 M03 S0
X22.8 M03 S1000
X19.4 M03 S0
X11.0 M03 S1000
X-1.5 M03 S0
G01 X-14.1 Y27.9 M03 S0
X10.9 M03 S0
X19.3 M03 S1000
X22.8 M03 S0
X26.4 M03 S1000
X29.9 M03 S0
X38.5 M03 S1000
X51.0 M03 S0
G01 X63.6 Y28.0 M03 S0
X38.7 M03 S0
X30.3 M03 S1000
X26.4 M03 S0
X22.8 M03 S1000
X19.0 M03 S0
X10.8 M03 S1000
X-1.7 M03 S0
G01 X-14.3 Y28.1 M03 S0
X10.7 M03 S0
X18.9 M03 S1000
X22.8 M03 S0
X26.4 M03 S1000
X30.3 M03 S0
X38.7 M03 S1000
X51.2 M03 S0
G01 X63.8 Y28.2 M03 S0
X38.9 M03 S0
X30.5 M03 S1000
X26.4 M03 S0
X22.8 M03 S1000
X18.8 M03 S0
X10.6 M03 S1000
X-1.9 M03 S0
G01 X-14.5 Y28.3 M03 S0
X10.5 M03 S0
X18.7 M03 S1000
X22.8 M03 S0
X26.5 M03 S1000
X30.5 M03 S0
X38.9 M03 S1000
X51.4 M03 S0
G01 X64.0 Y28.4 M03 S0
X39.1 M03 S0
X30.6 M03 S1000
X26.6 M03 S0
X22.8 M03 S1000
X18.6 M03 S0
X10.4 M03 S1000
X-2.1 M03 S0
G01 X-14.7 Y28.5 M03 S0
X10.3 M03 S0
X18.5 M03 S1000
X22.8 M03 S0
X26.6 M03 S1000
X30.7 M03 S0
X39.1 M03 S1000
X51.6 M03 S0
G01 X64.2 Y28.6 M03 S0
X39.3 M03 S0
X31.0 M03 S1000
X26.6 M03 S0
X22.6 M03 S1000
X18.2 M03 S0
X10.2 M03 S1000
X-2.3 M03 S0
G01 X-14.9 Y28.7 M03 S0
X10.1 M03 S0
X18.1 M03 S1000
X22.6 M03 S0
X26.6 M03 S1000
X31.1 M03 S0
X39.3 M03 S1000
X51.8 M03 S0
G01 X64.4 Y28.8 M03 S0
X39.5 M03 S0
X31.2 M03 S1000
X26.6 M03 S0
X22.6 M03 S1000
X18.0 M03 S0
X10.0 M03 S1000
X-2.5 M03 S0
G01 X-15.1 Y28.9 M03 S0
X9.9 M03 S0
X17.9 M03 S1000
X22.6 M03 S0
X26.6 M03 S1000
X31.5 M03 S0
X39.5 M03 S1000
X52.0 M03 S0
G01 X64.5 Y29.0 M03 S0
X39.6 M03 S0
X31.6 M03 S1000
X26.6 M03 S0
X22.6 M03 S1000
X17.8 M03 S0
X9.8 M03 S1000
X-2.7 M03 S0
G01 X-15.3 Y29.1 M03 S0
X9.7 M03 S0
X17.5 M03 S1000
X22.6 M03 S0
X26.6 M03 S1000
X31.7 M03 S0
X39.7 M03 S1000
X52.2 M03 S0
G01 X64.7 Y29.2 M03 S0
X39.8 M03 S0
X31.8 M03 S1000
X26.6 M03 S0
X22.6 M03 S1000
X17.4 M03 S0
X9.6 M03 S1000
X-2.9 M03 S0
G01 X-15.5 Y29.3 M03 S0
X9.5 M03 S0
X17.1 M03 S1000
X22.6 M03 S0
X26.7 M03 S1000
X32.1 M03 S0
X40.0 M03 S1000
X52.5 M03 S0
G01 X64.9 Y29.4 M03 S0
X40.0 M03 S0
X32.2 M03 S1000
X26.8 M03 S0
X22.6 M03 S1000
X17.0 M03 S0
X9.4 M03 S1000
X-3.1 M03 S0
G01 X-15.7 Y29.5 M03 S0
X9.3 M03 S0
X16.9 M03 S1000
X22.5 M03 S0
X26.8 M03 S1000
X32.3 M03 S0
X40.2 M03 S1000
X52.7 M03 S0
G01 X65.1 Y29.6 M03 S0
X40.2 M03 S0
X32.4 M03 S1000
X26.8 M03 S0
X22.4 M03 S1000
X16.8 M03 S0
X9.2 M03 S1000
X-3.3 M03 S0
G01 X-15.9 Y29.7 M03 S0
X9.1 M03 S0
X16.5 M03 S1000
X22.4 M03 S0
X26.8 M03 S1000
X32.7 M03 S0
X40.4 M03 S1000
X52.9 M03 S0
G01 X65.3 Y29.8 M03 S0
X40.4 M03 S0
X32.8 M03 S1000
X26.8 M03 S0
X22.4 M03 S1000
X16.4 M03 S0
X9.0 M03 S1000
X-3.5 M03 S0
G01 X-16.1 Y29.9 M03 S0
X8.9 M03 S0
X16.1 M03 S1000
X22.4 M03 S0
X26.8 M03 S1000
X33.1 M03 S0
X40.6 M03 S1000
X53.1 M03 S0
G01 X65.5 Y30.0 M03 S0
X40.6 M03 S0
X33.2 M03 S1000
X26.8 M03 S0
X22.4 M03 S1000
X16.1 M03 S0
X8.8 M03 S1000
X-3.7 M03 S0
G01 X-16.2 Y30.1 M03 S0
X8.8 M03 S0
X15.7 M03 S1000
X22.4 M03 S0
X26.8 M03 S1000
X33.5 M03 S0
X40.6 M03 S1000
X53.1 M03 S0
G01 X65.5 Y30.2 M03 S0
X40.6 M03 S0
X33.6 M03 S1000
X26.8 M03 S0
X22.4 M03 S1000
X15.7 M03 S0
X8.8 M03 S1000
X-3.7 M03 S0
G01 X-16.3 Y30.3 M03 S0
X8.7 M03 S0
X15.3 M03 S1000
X22.4 M03 S0
X26.8 M03 S1000
X33.9 M03 S0
X40.8 M03 S1000
X53.3 M03 S0
G01 X65.7 Y30.4 M03 S0
X40.8 M03 S0
X34.0 M03 S1000
X26.8 M03 S0
X22.4 M03 S1000
X15.3 M03 S0
X8.6 M03 S1000
X-3.9 M03 S0
G01 X-16.5 Y30.5 M03 S0
X8.5 M03 S0
X14.9 M03 S1000
X22.4 M03 S0
X26.8 M03 S1000
X34.3 M03 S0
X41.0 M03 S1000
X53.5 M03 S0
G01 X65.9 Y30.6 M03 S0
X41.0 M03 S0
X34.3 M03 S1000
X26.8 M03 S0
X22.4 M03 S1000
X14.9 M03 S0
X8.4 M03 S1000
X-4.1 M03 S0
G01 X-16.7 Y30.7 M03 S0
X8.3 M03 S0
X14.6 M03 S1000
X22.4 M03 S0
X27.0 M03 S1000
X34.7 M03 S0
X41.2 M03 S1000
X53.7 M03 S0
G01 X66.1 Y30.8 M03 S0
X41.2 M03 S0
X34.7 M03 S1000
X27.0 M03 S0
X22.4 M03 S1000
X14.5 M03 S0
X8.2 M03 S1000
X-4.3 M03 S0
G01 X-16.9 Y30.9 M03 S0
X8.1 M03 S0
X14.2 M03 S1000
X22.4 M03 S0
X27.0 M03 S1000
X35.3 M03 S0
X41.4 M03 S1000
X53.9 M03 S0
G01 X66.3 Y31.0 M03 S0
X41.4 M03 S0
X35.3 M03 S1000
X27.0 M03 S0
X22.4 M03 S1000
X14.1 M03 S0
X8.1 M03 S1000
X-4.4 M03 S0
G01 X-16.9 Y31.1 M03 S0
X8.1 M03 S0
X13.6 M03 S1000
X22.2 M03 S0
X27.0 M03 S1000
X35.6 M03 S0
X41.4 M03 S1000
X53.9 M03 S0
G01 X66.3 Y31.2 M03 S0
X41.4 M03 S0
X36.1 M03 S1000
X27.0 M03 S0
X22.2 M03 S1000
X13.1 M03 S0
X8.0 M03 S1000
X-4.5 M03 S0
G01 X-17.1 Y31.3 M03 S0
X7.9 M03 S0
X13.0 M03 S1000
X22.2 M03 S0
X27.0 M03 S1000
X36.2 M03 S0
X41.6 M03 S1000
X54.1 M03 S0
G01 X66.6 Y31.4 M03 S0
X41.7 M03 S0
X36.7 M03 S1000
X27.0 M03 S0
X22.2 M03 S1000
X12.5 M03 S0
X7.8 M03 S1000
X-4.7 M03 S0
G01 X-17.3 Y31.5 M03 S0
X7.7 M03 S0
X12.4 M03 S1000
X22.2 M03 S0
X27.0 M03 S1000
X36.8 M03 S0
X41.8 M03 S1000
X54.3 M03 S0
G01 X66.7 Y31.6 M03 S0
X41.8 M03 S0
X37.3 M03 S1000
X27.0 M03 S0
X22.2 M03 S1000
X11.9 M03 S0
X7.7 M03 S1000
X-4.8 M03 S0
G01 X-17.3 Y31.7 M03 S0
X7.7 M03 S0
X11.9 M03 S1000
X22.2 M03 S0
X27.0 M03 S1000
X37.4 M03 S0
X41.8 M03 S1000
X54.3 M03 S0
G01 X66.8 Y31.8 M03 S0
X41.9 M03 S0
X38.1 M03 S1000
X27.0 M03 S0
X22.2 M03 S1000
X11.1 M03 S0
X7.5 M03 S1000
X-5.0 M03 S0
G01 X-17.5 Y31.9 M03 S0
X7.5 M03 S0
X11.1 M03 S1000
X22.2 M03 S0
X27.0 M03 S1000
X38.1 M03 S0
X42.0 M03 S1000
X54.5 M03 S0
G01 X67.0 Y32.0 M03 S0
X42.1 M03 S0
X39.1 M03 S1000
X27.0 M03 S0
X22.2 M03 S1000
X10.2 M03 S0
X7.3 M03 S1000
X-5.2 M03 S0
G01 X-17.7 Y32.1 M03 S0
X7.3 M03 S0
X10.1 M03 S1000
X22.2 M03 S0
X27.0 M03 S1000
X39.1 M03 S0
X42.1 M03 S1000
X54.6 M03 S0
G01 X66.9 Y32.2 M03 S0
X42.0 M03 S0
X40.4 M03 S1000
X27.0 M03 S0
X22.2 M03 S1000
X9.0 M03 S0
X7.4 M03 S1000
X-5.1 M03 S0
G01 X-17.5 Y32.3 M03 S0
X7.5 M03 S0
X9.0 M03 S1000
X22.2 M03 S0
X27.0 M03 S1000
X40.5 M03 S0
X41.9 M03 S1000
X54.4 M03 S0
G01 X51.9 Y32.4 M03 S0
X27.0 M03 S0
X22.2 M03 S1000
X9.7 M03 S0
G01 X-2.8 Y32.5 M03 S0
X22.2 M03 S0
X27.0 M03 S1000
X39.5 M03 S0
G01 X51.9 Y32.6 M03 S0
X27.0 M03 S0
X22.2 M03 S1000
X9.7 M03 S0
G01 X-2.8 Y32.7 M03 S0
X22.2 M03 S0
X27.0 M03 S1000
X39.5 M03 S0
G01 X51.9 Y32.8 M03 S0
X27.0 M03 S0
X22.2 M03 S1000
X9.7 M03 S0
G01 X-2.8 Y32.9 M03 S0
X22.2 M03 S0
X27.0 M03 S1000
X39.5 M03 S0
G01 X51.9 Y33.0 M03 S0
X27.0 M03 S0
X22.2 M03 S1000
X9.7 M03 S0
G01 X-2.8 Y33.1 M03 S0
X22.2 M03 S0
X27.0 M03 S1000
X39.5 M03 S0
G01 X51.9 Y33.2 M03 S0
X27.0 M03 S0
X22.2 M03 S1000
X9.7 M03 S0
G01 X-2.8 Y33.3 M03 S0
X22.2 M03 S0
X27.0 M03 S1000
X39.5 M03 S0
G01 X51.9 Y33.4 M03 S0
X27.0 M03 S0
X22.2 M03 S1000
X9.7 M03 S0
G01 X-2.8 Y33.5 M03 S0
X22.2 M03 S0
X27.0 M03 S1000
X39.5 M03 S0
G01 X51.9 Y33.6 M03 S0
X27.0 M03 S0
X22.2 M03 S1000
X9.7 M03 S0
G01 X-2.8 Y33.7 M03 S0
X22.2 M03 S0
X27.0 M03 S1000
X39.5 M03 S0
G01 X51.9 Y33.8 M03 S0
X27.0 M03 S0
X22.2 M03 S1000
X9.7 M03 S0
G01 X-2.8 Y33.9 M03 S0
X22.2 M03 S0
X27.0 M03 S1000
X39.5 M03 S0
G01 X51.9 Y34.0 M03 S0
X27.0 M03 S0
X22.2 M03 S1000
X9.7 M03 S0
G01 X-2.8 Y34.1 M03 S0
X22.2 M03 S0
X27.0 M03 S1000
X39.5 M03 S0
G01 X51.9 Y34.2 M03 S0
X27.0 M03 S0
X22.2 M03 S1000
X9.7 M03 S0
G01 X-2.8 Y34.3 M03 S0
X22.2 M03 S0
X27.0 M03 S1000
X39.5 M03 S0
G01 X51.9 Y34.4 M03 S0
X27.0 M03 S0
X22.2 M03 S1000
X9.7 M03 S0
G01 X-2.6 Y34.5 M03 S0
X22.4 M03 S0
X27.0 M03 S1000
X39.5 M03 S0
G01 X51.9 Y34.6 M03 S0
X27.0 M03 S0
X22.4 M03 S1000
X9.9 M03 S0
G01 X-2.6 Y34.7 M03 S0
X22.4 M03 S0
X27.0 M03 S1000
X39.5 M03 S0
G01 X51.9 Y34.8 M03 S0
X27.0 M03 S0
X22.4 M03 S1000
X9.9 M03 S0
G01 X-2.6 Y34.9 M03 S0
X22.4 M03 S0
X27.0 M03 S1000
X39.5 M03 S0
G01 X51.9 Y35.0 M03 S0
X27.0 M03 S0
X22.4 M03 S1000
X9.9 M03 S0
G01 X-2.6 Y35.1 M03 S0
X22.4 M03 S0
X26.8 M03 S1000
X39.3 M03 S0
G01 X51.7 Y35.2 M03 S0
X26.8 M03 S0
X22.4 M03 S1000
X9.9 M03 S0
G01 X-2.6 Y35.3 M03 S0
X22.4 M03 S0
X26.8 M03 S1000
X39.3 M03 S0
G01 X51.7 Y35.4 M03 S0
X26.8 M03 S0
X22.4 M03 S1000
X9.9 M03 S0
G01 X-2.6 Y35.5 M03 S0
X22.4 M03 S0
X26.8 M03 S1000
X39.3 M03 S0
G01 X51.7 Y35.6 M03 S0
X26.8 M03 S0
X22.4 M03 S1000
X9.9 M03 S0
G01 X-2.6 Y35.7 M03 S0
X22.4 M03 S0
X26.8 M03 S1000
X39.3 M03 S0
G01 X51.7 Y35.8 M03 S0
X26.8 M03 S0
X22.4 M03 S1000
X9.9 M03 S0
G01 X-2.6 Y35.9 M03 S0
X22.4 M03 S0
X26.8 M03 S1000
X39.3 M03 S0
G01 X51.7 Y36.0 M03 S0
X26.8 M03 S0
X22.4 M03 S1000
X9.9 M03 S0
G01 X-2.6 Y36.1 M03 S0
X22.4 M03 S0
X26.8 M03 S1000
X39.3 M03 S0
G01 X51.7 Y36.2 M03 S0
X26.8 M03 S0
X22.6 M03 S1000
X10.1 M03 S0
G01 X-2.4 Y36.3 M03 S0
X22.6 M03 S0
X26.8 M03 S1000
X39.3 M03 S0
G01 X51.6 Y36.4 M03 S0
X26.7 M03 S0
X22.6 M03 S1000
X10.1 M03 S0
G01 X-2.4 Y36.5 M03 S0
X22.6 M03 S0
X26.6 M03 S1000
X39.1 M03 S0
G01 X51.5 Y36.6 M03 S0
X26.6 M03 S0
X22.6 M03 S1000
X10.1 M03 S0
G01 X-2.4 Y36.7 M03 S0
X22.6 M03 S0
X26.6 M03 S1000
X39.1 M03 S0
G01 X51.5 Y36.8 M03 S0
X26.6 M03 S0
X22.6 M03 S1000
X10.1 M03 S0
G01 X-2.4 Y36.9 M03 S0
X22.6 M03 S0
X26.6 M03 S1000
X39.1 M03 S0
G01 X51.5 Y37.0 M03 S0
X26.6 M03 S0
X22.6 M03 S1000
X10.1 M03 S0
G01 X-2.4 Y37.1 M03 S0
X22.6 M03 S0
X26.6 M03 S1000
X39.1 M03 S0
G01 X51.5 Y37.2 M03 S0
X26.6 M03 S0
X22.8 M03 S1000
X10.3 M03 S0
G01 X-2.2 Y37.3 M03 S0
X22.8 M03 S0
X26.6 M03 S1000
X39.1 M03 S0
G01 X51.3 Y37.4 M03 S0
X26.4 M03 S0
X22.8 M03 S1000
X10.3 M03 S0
G01 X-2.2 Y37.5 M03 S0
X22.8 M03 S0
X26.4 M03 S1000
X38.9 M03 S0
G01 X51.3 Y37.6 M03 S0
X26.4 M03 S0
X22.8 M03 S1000
X10.3 M03 S0
G01 X-2.2 Y37.7 M03 S0
X22.8 M03 S0
X26.4 M03 S1000
X38.9 M03 S0
G01 X51.3 Y37.8 M03 S0
X26.4 M03 S0
X22.8 M03 S1000
X10.3 M03 S0
G01 X-2.1 Y37.9 M03 S0
X22.9 M03 S0
X26.4 M03 S1000
X38.9 M03 S0
G01 X51.3 Y38.0 M03 S0
X26.4 M03 S0
X23.0 M03 S1000
X10.5 M03 S0
G01 X-2.0 Y38.1 M03 S0
X23.0 M03 S0
X26.3 M03 S1000
X38.8 M03 S0
G01 X51.1 Y38.2 M03 S0
X26.2 M03 S0
X23.0 M03 S1000
X10.5 M03 S0
G01 X-2.0 Y38.3 M03 S0
X23.0 M03 S0
X26.2 M03 S1000
X38.7 M03 S0
G01 X51.1 Y38.4 M03 S0
X26.2 M03 S0
X23.0 M03 S1000
X10.5 M03 S0
G01 X-2.0 Y38.5 M03 S0
X23.0 M03 S0
X26.2 M03 S1000
X38.7 M03 S0
G01 X51.1 Y38.6 M03 S0
X26.2 M03 S0
X23.0 M03 S1000
X10.5 M03 S0
G01 X-1.9 Y38.7 M03 S0
X23.1 M03 S0
X26.1 M03 S1000
X38.6 M03 S0
G01 X50.9 Y38.8 M03 S0
X26.0 M03 S0
X23.2 M03 S1000
X10.7 M03 S0
G01 X-1.8 Y38.9 M03 S0
X23.2 M03 S0
X26.0 M03 S1000
X38.5 M03 S0
G01 X50.9 Y39.0 M03 S0
X26.0 M03 S0
X23.2 M03 S1000
X10.7 M03 S0
G01 X-1.8 Y39.1 M03 S0
X23.2 M03 S0
X26.1 M03 S1000
X38.6 M03 S0
G01 X50.9 Y39.2 M03 S0
X26.0 M03 S0
X23.2 M03 S1000
X10.7 M03 S0
G01 X-1.6 Y39.3 M03 S0
X23.4 M03 S0
X25.9 M03 S1000
X38.4 M03 S0
G01 X50.7 Y39.4 M03 S0
X25.8 M03 S0
X23.4 M03 S1000
X10.9 M03 S0
G01 X-1.6 Y39.5 M03 S0
X23.4 M03 S0
X25.9 M03 S1000
X38.4 M03 S0
G01 X50.8 Y39.6 M03 S0
X25.9 M03 S0
X23.4 M03 S1000
X10.9 M03 S0
G01 X-1.6 Y39.7 M03 S0
X23.4 M03 S0
X25.9 M03 S1000
X38.4 M03 S0
G01 X50.7 Y39.8 M03 S0
X25.8 M03 S0
X23.4 M03 S1000
X10.9 M03 S0
G01 X-1.4 Y39.9 M03 S0
X23.6 M03 S0
X25.7 M03 S1000
X38.2 M03 S0
G01 X50.6 Y40.0 M03 S0
X25.7 M03 S0
X23.6 M03 S1000
X11.1 M03 S0
G01 X-1.4 Y40.1 M03 S0
X23.6 M03 S0
X25.7 M03 S1000
X38.2 M03 S0
G01 X50.6 Y40.2 M03 S0
X25.7 M03 S0
X23.6 M03 S1000
X11.1 M03 S0
G01 X-1.2 Y40.3 M03 S0
X23.8 M03 S0
X25.7 M03 S1000
X38.2 M03 S0
G01 X50.5 Y40.4 M03 S0
X25.6 M03 S0
X23.8 M03 S1000
X11.3 M03 S0
G01 X-1.2 Y40.5 M03 S0
X23.8 M03 S0
X25.5 M03 S1000
X38.0 M03 S0
G01 X50.4 Y40.6 M03 S0
X25.5 M03 S0
X23.8 M03 S1000
X11.3 M03 S0
G01 X-1.2 Y40.7 M03 S0
X23.8 M03 S0
X25.5 M03 S1000
X38.0 M03 S0
G01 X50.2 Y40.8 M03 S0
X25.3 M03 S0
X23.9 M03 S1000
X11.4 M03 S0
G01 X-1.0 Y40.9 M03 S0
X24.0 M03 S0
X25.3 M03 S1000
X37.8 M03 S0
G01 X50.2 Y41.0 M03 S0
X25.3 M03 S0
X24.0 M03 S1000
X11.5 M03 S0
G01 X-1.0 Y41.1 M03 S0
X24.0 M03 S0
X25.3 M03 S1000
X37.8 M03 S0
G01 X50.2 Y41.2 M03 S0
X25.3 M03 S0
X24.1 M03 S1000
X11.6 M03 S0
G01 X-0.8 Y41.3 M03 S0
X24.2 M03 S0
X25.3 M03 S1000
X37.8 M03 S0
G01 X50.0 Y41.4 M03 S0
X25.1 M03 S0
X24.1 M03 S1000
X11.6 M03 S0
G01 X-0.8 Y41.5 M03 S0
X24.2 M03 S0
X25.1 M03 S1000
X37.6 M03 S0
G01 X50.0 Y41.6 M03 S0
X25.1 M03 S0
X24.3 M03 S1000
X11.8 M03 S0
G01 X-0.7 Y41.7 M03 S0
X24.3 M03 S0
X25.1 M03 S1000
X37.6 M03 S0
G01 X49.8 Y41.8 M03 S0
X24.9 M03 S0
X24.3 M03 S1000
X11.8 M03 S0
G01 X-0.6 Y41.9 M03 S0
X24.4 M03 S0
X24.9 M03 S1000
X37.4 M03 S0
G01 X49.6 Y42.0 M03 S0
X24.7 M03 S0
X24.5 M03 S1000
X12.0 M03 S0
G01 X-0.4 Y42.1 M03 S0
X24.6 M03 S0
X24.7 M03 S1000
X37.2 M03 S0
M03 S0
M05
G00 X0 Y0
