(Block-name: Header)
(Block-expand: 0)
(Block-enable: 1)
(G-CODE GENERATED BY FLATCAM v8.991 - www.flatcam.org - Version Date: 2019/12/27)

(Name: big_roaster_oil-B_Cu_v4)
(Type: G-code from Geometry)
(Units: MM)

(Created on неделя, 11 април 2021 at 12:40)

(TOOL DIAMETER: 0.1 mm)
(Feedrate: 120.0 mm/min)
(Feedrate_Z: 60.0 mm/min)
(Feedrate rapids 1500.0 mm/min)

(Z_Cut: -0.13 mm)
(Z_Move: 5.0 mm)
(Z Toolchange: 15.0 mm)
(X,Y Toolchange: 0.0000, 0.0000 mm)
(Z Start: None mm)
(Z End: 15.0 mm)
(Steps per circle: 64)
(Preprocessor Geometry: default)

(X range:    0.0300 ...   74.7555  mm)
(Y range:  -61.8252 ...   -0.2901  mm)

(Spindle Speed: 10000 RPM)
G21
G90
G94




G01 F120.00
G00 Z5.0000
(Block-name: block)
(Block-expand: 0)
(Block-enable: 1)

M03 S10000
G0 X2.83 Y10.822
G01 F60.00
G01 Z-0.1300
G01 F120.00
G1 X6.83 Y10.822
G1 X6.8398 Y10.821
G1 X6.8445 Y10.8198
G1 X6.8536 Y10.8161
G1 X6.8617 Y10.8107
G1 X6.8654 Y10.8074
G1 X6.8716 Y10.7998
G1 X6.8741 Y10.7956
G1 X6.8778 Y10.7865
G1 X6.8798 Y10.7769
G1 X6.88 Y10.772
G1 X6.88 Y6.772
G1 X6.8796 Y6.766
G1 X9.4328 Y4.2128
G1 X9.5004 Y4.1383
G1 X9.5648 Y4.0516
G1 X9.6176 Y3.963
G1 X9.6595 Y3.8743
G1 X9.6959 Y3.7726
G1 X9.7207 Y3.6725
G1 X9.7356 Y3.5705
G1 X9.7405 Y3.47
G1 X9.7405 Y2.867
G1 X9.756 Y2.8645
G1 X9.875 Y2.8347
G1 X9.9952 Y2.7919
G1 X10.115 Y2.7353
G1 X10.2242 Y2.6695
G1 X10.3266 Y2.5933
G1 X10.4209 Y2.5075
G1 X10.5033 Y2.4166
G1 X10.5795 Y2.3142
G1 X10.6453 Y2.205
G1 X10.7 Y2.0897
G1 X10.7433 Y1.9697
G1 X10.7754 Y1.8412
G1 X10.7939 Y1.715
G1 X10.7999 Y1.5875
G1 X10.7934 Y1.4601
G1 X10.7745 Y1.334
G1 X10.7433 Y1.2103
G1 X10.7 Y1.0903
G1 X10.6453 Y0.975
G1 X10.5795 Y0.8658
G1 X10.5033 Y0.7634
G1 X10.4175 Y0.6691
G1 X10.3266 Y0.5867
G1 X10.2242 Y0.5105
G1 X10.115 Y0.4447
G1 X9.9997 Y0.39
G1 X9.875 Y0.3453
G1 X9.7512 Y0.3146
G1 X9.625 Y0.2961
G1 X9.4975 Y0.2901
G1 X9.3701 Y0.2966
G1 X9.244 Y0.3155
G1 X9.125 Y0.3453
G1 X9.0048 Y0.3881
G1 X8.885 Y0.4447
G1 X8.7798 Y0.5078
G1 X8.7718 Y0.5135
G1 X8.6875 Y0.5096
G1 X8.5846 Y0.5149
G1 X8.4827 Y0.5302
G1 X8.3827 Y0.5555
G1 X8.2857 Y0.5905
G1 X8.1927 Y0.6348
G1 X8.1044 Y0.688
G1 X8.0217 Y0.7496
G1 X7.9455 Y0.819
G1 X7.8764 Y0.8955
G1 X7.818 Y0.9744
G1 X7.7648 Y1.0627
G1 X7.7186 Y1.1603
G1 X7.6841 Y1.2574
G1 X7.6593 Y1.3575
G1 X7.6444 Y1.4595
G1 X7.6395 Y1.56
G1 X7.6395 Y3.0349
G1 X4.0872 Y6.5872
G1 X4.0196 Y6.6617
G1 X3.9745 Y6.722
G1 X2.83 Y6.722
G1 X2.8251 Y6.7222
G1 X2.8155 Y6.7242
G1 X2.8064 Y6.7279
G1 X2.7983 Y6.7333
G1 X2.7946 Y6.7366
G1 X2.7884 Y6.7442
G1 X2.7859 Y6.7484
G1 X2.7822 Y6.7575
G1 X2.7802 Y6.7671
G1 X2.78 Y6.772
G1 X2.78 Y10.772
G1 X2.781 Y10.7818
G1 X2.7838 Y10.7911
G1 X2.7884 Y10.7998
G1 X2.7946 Y10.8074
G1 X2.8022 Y10.8136
G1 X2.8109 Y10.8182
G1 X2.8202 Y10.821
G1 X2.83 Y10.822
G00 Z5.0000
(Block-name: block)
(Block-expand: 0)
(Block-enable: 1)
G0 X0.3296 Y13.2025
G01 F60.00
G01 Z-0.1300
G01 F120.00
G1 X0.3349 Y13.3054
G1 X0.3493 Y13.4025
G1 X0.3514 Y13.4121
G1 X0.3176 Y13.5073
G1 X0.269 Y13.7025
G1 X0.2397 Y13.9015
G1 X0.2301 Y14.0975
G1 X0.2397 Y14.2985
G1 X0.269 Y14.4975
G1 X0.319 Y14.6974
G1 X0.387 Y14.8867
G1 X0.4733 Y15.0685
G1 X0.5742 Y15.2368
G1 X0.6938 Y15.3986
G1 X0.8287 Y15.5478
G1 X0.9776 Y15.6831
G1 X1.1391 Y15.8031
G1 X1.2295 Y15.8576
G1 X1.2295 Y38.3724
G1 X1.1391 Y38.4269
G1 X0.9814 Y38.5438
G1 X0.8287 Y38.6822
G1 X0.6969 Y38.8276
G1 X0.5769 Y38.9891
G1 X0.471 Y39.1658
G1 X0.387 Y39.3433
G1 X0.319 Y39.5326
G1 X0.2699 Y39.7277
G1 X0.2397 Y39.9315
G1 X0.2301 Y40.1325
G1 X0.2397 Y40.3285
G1 X0.269 Y40.5275
G1 X0.3176 Y40.7227
G1 X0.3852 Y40.9122
G1 X0.471 Y41.0942
G1 X0.5742 Y41.2668
G1 X0.6938 Y41.4286
G1 X0.8287 Y41.5778
G1 X0.9776 Y41.7131
G1 X1.1391 Y41.8331
G1 X1.3115 Y41.9367
G1 X1.4933 Y42.023
G1 X1.6826 Y42.091
G1 X1.8777 Y42.1401
G1 X2.0766 Y42.1698
G1 X2.2775 Y42.1799
G1 X2.4785 Y42.1703
G1 X2.6775 Y42.141
G1 X2.8727 Y42.0924
G1 X3.0622 Y42.0248
G1 X3.2442 Y41.939
G1 X3.4209 Y41.8331
G1 X3.5824 Y41.7131
G1 X3.7313 Y41.5778
G1 X3.8662 Y41.4286
G1 X3.9858 Y41.2668
G1 X4.089 Y41.0942
G1 X4.173 Y40.9167
G1 X4.2424 Y40.7227
G1 X4.291 Y40.5275
G1 X4.3203 Y40.3285
G1 X4.3299 Y40.1275
G1 X4.3203 Y39.9315
G1 X4.2901 Y39.7277
G1 X4.241 Y39.5326
G1 X4.173 Y39.3433
G1 X4.089 Y39.1658
G1 X3.9831 Y38.9891
G1 X3.8631 Y38.8276
G1 X3.7313 Y38.6822
G1 X3.5786 Y38.5438
G1 X3.4209 Y38.4269
G1 X3.3305 Y38.3724
G1 X3.3305 Y15.8576
G1 X3.4209 Y15.8031
G1 X3.5786 Y15.6862
G1 X3.7313 Y15.5478
G1 X3.8662 Y15.3986
G1 X3.9831 Y15.2409
G1 X4.0867 Y15.0685
G1 X4.173 Y14.8867
G1 X4.2424 Y14.6927
G1 X4.2901 Y14.5023
G1 X4.3198 Y14.3034
G1 X4.3299 Y14.0975
G1 X4.3198 Y13.8966
G1 X4.2901 Y13.6977
G1 X4.2424 Y13.5073
G1 X4.1748 Y13.3178
G1 X4.089 Y13.1358
G1 X3.9858 Y12.9632
G1 X3.8662 Y12.8014
G1 X3.7313 Y12.6522
G1 X3.5824 Y12.5169
G1 X3.4209 Y12.3969
G1 X3.2485 Y12.2933
G1 X3.0667 Y12.207
G1 X2.8774 Y12.139
G1 X2.6823 Y12.0899
G1 X2.4834 Y12.0602
G1 X2.4305 Y12.0573
G1 X2.4305 Y4.59
G1 X4.5 Y4.59
G1 X4.5098 Y4.589
G1 X4.5191 Y4.5862
G1 X4.5236 Y4.5841
G1 X4.5317 Y4.5787
G1 X4.5354 Y4.5754
G1 X4.5387 Y4.5717
G1 X4.5441 Y4.5636
G1 X4.5462 Y4.5591
G1 X4.549 Y4.5498
G1 X4.55 Y4.54
G1 X4.55 Y0.54
G1 X4.5498 Y0.5351
G1 X4.5478 Y0.5255
G1 X4.5441 Y0.5164
G1 X4.5416 Y0.5122
G1 X4.5354 Y0.5046
G1 X4.5317 Y0.5013
G1 X4.5236 Y0.4959
G1 X4.5145 Y0.4922
G1 X4.5049 Y0.4902
G1 X4.5 Y0.49
G1 X0.5 Y0.49
G1 X0.4902 Y0.491
G1 X0.4855 Y0.4922
G1 X0.4764 Y0.4959
G1 X0.4683 Y0.5013
G1 X0.4613 Y0.5083
G1 X0.4584 Y0.5122
G1 X0.4538 Y0.5209
G1 X0.4522 Y0.5255
G1 X0.4502 Y0.5351
G1 X0.45 Y0.54
G1 X0.45 Y3.1721
G1 X0.4086 Y3.2603
G1 X0.3755 Y3.3527
G1 X0.3502 Y3.4527
G1 X0.3349 Y3.5546
G1 X0.3295 Y3.66
G1 X0.3296 Y13.2025
G00 Z5.0000
(Block-name: block)
(Block-expand: 0)
(Block-enable: 1)
G0 X9.297 Y13.0074
G01 F60.00
G01 Z-0.1300
G01 F120.00
G1 X9.244 Y13.0155
G1 X9.125 Y13.0453
G1 X9.0048 Y13.0881
G1 X8.8894 Y13.1424
G1 X8.7798 Y13.2078
G1 X8.6772 Y13.2836
G1 X8.5825 Y13.3691
G1 X8.4967 Y13.4634
G1 X8.4205 Y13.5658
G1 X8.3547 Y13.675
G1 X8.3 Y13.7903
G1 X8.2567 Y13.9103
G1 X8.2255 Y14.034
G1 X8.2066 Y14.1601
G1 X8.2001 Y14.2875
G1 X8.2061 Y14.415
G1 X8.2246 Y14.5412
G1 X8.2553 Y14.665
G1 X8.2981 Y14.7852
G1 X8.3524 Y14.9006
G1 X8.4178 Y15.0102
G1 X8.4936 Y15.1128
G1 X8.5791 Y15.2075
G1 X8.6734 Y15.2933
G1 X8.7758 Y15.3695
G1 X8.885 Y15.4353
G1 X9.0003 Y15.49
G1 X9.1203 Y15.5333
G1 X9.244 Y15.5645
G1 X9.3701 Y15.5834
G1 X9.4975 Y15.5899
G1 X9.625 Y15.5839
G1 X9.7512 Y15.5654
G1 X9.8797 Y15.5333
G1 X9.9997 Y15.49
G1 X10.115 Y15.4353
G1 X10.2202 Y15.3722
G1 X10.3228 Y15.2964
G1 X10.4209 Y15.2075
G1 X10.5033 Y15.1166
G1 X10.5795 Y15.0142
G1 X10.6476 Y14.9006
G1 X10.7 Y14.7897
G1 X10.7433 Y14.6697
G1 X10.7745 Y14.546
G1 X10.7826 Y14.493
G1 X11.1128 Y14.1628
G1 X11.1804 Y14.0883
G1 X11.2448 Y14.0016
G1 X11.2976 Y13.913
G1 X11.3414 Y13.8197
G1 X11.3759 Y13.7226
G1 X11.4007 Y13.6225
G1 X11.4156 Y13.5205
G1 X11.4204 Y13.4225
G1 X11.4205 Y11.1891
G1 X13.7891 Y8.8205
G1 X18.5549 Y8.8205
G1 X22.2795 Y12.5451
G1 X22.2795 Y12.56
G1 X22.2251 Y12.5602
G1 X22.2155 Y12.5622
G1 X22.2064 Y12.5659
G1 X22.2022 Y12.5684
G1 X22.1946 Y12.5746
G1 X22.1884 Y12.5822
G1 X22.1859 Y12.5864
G1 X22.1822 Y12.5955
G1 X22.181 Y12.6002
G1 X22.18 Y12.61
G1 X22.18 Y14.81
G1 X22.181 Y14.8198
G1 X22.1838 Y14.8291
G1 X22.1884 Y14.8378
G1 X22.1946 Y14.8454
G1 X22.2022 Y14.8516
G1 X22.2109 Y14.8562
G1 X22.2202 Y14.859
G1 X22.23 Y14.86
G1 X24.43 Y14.86
G1 X24.4398 Y14.859
G1 X24.4491 Y14.8562
G1 X24.4578 Y14.8516
G1 X24.4617 Y14.8487
G1 X24.4687 Y14.8417
G1 X24.4741 Y14.8336
G1 X24.4778 Y14.8245
G1 X24.4798 Y14.8149
G1 X24.4798 Y12.6051
G1 X24.4778 Y12.5955
G1 X24.4762 Y12.5909
G1 X24.4741 Y12.5864
G1 X24.4687 Y12.5783
G1 X24.4654 Y12.5746
G1 X24.4578 Y12.5684
G1 X24.4491 Y12.5638
G1 X24.4398 Y12.561
G1 X24.4349 Y12.5602
G1 X24.3805 Y12.56
G1 X24.3804 Y12.1075
G1 X24.3756 Y12.0095
G1 X24.3607 Y11.9075
G1 X24.3359 Y11.8074
G1 X24.3014 Y11.7103
G1 X24.2576 Y11.617
G1 X24.2048 Y11.5284
G1 X24.1436 Y11.4455
G1 X24.0728 Y11.3672
G1 X19.731 Y7.0255
G1 X19.6583 Y6.9596
G1 X19.5756 Y6.898
G1 X19.483 Y6.8424
G1 X19.3943 Y6.8005
G1 X19.2973 Y6.7655
G1 X19.1973 Y6.7402
G1 X19.0954 Y6.7249
G1 X18.99 Y6.7195
G1 X13.3515 Y6.7196
G1 X13.2486 Y6.7249
G1 X13.1467 Y6.7402
G1 X13.0514 Y6.7641
G1 X12.9497 Y6.8005
G1 X12.861 Y6.8424
G1 X12.7724 Y6.8952
G1 X12.6895 Y6.9564
G1 X12.6112 Y7.0272
G1 X9.6272 Y10.0112
G1 X9.5564 Y10.0895
G1 X9.498 Y10.1684
G1 X9.4448 Y10.2567
G1 X9.4005 Y10.3497
G1 X9.3655 Y10.4467
G1 X9.3393 Y10.5515
G1 X9.3244 Y10.6535
G1 X9.3195 Y10.754
G1 X9.3195 Y12.9849
G1 X9.297 Y13.0074
G00 Z5.0000
(Block-name: block)
(Block-expand: 0)
(Block-enable: 1)
G0 X12.8385 Y0.6196
G01 F60.00
G01 Z-0.1300
G01 F120.00
G1 X12.8241 Y0.6206
G1 X12.698 Y0.6395
G1 X12.5743 Y0.6707
G1 X12.4543 Y0.714
G1 X12.339 Y0.7687
G1 X12.2298 Y0.8345
G1 X12.1274 Y0.9107
G1 X12.0331 Y0.9965
G1 X11.9476 Y1.0912
G1 X11.8718 Y1.1938
G1 X11.8064 Y1.3034
G1 X11.7521 Y1.4188
G1 X11.7093 Y1.539
G1 X11.6795 Y1.658
G1 X11.6606 Y1.7841
G1 X11.6541 Y1.9115
G1 X11.6601 Y2.039
G1 X11.6786 Y2.1652
G1 X11.7093 Y2.289
G1 X11.7521 Y2.4092
G1 X11.8064 Y2.5246
G1 X11.8718 Y2.6342
G1 X11.9476 Y2.7368
G1 X12.0331 Y2.8315
G1 X12.1274 Y2.9173
G1 X12.2298 Y2.9935
G1 X12.339 Y3.0593
G1 X12.4543 Y3.114
G1 X12.579 Y3.1587
G1 X12.7028 Y3.1894
G1 X12.829 Y3.2079
G1 X12.9565 Y3.2139
G1 X13.0839 Y3.2074
G1 X13.21 Y3.1885
G1 X13.3337 Y3.1573
G1 X13.4537 Y3.114
G1 X13.569 Y3.0593
G1 X13.6782 Y2.9935
G1 X13.7806 Y2.9173
G1 X13.8749 Y2.8315
G1 X13.9604 Y2.7368
G1 X14.0362 Y2.6342
G1 X14.1016 Y2.5246
G1 X14.1559 Y2.4092
G1 X14.1987 Y2.289
G1 X14.2294 Y2.1652
G1 X14.2474 Y2.0439
G1 X14.2522 Y1.9524
G1 X30.7988 Y1.9524
G1 X30.8055 Y1.996
G1 X30.8367 Y2.1197
G1 X30.88 Y2.2397
G1 X30.9347 Y2.355
G1 X30.9978 Y2.4602
G1 X31.0736 Y2.5628
G1 X31.1591 Y2.6575
G1 X31.2534 Y2.7433
G1 X31.3598 Y2.8222
G1 X31.4694 Y2.8876
G1 X31.5848 Y2.9419
G1 X31.705 Y2.9847
G1 X31.824 Y3.0145
G1 X31.9501 Y3.0334
G1 X32.0775 Y3.0399
G1 X32.205 Y3.0339
G1 X32.3312 Y3.0154
G1 X32.4597 Y2.9833
G1 X32.5797 Y2.94
G1 X32.695 Y2.8853
G1 X32.8042 Y2.8195
G1 X32.9066 Y2.7433
G1 X33.0009 Y2.6575
G1 X33.0864 Y2.5628
G1 X33.1595 Y2.4642
G1 X33.2253 Y2.355
G1 X33.28 Y2.2397
G1 X33.3233 Y2.1197
G1 X33.3545 Y1.996
G1 X33.3612 Y1.9524
G1 X36.8405 Y1.9524
G1 X37.224 Y2.336
G1 X37.2804 Y2.3871
G1 X37.3433 Y2.4341
G1 X37.4149 Y2.477
G1 X37.4815 Y2.5085
G1 X37.5553 Y2.5351
G1 X37.6315 Y2.5545
G1 X37.714 Y2.5667
G1 X37.79 Y2.5704
G1 X42.3066 Y2.5704
G1 X42.3367 Y2.6897
G1 X42.3781 Y2.8052
G1 X42.4324 Y2.9206
G1 X42.5005 Y3.0342
G1 X42.5736 Y3.1328
G1 X42.6496 Y3.217
G1 X42.6496 Y5.36
G1 X42.6533 Y5.436
G1 X42.6646 Y5.5137
G1 X42.6849 Y5.5947
G1 X42.7115 Y5.6685
G1 X42.7453 Y5.7394
G1 X42.7859 Y5.8067
G1 X42.8329 Y5.8696
G1 X42.884 Y5.926
G1 X43.7607 Y6.8026
G1 X43.7561 Y6.835
G1 X43.7501 Y6.9575
G1 X43.7561 Y7.085
G1 X43.7746 Y7.2112
G1 X43.8053 Y7.335
G1 X43.8481 Y7.4552
G1 X43.9047 Y7.575
G1 X43.9705 Y7.6842
G1 X44.0467 Y7.7866
G1 X44.1291 Y7.8775
G1 X44.2234 Y7.9633
G1 X44.3298 Y8.0422
G1 X44.4394 Y8.1076
G1 X44.5503 Y8.16
G1 X44.675 Y8.2047
G1 X44.794 Y8.2345
G1 X44.9201 Y8.2534
G1 X45.0525 Y8.2599
G1 X45.175 Y8.2539
G1 X45.3012 Y8.2354
G1 X45.425 Y8.2047
G1 X45.5497 Y8.16
G1 X45.6606 Y8.1076
G1 X45.7702 Y8.0422
G1 X45.8766 Y7.9633
G1 X45.9709 Y7.8775
G1 X46.0533 Y7.7866
G1 X46.1295 Y7.6842
G1 X46.1976 Y7.5706
G1 X46.25 Y7.4597
G1 X46.2933 Y7.3397
G1 X46.3254 Y7.2112
G1 X46.3439 Y7.085
G1 X46.3499 Y6.9575
G1 X46.3439 Y6.835
G1 X46.3254 Y6.7088
G1 X46.2947 Y6.585
G1 X46.2519 Y6.4648
G1 X46.1953 Y6.345
G1 X46.1295 Y6.2358
G1 X46.0533 Y6.1334
G1 X45.9709 Y6.0425
G1 X45.8728 Y5.9536
G1 X45.7702 Y5.8778
G1 X45.6606 Y5.8124
G1 X45.5497 Y5.76
G1 X45.4297 Y5.7167
G1 X45.306 Y5.6855
G1 X45.175 Y5.6661
G1 X45.0475 Y5.6601
G1 X44.925 Y5.6661
G1 X44.8926 Y5.6707
G1 X44.2504 Y5.0285
G1 X44.2504 Y3.4221
G1 X44.3042 Y3.3895
G1 X44.4028 Y3.3164
G1 X44.5009 Y3.2275
G1 X44.5833 Y3.1366
G1 X44.6595 Y3.0342
G1 X44.7276 Y2.9206
G1 X44.78 Y2.8097
G1 X44.8233 Y2.6897
G1 X44.8554 Y2.5612
G1 X44.8739 Y2.435
G1 X44.8799 Y2.3125
G1 X44.8734 Y2.1801
G1 X44.8545 Y2.054
G1 X44.8247 Y1.935
G1 X44.78 Y1.8103
G1 X44.7253 Y1.695
G1 X44.6595 Y1.5858
G1 X44.5833 Y1.4834
G1 X44.5009 Y1.3925
G1 X44.4028 Y1.3036
G1 X44.3042 Y1.2305
G1 X44.195 Y1.1647
G1 X44.0797 Y1.11
G1 X43.9597 Y1.0667
G1 X43.8312 Y1.0346
G1 X43.705 Y1.0161
G1 X43.5825 Y1.0101
G1 X43.455 Y1.0161
G1 X43.324 Y1.0355
G1 X43.205 Y1.0653
G1 X43.1386 Y1.0888
G1 X43.0951 Y1.063
G1 X43.0285 Y1.0315
G1 X42.95 Y1.0034
G1 X42.8785 Y0.9855
G1 X42.8009 Y0.9738
G1 X42.72 Y0.9696
G1 X38.1215 Y0.9696
G1 X37.738 Y0.586
G1 X37.6778 Y0.5318
G1 X37.6146 Y0.4852
G1 X37.5471 Y0.445
G1 X37.4805 Y0.4135
G1 X37.402 Y0.3854
G1 X37.3305 Y0.3675
G1 X37.2529 Y0.3558
G1 X37.172 Y0.3516
G1 X13.438 Y0.3516
G1 X13.3571 Y0.3558
G1 X13.2795 Y0.3675
G1 X13.2033 Y0.3869
G1 X13.1295 Y0.4135
G1 X13.0586 Y0.4473
G1 X12.9913 Y0.4879
G1 X12.9284 Y0.5349
G1 X12.8738 Y0.5844
G1 X12.8385 Y0.6196
G00 Z5.0000
(Block-name: block)
(Block-expand: 0)
(Block-enable: 1)
G0 X24.4799 Y6.0875
G01 F60.00
G01 Z-0.1300
G01 F120.00
G1 X24.4742 Y5.9748
G1 X24.4574 Y5.8633
G1 X24.4297 Y5.7538
G1 X24.3915 Y5.6477
G1 X24.343 Y5.5458
G1 X24.2848 Y5.4491
G1 X24.2174 Y5.3586
G1 X24.1414 Y5.2751
G1 X24.0576 Y5.1995
G1 X23.9668 Y5.1325
G1 X23.8699 Y5.0747
G1 X23.7678 Y5.0267
G1 X23.6615 Y4.9889
G1 X23.5519 Y4.9617
G1 X23.4403 Y4.9454
G1 X23.3275 Y4.9401
G1 X23.2148 Y4.9458
G1 X23.1033 Y4.9626
G1 X22.9938 Y4.9903
G1 X22.8877 Y5.0285
G1 X22.7858 Y5.077
G1 X22.6891 Y5.1352
G1 X22.5986 Y5.2026
G1 X22.5151 Y5.2786
G1 X22.4395 Y5.3624
G1 X22.3725 Y5.4532
G1 X22.3147 Y5.5501
G1 X22.2667 Y5.6522
G1 X22.2289 Y5.7585
G1 X22.2017 Y5.8681
G1 X22.1854 Y5.9797
G1 X22.1801 Y6.0925
G1 X22.1858 Y6.2052
G1 X22.2026 Y6.3167
G1 X22.2303 Y6.4262
G1 X22.2685 Y6.5323
G1 X22.317 Y6.6342
G1 X22.3752 Y6.7309
G1 X22.4426 Y6.8214
G1 X22.5186 Y6.9049
G1 X22.6024 Y6.9805
G1 X22.6932 Y7.0475
G1 X22.7901 Y7.1053
G1 X22.8922 Y7.1533
G1 X22.9985 Y7.1911
G1 X23.1081 Y7.2183
G1 X23.2197 Y7.2346
G1 X23.3325 Y7.2399
G1 X23.4452 Y7.2342
G1 X23.5567 Y7.2174
G1 X23.6662 Y7.1897
G1 X23.7723 Y7.1515
G1 X23.8742 Y7.103
G1 X23.9709 Y7.0448
G1 X24.0614 Y6.9774
G1 X24.1449 Y6.9014
G1 X24.2205 Y6.8176
G1 X24.2875 Y6.7268
G1 X24.3453 Y6.6299
G1 X24.3933 Y6.5278
G1 X24.4311 Y6.4215
G1 X24.4583 Y6.3119
G1 X24.4746 Y6.2003
G1 X24.4799 Y6.0875
G00 Z5.0000
(Block-name: block)
(Block-expand: 0)
(Block-enable: 1)
G0 X24.8196 Y8.0225
G01 F60.00
G01 Z-0.1300
G01 F120.00
G1 X24.8244 Y8.1205
G1 X24.8393 Y8.2225
G1 X24.8641 Y8.3226
G1 X24.8986 Y8.4197
G1 X24.9448 Y8.5173
G1 X24.998 Y8.6056
G1 X25.0596 Y8.6883
G1 X25.1272 Y8.7628
G1 X26.9772 Y10.6128
G1 X27.0555 Y10.6836
G1 X27.1344 Y10.742
G1 X27.2227 Y10.7952
G1 X27.3203 Y10.8414
G1 X27.4174 Y10.8759
G1 X27.5127 Y10.8998
G1 X27.6195 Y10.9156
G1 X27.72 Y10.9205
G1 X29.6149 Y10.9205
G1 X30.7974 Y12.103
G1 X30.8055 Y12.156
G1 X30.8353 Y12.275
G1 X30.88 Y12.3997
G1 X30.9324 Y12.5106
G1 X30.9978 Y12.6202
G1 X31.0767 Y12.7266
G1 X31.1625 Y12.8209
G1 X31.2534 Y12.9033
G1 X31.3558 Y12.9795
G1 X31.465 Y13.0453
G1 X31.5803 Y13.1
G1 X31.705 Y13.1447
G1 X31.8288 Y13.1754
G1 X31.955 Y13.1939
G1 X32.0775 Y13.1999
G1 X32.205 Y13.1939
G1 X32.336 Y13.1745
G1 X32.4597 Y13.1433
G1 X32.5797 Y13.1
G1 X32.6906 Y13.0476
G1 X32.8002 Y12.9822
G1 X32.9028 Y12.9064
G1 X32.9975 Y12.8209
G1 X33.0864 Y12.7228
G1 X33.1622 Y12.6202
G1 X33.2276 Y12.5106
G1 X33.28 Y12.3997
G1 X33.3247 Y12.275
G1 X33.3545 Y12.156
G1 X33.3626 Y12.103
G1 X33.7151 Y11.7505
G1 X35.4809 Y11.7505
G1 X37.3895 Y13.6591
G1 X37.3895 Y36.89
G1 X37.3944 Y36.9905
G1 X37.4093 Y37.0925
G1 X37.4341 Y37.1926
G1 X37.4686 Y37.2897
G1 X37.5124 Y37.383
G1 X37.5652 Y37.4716
G1 X37.6264 Y37.5545
G1 X37.6972 Y37.6328
G1 X43.7295 Y43.6651
G1 X43.7295 Y47.79
G1 X43.7344 Y47.8905
G1 X43.7493 Y47.9925
G1 X43.7741 Y48.0926
G1 X43.8105 Y48.1943
G1 X43.8548 Y48.2874
G1 X43.908 Y48.3756
G1 X43.9696 Y48.4583
G1 X44.0355 Y48.5311
G1 X44.7072 Y49.2028
G1 X44.7855 Y49.2736
G1 X44.8684 Y49.3348
G1 X44.957 Y49.3876
G1 X45.0457 Y49.4295
G1 X45.1474 Y49.4659
G1 X45.2475 Y49.4907
G1 X45.3495 Y49.5056
G1 X45.45 Y49.5105
G1 X49.5649 Y49.5105
G1 X50.5295 Y50.4751
G1 X50.5295 Y51.4012
G1 X50.5206 Y51.4165
G1 X50.4705 Y51.5231
G1 X50.431 Y51.634
G1 X50.4036 Y51.7435
G1 X50.3856 Y51.8648
G1 X50.3801 Y51.9825
G1 X50.3856 Y52.0952
G1 X50.4036 Y52.2165
G1 X50.431 Y52.326
G1 X50.4705 Y52.4369
G1 X50.5229 Y52.5478
G1 X50.5809 Y52.6446
G1 X50.6509 Y52.7393
G1 X50.7298 Y52.8268
G1 X50.8169 Y52.906
G1 X50.9154 Y52.9791
G1 X51.0165 Y53.0394
G1 X51.1231 Y53.0895
G1 X51.234 Y53.129
G1 X51.3483 Y53.1574
G1 X51.4648 Y53.1744
G1 X51.5775 Y53.1799
G1 X51.6952 Y53.1744
G1 X51.8117 Y53.1574
G1 X51.926 Y53.129
G1 X52.0369 Y53.0895
G1 X52.1435 Y53.0394
G1 X52.2446 Y52.9791
G1 X52.3431 Y52.906
G1 X52.4302 Y52.8268
G1 X52.5091 Y52.7393
G1 X52.5764 Y52.6487
G1 X52.6371 Y52.5478
G1 X52.6877 Y52.4415
G1 X52.729 Y52.326
G1 X52.7574 Y52.2117
G1 X52.7744 Y52.0952
G1 X52.7799 Y51.9825
G1 X52.7739 Y51.8599
G1 X52.7564 Y51.7435
G1 X52.729 Y51.634
G1 X52.6877 Y51.5185
G1 X52.6394 Y51.4165
G1 X52.6305 Y51.4012
G1 X52.6305 Y50.04
G1 X52.6251 Y49.9346
G1 X52.6098 Y49.8327
G1 X52.5859 Y49.7374
G1 X52.5495 Y49.6357
G1 X52.5052 Y49.5427
G1 X52.4548 Y49.4584
G1 X52.3936 Y49.3755
G1 X52.3228 Y49.2972
G1 X50.741 Y47.7155
G1 X50.6645 Y47.6464
G1 X50.5816 Y47.5852
G1 X50.493 Y47.5324
G1 X50.4043 Y47.4905
G1 X50.3073 Y47.4555
G1 X50.2025 Y47.4293
G1 X50.1005 Y47.4144
G1 X50 Y47.4095
G1 X45.8851 Y47.4095
G1 X45.8305 Y47.3549
G1 X45.8305 Y43.2276
G1 X45.8252 Y43.1246
G1 X45.8098 Y43.0227
G1 X45.7859 Y42.9274
G1 X45.7496 Y42.8258
G1 X45.7053 Y42.7327
G1 X45.6548 Y42.6485
G1 X45.5936 Y42.5655
G1 X45.5228 Y42.4872
G1 X39.4905 Y36.4549
G1 X39.4905 Y13.224
G1 X39.4851 Y13.1186
G1 X39.4698 Y13.0167
G1 X39.4459 Y12.9214
G1 X39.4095 Y12.8197
G1 X39.3676 Y12.731
G1 X39.3148 Y12.6424
G1 X39.2536 Y12.5595
G1 X39.1828 Y12.4812
G1 X36.6588 Y9.9572
G1 X36.5805 Y9.8864
G1 X36.4976 Y9.8252
G1 X36.409 Y9.7724
G1 X36.3203 Y9.7305
G1 X36.2233 Y9.6955
G1 X36.1185 Y9.6693
G1 X36.0165 Y9.6544
G1 X35.916 Y9.6495
G1 X33.28 Y9.6495
G1 X33.1795 Y9.6544
G1 X33.0775 Y9.6693
G1 X32.9774 Y9.6941
G1 X32.8757 Y9.7305
G1 X32.7827 Y9.7748
G1 X32.6984 Y9.8252
G1 X32.6155 Y9.8864
G1 X32.5372 Y9.9572
G1 X32.08 Y10.4144
G1 X30.791 Y9.1255
G1 X30.7145 Y9.0564
G1 X30.6316 Y8.9952
G1 X30.543 Y8.9424
G1 X30.4497 Y8.8986
G1 X30.3526 Y8.8641
G1 X30.2525 Y8.8393
G1 X30.1505 Y8.8244
G1 X30.0525 Y8.8196
G1 X28.1551 Y8.8195
G1 X26.9205 Y7.5849
G1 X26.9205 Y6.5555
G1 X26.9333 Y6.5278
G1 X26.9697 Y6.4262
G1 X26.9974 Y6.3167
G1 X27.0142 Y6.2052
G1 X27.0199 Y6.0925
G1 X27.0142 Y5.9748
G1 X26.9974 Y5.8633
G1 X26.9711 Y5.7585
G1 X26.9315 Y5.6477
G1 X26.883 Y5.5458
G1 X26.8275 Y5.4532
G1 X26.7605 Y5.3624
G1 X26.6849 Y5.2786
G1 X26.6014 Y5.2026
G1 X26.5068 Y5.1325
G1 X26.4099 Y5.0747
G1 X26.3123 Y5.0285
G1 X26.2062 Y4.9903
G1 X26.0967 Y4.9626
G1 X25.9852 Y4.9458
G1 X25.8675 Y4.9401
G1 X25.7548 Y4.9458
G1 X25.6433 Y4.9626
G1 X25.5338 Y4.9903
G1 X25.4277 Y5.0285
G1 X25.3258 Y5.077
G1 X25.2291 Y5.1352
G1 X25.1386 Y5.2026
G1 X25.0551 Y5.2786
G1 X24.9826 Y5.3586
G1 X24.9152 Y5.4491
G1 X24.857 Y5.5458
G1 X24.8085 Y5.6477
G1 X24.7703 Y5.7538
G1 X24.7426 Y5.8633
G1 X24.7254 Y5.9797
G1 X24.7201 Y6.0925
G1 X24.7258 Y6.2052
G1 X24.7426 Y6.3167
G1 X24.7703 Y6.4262
G1 X24.8067 Y6.5278
G1 X24.8195 Y6.5555
G1 X24.8196 Y8.0225
G00 Z5.0000
(Block-name: block)
(Block-expand: 0)
(Block-enable: 1)
G0 X24.8196 Y15.0725
G01 F60.00
G01 Z-0.1300
G01 F120.00
G1 X24.8244 Y15.1705
G1 X24.8393 Y15.2725
G1 X24.8641 Y15.3726
G1 X24.8986 Y15.4697
G1 X24.9448 Y15.5673
G1 X24.998 Y15.6556
G1 X25.0596 Y15.7383
G1 X25.1272 Y15.8128
G1 X27.5672 Y18.2528
G1 X27.6455 Y18.3236
G1 X27.7284 Y18.3848
G1 X27.817 Y18.4376
G1 X27.9057 Y18.4795
G1 X28.0027 Y18.5145
G1 X28.1075 Y18.5407
G1 X28.2095 Y18.5556
G1 X28.31 Y18.5605
G1 X30.37 Y18.5605
G1 X30.4754 Y18.5551
G1 X30.5773 Y18.5398
G1 X30.6773 Y18.5145
G1 X30.7743 Y18.4795
G1 X30.863 Y18.4376
G1 X30.9556 Y18.382
G1 X31.0383 Y18.3204
G1 X31.111 Y18.2545
G1 X34.5783 Y14.7873
G1 X34.6794 Y14.8476
G1 X34.7948 Y14.9019
G1 X34.915 Y14.9447
G1 X35.034 Y14.9745
G1 X35.165 Y14.9939
G1 X35.2925 Y14.9999
G1 X35.415 Y14.9939
G1 X35.546 Y14.9745
G1 X35.665 Y14.9447
G1 X35.7852 Y14.9019
G1 X35.905 Y14.8453
G1 X36.0102 Y14.7822
G1 X36.1128 Y14.7064
G1 X36.2109 Y14.6175
G1 X36.2933 Y14.5266
G1 X36.3695 Y14.4242
G1 X36.4376 Y14.3106
G1 X36.4919 Y14.1952
G1 X36.5347 Y14.075
G1 X36.5645 Y13.956
G1 X36.5834 Y13.8299
G1 X36.5899 Y13.6975
G1 X36.5834 Y13.5701
G1 X36.5645 Y13.444
G1 X36.5347 Y13.325
G1 X36.4919 Y13.2048
G1 X36.4353 Y13.085
G1 X36.3722 Y12.9798
G1 X36.2964 Y12.8772
G1 X36.2075 Y12.7791
G1 X36.1166 Y12.6967
G1 X36.0142 Y12.6205
G1 X35.9006 Y12.5524
G1 X35.7897 Y12.5
G1 X35.6697 Y12.4567
G1 X35.546 Y12.4255
G1 X35.415 Y12.4061
G1 X35.2875 Y12.4001
G1 X35.1601 Y12.4066
G1 X35.034 Y12.4255
G1 X34.915 Y12.4553
G1 X34.7948 Y12.4981
G1 X34.675 Y12.5547
G1 X34.5698 Y12.6178
G1 X34.521 Y12.6537
G1 X34.4225 Y12.6293
G1 X34.3205 Y12.6144
G1 X34.2175 Y12.6096
G1 X34.1195 Y12.6144
G1 X34.0127 Y12.6302
G1 X33.9174 Y12.6541
G1 X33.8203 Y12.6886
G1 X33.727 Y12.7324
G1 X33.6384 Y12.7852
G1 X33.5555 Y12.8464
G1 X33.4772 Y12.9172
G1 X29.9349 Y16.4595
G1 X28.7451 Y16.4595
G1 X26.9205 Y14.6349
G1 X26.9205 Y14.1755
G1 X26.9333 Y14.1478
G1 X26.9697 Y14.0462
G1 X26.9983 Y13.9319
G1 X27.0146 Y13.8203
G1 X27.0199 Y13.7125
G1 X27.0146 Y13.5997
G1 X26.9974 Y13.4833
G1 X26.9711 Y13.3785
G1 X26.9333 Y13.2722
G1 X26.883 Y13.1658
G1 X26.8275 Y13.0732
G1 X26.7605 Y12.9824
G1 X26.6849 Y12.8986
G1 X26.5976 Y12.8195
G1 X26.5109 Y12.7552
G1 X26.4142 Y12.697
G1 X26.3123 Y12.6485
G1 X26.2015 Y12.6089
G1 X26.0967 Y12.5826
G1 X25.9852 Y12.5658
G1 X25.8675 Y12.5601
G1 X25.7548 Y12.5658
G1 X25.6433 Y12.5826
G1 X25.5385 Y12.6089
G1 X25.4277 Y12.6485
G1 X25.3258 Y12.697
G1 X25.2332 Y12.7525
G1 X25.1424 Y12.8195
G1 X25.0586 Y12.8951
G1 X24.9795 Y12.9824
G1 X24.9152 Y13.0691
G1 X24.857 Y13.1658
G1 X24.8067 Y13.2722
G1 X24.7689 Y13.3785
G1 X24.7417 Y13.4881
G1 X24.7254 Y13.5997
G1 X24.7201 Y13.7125
G1 X24.7258 Y13.8252
G1 X24.7426 Y13.9367
G1 X24.7703 Y14.0462
G1 X24.8067 Y14.1478
G1 X24.8195 Y14.1755
G1 X24.8196 Y15.0725
G00 Z5.0000
(Block-name: block)
(Block-expand: 0)
(Block-enable: 1)
G0 X29.5599 Y13.7075
G01 F60.00
G01 Z-0.1300
G01 F120.00
G1 X29.5542 Y13.5948
G1 X29.5374 Y13.4833
G1 X29.5097 Y13.3738
G1 X29.4715 Y13.2677
G1 X29.423 Y13.1658
G1 X29.3648 Y13.0691
G1 X29.2974 Y12.9786
G1 X29.2214 Y12.8951
G1 X29.1376 Y12.8195
G1 X29.0468 Y12.7525
G1 X28.9499 Y12.6947
G1 X28.8478 Y12.6467
G1 X28.7415 Y12.6089
G1 X28.6319 Y12.5817
G1 X28.5203 Y12.5654
G1 X28.4075 Y12.5601
G1 X28.2948 Y12.5658
G1 X28.1833 Y12.5826
G1 X28.0738 Y12.6103
G1 X27.9677 Y12.6485
G1 X27.8658 Y12.697
G1 X27.7691 Y12.7552
G1 X27.6786 Y12.8226
G1 X27.5951 Y12.8986
G1 X27.5195 Y12.9824
G1 X27.4525 Y13.0732
G1 X27.3947 Y13.1701
G1 X27.3467 Y13.2722
G1 X27.3089 Y13.3785
G1 X27.2817 Y13.4881
G1 X27.2654 Y13.5997
G1 X27.2601 Y13.7125
G1 X27.2658 Y13.8252
G1 X27.2826 Y13.9367
G1 X27.3103 Y14.0462
G1 X27.3485 Y14.1523
G1 X27.397 Y14.2542
G1 X27.4552 Y14.3509
G1 X27.5226 Y14.4414
G1 X27.5986 Y14.5249
G1 X27.6824 Y14.6005
G1 X27.7732 Y14.6675
G1 X27.8701 Y14.7253
G1 X27.9722 Y14.7733
G1 X28.0785 Y14.8111
G1 X28.1881 Y14.8383
G1 X28.2997 Y14.8546
G1 X28.4125 Y14.8599
G1 X28.5252 Y14.8542
G1 X28.6367 Y14.8374
G1 X28.7462 Y14.8097
G1 X28.8523 Y14.7715
G1 X28.9542 Y14.723
G1 X29.0509 Y14.6648
G1 X29.1414 Y14.5974
G1 X29.2249 Y14.5214
G1 X29.3005 Y14.4376
G1 X29.3675 Y14.3468
G1 X29.4253 Y14.2499
G1 X29.4733 Y14.1478
G1 X29.5111 Y14.0415
G1 X29.5383 Y13.9319
G1 X29.5546 Y13.8203
G1 X29.5599 Y13.7075
G00 Z5.0000
(Block-name: block)
(Block-expand: 0)
(Block-enable: 1)
G0 X44.1996 Y17.9225
G01 F60.00
G01 Z-0.1300
G01 F120.00
G1 X44.2049 Y18.0254
G1 X44.2202 Y18.1273
G1 X44.2455 Y18.2273
G1 X44.2805 Y18.3243
G1 X44.3248 Y18.4173
G1 X44.378 Y18.5056
G1 X44.4396 Y18.5883
G1 X44.5055 Y18.661
G1 X50.2144 Y24.37
G1 X47.4455 Y27.139
G1 X47.3764 Y27.2155
G1 X47.318 Y27.2944
G1 X47.2648 Y27.3827
G1 X47.2205 Y27.4757
G1 X47.1841 Y27.5774
G1 X47.1602 Y27.6727
G1 X47.1449 Y27.7746
G1 X47.1395 Y27.88
G1 X47.1395 Y35.08
G1 X47.1444 Y35.1805
G1 X47.1593 Y35.2825
G1 X47.1841 Y35.3826
G1 X47.2205 Y35.4843
G1 X47.2648 Y35.5773
G1 X47.318 Y35.6656
G1 X47.3796 Y35.7483
G1 X47.4455 Y35.821
G1 X51.2595 Y39.6351
G1 X51.2595 Y41.5749
G1 X49.7544 Y43.08
G1 X46.28 Y43.08
G1 X46.2702 Y43.081
G1 X46.2655 Y43.0822
G1 X46.2564 Y43.0859
G1 X46.2483 Y43.0913
G1 X46.2413 Y43.0983
G1 X46.2359 Y43.1064
G1 X46.2322 Y43.1155
G1 X46.2302 Y43.1251
G1 X46.23 Y43.13
G1 X46.23 Y47.13
G1 X46.231 Y47.1398
G1 X46.2338 Y47.1491
G1 X46.2384 Y47.1578
G1 X46.2446 Y47.1654
G1 X46.2522 Y47.1716
G1 X46.2609 Y47.1762
G1 X46.2702 Y47.179
G1 X46.28 Y47.18
G1 X50.28 Y47.18
G1 X50.2898 Y47.179
G1 X50.2991 Y47.1762
G1 X50.3078 Y47.1716
G1 X50.3154 Y47.1654
G1 X50.3187 Y47.1617
G1 X50.3241 Y47.1536
G1 X50.3262 Y47.1491
G1 X50.329 Y47.1398
G1 X50.33 Y47.13
G1 X50.33 Y45.4756
G1 X53.0528 Y42.7528
G1 X53.1236 Y42.6745
G1 X53.1848 Y42.5916
G1 X53.2376 Y42.503
G1 X53.2814 Y42.4097
G1 X53.3159 Y42.3126
G1 X53.3407 Y42.2125
G1 X53.3556 Y42.1105
G1 X53.3605 Y42.01
G1 X53.3605 Y39.2
G1 X53.3556 Y39.0995
G1 X53.3407 Y38.9975
G1 X53.3159 Y38.8974
G1 X53.2795 Y38.7957
G1 X53.2352 Y38.7027
G1 X53.182 Y38.6144
G1 X53.1204 Y38.5317
G1 X53.0545 Y38.459
G1 X49.2405 Y34.6449
G1 X49.2405 Y28.3151
G1 X51.7026 Y25.8531
G1 X51.7255 Y25.8736
G1 X51.8084 Y25.9348
G1 X51.897 Y25.9876
G1 X51.9903 Y26.0314
G1 X52.0874 Y26.0659
G1 X52.1875 Y26.0907
G1 X52.2895 Y26.1056
G1 X52.3875 Y26.1104
G1 X57.0027 Y26.1105
G1 X57.0458 Y26.1577
G1 X57.1548 Y26.2566
G1 X57.2769 Y26.3474
G1 X57.4115 Y26.4281
G1 X57.5491 Y26.4929
G1 X57.6924 Y26.5439
G1 X57.8352 Y26.5797
G1 X57.9856 Y26.6022
G1 X58.1425 Y26.6099
G1 X58.2944 Y26.6022
G1 X58.4448 Y26.5797
G1 X58.5923 Y26.5425
G1 X58.7354 Y26.491
G1 X58.8728 Y26.4258
G1 X59.0031 Y26.3474
G1 X59.1252 Y26.2566
G1 X59.2377 Y26.1542
G1 X59.3397 Y26.0414
G1 X59.4301 Y25.9191
G1 X59.5081 Y25.7885
G1 X59.5729 Y25.6509
G1 X59.6239 Y25.5076
G1 X59.6606 Y25.36
G1 X59.6827 Y25.2095
G1 X59.6899 Y25.0575
G1 X59.6822 Y24.9056
G1 X59.6597 Y24.7552
G1 X59.6225 Y24.6077
G1 X59.571 Y24.4646
G1 X59.5081 Y24.3315
G1 X59.4274 Y24.1969
G1 X59.3366 Y24.0748
G1 X59.2342 Y23.9623
G1 X59.1214 Y23.8603
G1 X58.9991 Y23.7699
G1 X58.8685 Y23.6919
G1 X58.7354 Y23.629
G1 X58.5876 Y23.5761
G1 X58.4448 Y23.5403
G1 X58.2944 Y23.5178
G1 X58.1375 Y23.5101
G1 X57.9856 Y23.5178
G1 X57.8352 Y23.5403
G1 X57.6924 Y23.5761
G1 X57.5491 Y23.6271
G1 X57.4115 Y23.6919
G1 X57.2769 Y23.7726
G1 X57.1548 Y23.8634
G1 X57.0458 Y23.9623
G1 X57.0027 Y24.0095
G1 X52.85 Y24.0095
G1 X52.85 Y23.27
G1 X52.849 Y23.2602
G1 X52.8462 Y23.2509
G1 X52.8416 Y23.2422
G1 X52.8354 Y23.2346
G1 X52.8278 Y23.2284
G1 X52.8191 Y23.2238
G1 X52.8098 Y23.221
G1 X52.8 Y23.22
G1 X52.0356 Y23.22
G1 X46.3005 Y17.4849
G1 X46.3005 Y13.3709
G1 X51.6609 Y8.0105
G1 X54.4467 Y8.0105
G1 X54.4898 Y8.0422
G1 X54.5994 Y8.1076
G1 X54.7103 Y8.16
G1 X54.8303 Y8.2033
G1 X54.9588 Y8.2354
G1 X55.085 Y8.2539
G1 X55.2125 Y8.2599
G1 X55.335 Y8.2539
G1 X55.4612 Y8.2354
G1 X55.5897 Y8.2033
G1 X55.7097 Y8.16
G1 X55.8206 Y8.1076
G1 X55.9302 Y8.0422
G1 X55.9733 Y8.0105
G1 X62.2325 Y8.0104
G1 X62.3354 Y8.0051
G1 X62.4373 Y7.9898
G1 X62.5326 Y7.9659
G1 X62.6343 Y7.9295
G1 X62.723 Y7.8876
G1 X62.8116 Y7.8348
G1 X62.8945 Y7.7736
G1 X62.9728 Y7.7028
G1 X63.6945 Y6.981
G1 X63.7604 Y6.9083
G1 X63.822 Y6.8256
G1 X63.8752 Y6.7373
G1 X63.9195 Y6.6443
G1 X63.9545 Y6.5473
G1 X63.9798 Y6.4473
G1 X63.9956 Y6.3405
G1 X64.0005 Y6.24
G1 X64.0005 Y5.26
G1 X64.95 Y5.26
G1 X64.9549 Y5.2598
G1 X64.9645 Y5.2578
G1 X64.9736 Y5.2541
G1 X64.9778 Y5.2516
G1 X64.9817 Y5.2487
G1 X64.9887 Y5.2417
G1 X64.9941 Y5.2336
G1 X64.9978 Y5.2245
G1 X64.9998 Y5.2149
G1 X65 Y5.21
G1 X65 Y1.21
G1 X64.999 Y1.2002
G1 X64.9978 Y1.1955
G1 X64.9941 Y1.1864
G1 X64.9887 Y1.1783
G1 X64.9854 Y1.1746
G1 X64.9778 Y1.1684
G1 X64.9691 Y1.1638
G1 X64.9598 Y1.161
G1 X64.95 Y1.16
G1 X60.95 Y1.16
G1 X60.9402 Y1.161
G1 X60.9309 Y1.1638
G1 X60.9264 Y1.1659
G1 X60.9222 Y1.1684
G1 X60.9146 Y1.1746
G1 X60.9084 Y1.1822
G1 X60.9038 Y1.1909
G1 X60.9022 Y1.1955
G1 X60.901 Y1.2002
G1 X60.9 Y1.21
G1 X60.9 Y5.21
G1 X60.901 Y5.2198
G1 X60.9022 Y5.2245
G1 X60.9059 Y5.2336
G1 X60.9113 Y5.2417
G1 X60.9183 Y5.2487
G1 X60.9264 Y5.2541
G1 X60.9355 Y5.2578
G1 X60.9402 Y5.259
G1 X60.95 Y5.26
G1 X61.8995 Y5.26
G1 X61.8995 Y5.8049
G1 X61.7949 Y5.9095
G1 X55.9733 Y5.9095
G1 X55.9302 Y5.8778
G1 X55.8206 Y5.8124
G1 X55.7097 Y5.76
G1 X55.5897 Y5.7167
G1 X55.4612 Y5.6846
G1 X55.335 Y5.6661
G1 X55.2075 Y5.6601
G1 X55.085 Y5.6661
G1 X54.9588 Y5.6846
G1 X54.8303 Y5.7167
G1 X54.7103 Y5.76
G1 X54.5994 Y5.8124
G1 X54.4898 Y5.8778
G1 X54.4467 Y5.9095
G1 X51.2257 Y5.9095
G1 X51.1203 Y5.9149
G1 X51.0184 Y5.9302
G1 X50.9232 Y5.9541
G1 X50.8215 Y5.9905
G1 X50.7284 Y6.0348
G1 X50.6442 Y6.0852
G1 X50.5612 Y6.1464
G1 X50.4829 Y6.2172
G1 X44.5072 Y12.1929
G1 X44.4364 Y12.2712
G1 X44.378 Y12.3501
G1 X44.3248 Y12.4384
G1 X44.2805 Y12.5315
G1 X44.2441 Y12.6332
G1 X44.2202 Y12.7284
G1 X44.2049 Y12.8303
G1 X44.1995 Y12.9357
G1 X44.1996 Y17.9225
G00 Z5.0000
(Block-name: block)
(Block-expand: 0)
(Block-enable: 1)
G0 X46.949 Y14.4762
G01 F60.00
G01 Z-0.1300
G01 F120.00
G1 X46.9505 Y14.501
G1 X46.9659 Y14.603
G1 X46.9911 Y14.7029
G1 X47.0261 Y14.7999
G1 X47.0704 Y14.893
G1 X47.1236 Y14.9813
G1 X47.1852 Y15.0639
G1 X47.2528 Y15.1385
G1 X52.039 Y19.9245
G1 X52.1117 Y19.9904
G1 X52.1944 Y20.052
G1 X52.2827 Y20.1052
G1 X52.3757 Y20.1495
G1 X52.4727 Y20.1845
G1 X52.5727 Y20.2098
G1 X52.6795 Y20.2256
G1 X52.78 Y20.2305
G1 X61.72 Y20.2305
G1 X61.8205 Y20.2256
G1 X61.9225 Y20.2107
G1 X62.0273 Y20.1845
G1 X62.1243 Y20.1495
G1 X62.213 Y20.1076
G1 X62.3016 Y20.0548
G1 X62.3845 Y19.9936
G1 X62.4628 Y19.9228
G1 X66.8951 Y15.4905
G1 X68.3624 Y15.4905
G1 X68.4169 Y15.5809
G1 X68.5338 Y15.7386
G1 X68.6722 Y15.8913
G1 X68.8214 Y16.0262
G1 X68.9791 Y16.1431
G1 X69.1515 Y16.2467
G1 X69.3333 Y16.333
G1 X69.5273 Y16.4024
G1 X69.7225 Y16.451
G1 X69.9215 Y16.4803
G1 X70.1175 Y16.4899
G1 X70.3234 Y16.4798
G1 X70.5223 Y16.4501
G1 X70.7127 Y16.4024
G1 X70.9067 Y16.333
G1 X71.0885 Y16.2467
G1 X71.2609 Y16.1431
G1 X71.4224 Y16.0231
G1 X71.5678 Y15.8913
G1 X71.7062 Y15.7386
G1 X71.8231 Y15.5809
G1 X71.8278 Y15.5735
G1 X72.6545 Y16.4001
G1 X72.6545 Y46.4083
G1 X72.5133 Y46.5495
G1 X71.8776 Y46.5495
G1 X71.8231 Y46.4591
G1 X71.7062 Y46.3014
G1 X71.5713 Y46.1522
G1 X71.4224 Y46.0169
G1 X71.2609 Y45.8969
G1 X71.0885 Y45.7933
G1 X70.9067 Y45.707
G1 X70.7174 Y45.639
G1 X70.5223 Y45.5899
G1 X70.3185 Y45.5597
G1 X70.1175 Y45.5501
G1 X69.9215 Y45.5597
G1 X69.7225 Y45.589
G1 X69.5273 Y45.6376
G1 X69.3333 Y45.707
G1 X69.1558 Y45.791
G1 X68.9832 Y45.8942
G1 X68.8214 Y46.0138
G1 X68.6722 Y46.1487
G1 X68.5338 Y46.3014
G1 X68.4142 Y46.4632
G1 X68.311 Y46.6358
G1 X68.2252 Y46.8178
G1 X68.1576 Y47.0073
G1 X68.1099 Y47.1977
G1 X68.0802 Y47.3966
G1 X68.0701 Y47.5975
G1 X68.0797 Y47.7985
G1 X68.109 Y47.9975
G1 X68.1344 Y48.1
G1 X66.6549 Y49.5795
G1 X65.8275 Y49.5795
G1 X65.7431 Y49.4391
G1 X65.6231 Y49.2776
G1 X65.4878 Y49.1287
G1 X65.3386 Y48.9938
G1 X65.1768 Y48.8742
G1 X65.0042 Y48.771
G1 X64.8222 Y48.6852
G1 X64.6327 Y48.6176
G1 X64.4423 Y48.5699
G1 X64.2434 Y48.5402
G1 X64.0375 Y48.5301
G1 X63.8415 Y48.5397
G1 X63.6425 Y48.569
G1 X63.4473 Y48.6176
G1 X63.2578 Y48.6852
G1 X63.0758 Y48.771
G1 X62.9032 Y48.8742
G1 X62.7414 Y48.9938
G1 X62.5922 Y49.1287
G1 X62.4569 Y49.2776
G1 X62.3369 Y49.4391
G1 X62.2333 Y49.6115
G1 X62.147 Y49.7933
G1 X62.079 Y49.9826
G1 X62.029 Y50.1825
G1 X61.9997 Y50.3815
G1 X61.9901 Y50.5825
G1 X62.0002 Y50.7834
G1 X62.0299 Y50.9823
G1 X62.079 Y51.1774
G1 X62.147 Y51.3667
G1 X62.2333 Y51.5485
G1 X62.3369 Y51.7209
G1 X62.4569 Y51.8824
G1 X62.5922 Y52.0313
G1 X62.7414 Y52.1662
G1 X62.9032 Y52.2858
G1 X63.0758 Y52.389
G1 X63.2578 Y52.4748
G1 X63.4473 Y52.5424
G1 X63.6425 Y52.591
G1 X63.8415 Y52.6203
G1 X64.0425 Y52.6299
G1 X64.2434 Y52.6198
G1 X64.4423 Y52.5901
G1 X64.6374 Y52.541
G1 X64.8267 Y52.473
G1 X65.0085 Y52.3867
G1 X65.1809 Y52.2831
G1 X65.3424 Y52.1631
G1 X65.4913 Y52.0278
G1 X65.6262 Y51.8786
G1 X65.7431 Y51.7209
G1 X65.7676 Y51.6805
G1 X67.09 Y51.6805
G1 X67.1905 Y51.6756
G1 X67.2925 Y51.6607
G1 X67.3926 Y51.6359
G1 X67.4943 Y51.5995
G1 X67.5873 Y51.5552
G1 X67.6716 Y51.5048
G1 X67.7545 Y51.4436
G1 X67.8328 Y51.3728
G1 X69.62 Y49.5856
G1 X69.7225 Y49.611
G1 X69.9166 Y49.6398
G1 X70.1225 Y49.6499
G1 X70.3185 Y49.6403
G1 X70.5175 Y49.611
G1 X70.7127 Y49.5624
G1 X70.9022 Y49.4948
G1 X71.0842 Y49.409
G1 X71.2568 Y49.3058
G1 X71.4186 Y49.1862
G1 X71.5678 Y49.0513
G1 X71.7031 Y48.9024
G1 X71.8231 Y48.7409
G1 X71.8776 Y48.6505
G1 X72.9484 Y48.6505
G1 X73.0538 Y48.6451
G1 X73.1558 Y48.6298
G1 X73.251 Y48.6059
G1 X73.3527 Y48.5695
G1 X73.4458 Y48.5252
G1 X73.53 Y48.4748
G1 X73.6129 Y48.4136
G1 X73.6912 Y48.3428
G1 X74.4478 Y47.5863
G1 X74.5154 Y47.5117
G1 X74.577 Y47.4291
G1 X74.6326 Y47.3364
G1 X74.6745 Y47.2477
G1 X74.7095 Y47.1507
G1 X74.7357 Y47.046
G1 X74.7506 Y46.944
G1 X74.7554 Y46.8459
G1 X74.7555 Y15.965
G1 X74.7506 Y15.8645
G1 X74.7357 Y15.7625
G1 X74.7095 Y15.6577
G1 X74.6745 Y15.5607
G1 X74.6302 Y15.4677
G1 X74.5798 Y15.3834
G1 X74.5185 Y15.3005
G1 X74.4478 Y15.2222
G1 X72.9228 Y13.6972
G1 X72.8445 Y13.6264
G1 X72.7616 Y13.5652
G1 X72.673 Y13.5124
G1 X72.5797 Y13.4686
G1 X72.4826 Y13.4341
G1 X72.3825 Y13.4093
G1 X72.2805 Y13.3944
G1 X72.1825 Y13.3896
G1 X71.8776 Y13.3895
G1 X71.8231 Y13.2991
G1 X71.7031 Y13.1376
G1 X71.5713 Y12.9922
G1 X71.4224 Y12.8569
G1 X71.2609 Y12.7369
G1 X71.0885 Y12.6333
G1 X70.9022 Y12.5452
G1 X70.7127 Y12.4776
G1 X70.5223 Y12.4299
G1 X70.3234 Y12.4002
G1 X70.1175 Y12.3901
G1 X69.9166 Y12.4002
G1 X69.7177 Y12.4299
G1 X69.5226 Y12.479
G1 X69.3333 Y12.547
G1 X69.1558 Y12.631
G1 X68.9832 Y12.7342
G1 X68.8176 Y12.8569
G1 X68.6687 Y12.9922
G1 X68.5338 Y13.1414
G1 X68.4169 Y13.2991
G1 X68.3624 Y13.3895
G1 X67.202 Y13.3895
G1 X67.123 Y13.3424
G1 X67.0343 Y13.3005
G1 X66.9326 Y13.2641
G1 X66.8373 Y13.2402
G1 X66.7354 Y13.2249
G1 X66.6275 Y13.2196
G1 X66.5246 Y13.2249
G1 X66.4227 Y13.2402
G1 X66.3274 Y13.2641
G1 X66.2257 Y13.3005
G1 X66.137 Y13.3424
G1 X66.0484 Y13.3952
G1 X65.9655 Y13.4564
G1 X65.8872 Y13.5272
G1 X61.2849 Y18.1295
G1 X53.2151 Y18.1295
G1 X49.365 Y14.2794
G1 X49.3714 Y14.2532
G1 X49.3858 Y14.156
G1 X49.3911 Y14.0531
G1 X49.3863 Y13.9501
G1 X49.3714 Y13.8481
G1 X49.3451 Y13.7434
G1 X49.3121 Y13.6509
G1 X49.2848 Y13.5927
G1 X49.2834 Y13.5701
G1 X49.2645 Y13.444
G1 X49.2333 Y13.3203
G1 X49.19 Y13.2003
G1 X49.1353 Y13.085
G1 X49.0695 Y12.9758
G1 X48.9933 Y12.8734
G1 X48.9109 Y12.7825
G1 X48.8128 Y12.6936
G1 X48.7142 Y12.6205
G1 X48.605 Y12.5547
G1 X48.4897 Y12.5
G1 X48.3697 Y12.4567
G1 X48.2412 Y12.4246
G1 X48.115 Y12.4061
G1 X47.9925 Y12.4001
G1 X47.865 Y12.4061
G1 X47.7388 Y12.4246
G1 X47.6103 Y12.4567
G1 X47.4903 Y12.5
G1 X47.375 Y12.5547
G1 X47.2698 Y12.6178
G1 X47.1672 Y12.6936
G1 X47.0725 Y12.7791
G1 X46.9867 Y12.8734
G1 X46.9078 Y12.9798
G1 X46.8424 Y13.0894
G1 X46.7881 Y13.2048
G1 X46.7453 Y13.325
G1 X46.7155 Y13.444
G1 X46.6966 Y13.5701
G1 X46.6901 Y13.6975
G1 X46.6961 Y13.825
G1 X46.7146 Y13.9512
G1 X46.7467 Y14.0797
G1 X46.79 Y14.1997
G1 X46.8424 Y14.3106
G1 X46.9078 Y14.4202
G1 X46.949 Y14.4762
G00 Z5.0000
(Block-name: block)
(Block-expand: 0)
(Block-enable: 1)
G0 X57.2773 Y32.1105
G01 F60.00
G01 Z-0.1300
G01 F120.00
G1 X59.2925 Y32.1104
G1 X59.3954 Y32.1051
G1 X59.4973 Y32.0898
G1 X59.5973 Y32.0645
G1 X59.6943 Y32.0295
G1 X59.7873 Y31.9852
G1 X59.8756 Y31.932
G1 X59.9583 Y31.8704
G1 X60.031 Y31.8045
G1 X61.6295 Y30.2061
G1 X61.6295 Y38.0049
G1 X60.0455 Y39.589
G1 X59.9765 Y39.6655
G1 X59.918 Y39.7444
G1 X59.8648 Y39.8327
G1 X59.8205 Y39.9257
G1 X59.7841 Y40.0274
G1 X59.7602 Y40.1227
G1 X59.7449 Y40.2246
G1 X59.7395 Y40.33
G1 X59.7395 Y45.19
G1 X59.7444 Y45.2905
G1 X59.7593 Y45.3925
G1 X59.7841 Y45.4926
G1 X59.8186 Y45.5897
G1 X59.8648 Y45.6873
G1 X59.918 Y45.7756
G1 X59.9796 Y45.8583
G1 X60.0472 Y45.9328
G1 X61.6872 Y47.5728
G1 X61.7617 Y47.6404
G1 X61.8484 Y47.7048
G1 X61.937 Y47.7576
G1 X62.0303 Y47.8014
G1 X62.1274 Y47.8359
G1 X62.2275 Y47.8607
G1 X62.3295 Y47.8756
G1 X62.4275 Y47.8804
G1 X65.81 Y47.8805
G1 X65.9154 Y47.8751
G1 X66.0173 Y47.8598
G1 X66.1126 Y47.8359
G1 X66.2143 Y47.7995
G1 X66.3073 Y47.7552
G1 X66.3916 Y47.7048
G1 X66.4745 Y47.6436
G1 X66.551 Y47.5745
G1 X69.5556 Y44.57
G1 X72.12 Y44.57
G1 X72.1298 Y44.569
G1 X72.1391 Y44.5662
G1 X72.1478 Y44.5616
G1 X72.1554 Y44.5554
G1 X72.1616 Y44.5478
G1 X72.1662 Y44.5391
G1 X72.169 Y44.5298
G1 X72.17 Y44.52
G1 X72.17 Y40.52
G1 X72.169 Y40.5102
G1 X72.1662 Y40.5009
G1 X72.1616 Y40.4922
G1 X72.1554 Y40.4846
G1 X72.1478 Y40.4784
G1 X72.1391 Y40.4738
G1 X72.1298 Y40.471
G1 X72.12 Y40.47
G1 X68.12 Y40.47
G1 X68.1102 Y40.471
G1 X68.1009 Y40.4738
G1 X68.0922 Y40.4784
G1 X68.0846 Y40.4846
G1 X68.0784 Y40.4922
G1 X68.0738 Y40.5009
G1 X68.071 Y40.5102
G1 X68.07 Y40.52
G1 X68.07 Y43.0844
G1 X65.3749 Y45.7795
G1 X62.8651 Y45.7795
G1 X61.8405 Y44.7549
G1 X61.8405 Y40.7651
G1 X63.4228 Y39.1828
G1 X63.4904 Y39.1083
G1 X63.5548 Y39.0216
G1 X63.6076 Y38.933
G1 X63.6495 Y38.8443
G1 X63.6859 Y38.7426
G1 X63.7098 Y38.6473
G1 X63.7251 Y38.5454
G1 X63.7305 Y38.44
G1 X63.7305 Y28.1051
G1 X70.2656 Y21.57
G1 X72.12 Y21.57
G1 X72.1298 Y21.569
G1 X72.1391 Y21.5662
G1 X72.1478 Y21.5616
G1 X72.1517 Y21.5587
G1 X72.1587 Y21.5517
G1 X72.1616 Y21.5478
G1 X72.1662 Y21.5391
G1 X72.169 Y21.5298
G1 X72.17 Y21.52
G1 X72.17 Y17.52
G1 X72.169 Y17.5102
G1 X72.1662 Y17.5009
G1 X72.1616 Y17.4922
G1 X72.1554 Y17.4846
G1 X72.1478 Y17.4784
G1 X72.1391 Y17.4738
G1 X72.1298 Y17.471
G1 X72.12 Y17.47
G1 X68.12 Y17.47
G1 X68.1151 Y17.4702
G1 X68.1055 Y17.4722
G1 X68.1009 Y17.4738
G1 X68.0922 Y17.4784
G1 X68.0883 Y17.4813
G1 X68.0813 Y17.4883
G1 X68.0759 Y17.4964
G1 X68.0738 Y17.5009
G1 X68.071 Y17.5102
G1 X68.07 Y17.52
G1 X68.07 Y20.7944
G1 X58.8549 Y30.0095
G1 X57.2773 Y30.0095
G1 X57.2342 Y29.9623
G1 X57.1252 Y29.8634
G1 X57.0031 Y29.7726
G1 X56.8728 Y29.6942
G1 X56.7354 Y29.629
G1 X56.5923 Y29.5775
G1 X56.4448 Y29.5403
G1 X56.2944 Y29.5178
G1 X56.1425 Y29.5101
G1 X55.9905 Y29.5173
G1 X55.84 Y29.5394
G1 X55.6924 Y29.5761
G1 X55.5491 Y29.6271
G1 X55.4115 Y29.6919
G1 X55.2809 Y29.7699
G1 X55.1548 Y29.8634
G1 X55.0423 Y29.9658
G1 X54.9403 Y30.0786
G1 X54.8499 Y30.2009
G1 X54.7719 Y30.3315
G1 X54.7071 Y30.4691
G1 X54.6561 Y30.6124
G1 X54.6194 Y30.76
G1 X54.5973 Y30.9105
G1 X54.5901 Y31.0625
G1 X54.5978 Y31.2144
G1 X54.6203 Y31.3648
G1 X54.6575 Y31.5123
G1 X54.709 Y31.6554
G1 X54.7742 Y31.7928
G1 X54.8526 Y31.9231
G1 X54.9434 Y32.0452
G1 X55.0458 Y32.1577
G1 X55.1586 Y32.2597
G1 X55.2809 Y32.3501
G1 X55.4115 Y32.4281
G1 X55.5491 Y32.4929
G1 X55.6924 Y32.5439
G1 X55.84 Y32.5806
G1 X55.9905 Y32.6027
G1 X56.1425 Y32.6099
G1 X56.2944 Y32.6022
G1 X56.4448 Y32.5797
G1 X56.5923 Y32.5425
G1 X56.7354 Y32.491
G1 X56.8728 Y32.4258
G1 X57.0031 Y32.3474
G1 X57.1252 Y32.2566
G1 X57.2342 Y32.1577
G1 X57.2773 Y32.1105
G00 Z5.0000
(Block-name: block)
(Block-expand: 0)
(Block-enable: 1)
G0 X62.9395 Y40.9124
G01 F60.00
G01 Z-0.1300
G01 F120.00
G1 X62.8491 Y40.9669
G1 X62.6877 Y41.0869
G1 X62.5388 Y41.2222
G1 X62.4038 Y41.3714
G1 X62.2842 Y41.5332
G1 X62.181 Y41.7058
G1 X62.0952 Y41.8878
G1 X62.0276 Y42.0773
G1 X61.979 Y42.2725
G1 X61.9497 Y42.4715
G1 X61.9401 Y42.6725
G1 X61.9502 Y42.8734
G1 X61.9799 Y43.0723
G1 X62.0291 Y43.2674
G1 X62.0971 Y43.4567
G1 X62.1833 Y43.6385
G1 X62.2869 Y43.8109
G1 X62.407 Y43.9724
G1 X62.5422 Y44.1213
G1 X62.6914 Y44.2562
G1 X62.8532 Y44.3758
G1 X63.0258 Y44.479
G1 X63.2078 Y44.5648
G1 X63.3973 Y44.6324
G1 X63.5925 Y44.681
G1 X63.7915 Y44.7103
G1 X63.9925 Y44.7199
G1 X64.1885 Y44.7103
G1 X64.3875 Y44.681
G1 X64.5827 Y44.6324
G1 X64.7722 Y44.5648
G1 X64.9542 Y44.479
G1 X65.1309 Y44.3731
G1 X65.2924 Y44.2531
G1 X65.4378 Y44.1213
G1 X65.5731 Y43.9724
G1 X65.6958 Y43.8068
G1 X65.7991 Y43.6342
G1 X65.883 Y43.4567
G1 X65.9524 Y43.2627
G1 X66.0011 Y43.0675
G1 X66.0303 Y42.8685
G1 X66.04 Y42.6725
G1 X66.0298 Y42.4666
G1 X66.0001 Y42.2677
G1 X65.9524 Y42.0773
G1 X65.883 Y41.8833
G1 X65.7967 Y41.7015
G1 X65.6931 Y41.5291
G1 X65.5731 Y41.3676
G1 X65.4413 Y41.2222
G1 X65.2886 Y41.0838
G1 X65.1309 Y40.9669
G1 X65.0547 Y40.9209
G1 X67.8651 Y38.1105
G1 X69.3027 Y38.1105
G1 X69.3458 Y38.1577
G1 X69.4586 Y38.2597
G1 X69.5809 Y38.3501
G1 X69.7115 Y38.4281
G1 X69.8491 Y38.4929
G1 X69.9924 Y38.5439
G1 X70.14 Y38.5806
G1 X70.2905 Y38.6027
G1 X70.4425 Y38.6099
G1 X70.5895 Y38.6027
G1 X70.74 Y38.5806
G1 X70.8876 Y38.5439
G1 X71.0354 Y38.491
G1 X71.1728 Y38.4258
G1 X71.3031 Y38.3474
G1 X71.4252 Y38.2566
G1 X71.5377 Y38.1542
G1 X71.6397 Y38.0414
G1 X71.7301 Y37.9191
G1 X71.8081 Y37.7885
G1 X71.8729 Y37.6509
G1 X71.9239 Y37.5076
G1 X71.9597 Y37.3648
G1 X71.9822 Y37.2144
G1 X71.9899 Y37.0625
G1 X71.9822 Y36.9056
G1 X71.9597 Y36.7552
G1 X71.9225 Y36.6077
G1 X71.871 Y36.4646
G1 X71.8081 Y36.3315
G1 X71.7274 Y36.1969
G1 X71.6366 Y36.0748
G1 X71.5377 Y35.9658
G1 X71.4252 Y35.8634
G1 X71.2991 Y35.7699
G1 X71.1685 Y35.6919
G1 X71.0354 Y35.629
G1 X70.8923 Y35.5775
G1 X70.74 Y35.5394
G1 X70.5895 Y35.5173
G1 X70.4425 Y35.5101
G1 X70.2905 Y35.5173
G1 X70.1352 Y35.5403
G1 X69.9877 Y35.5775
G1 X69.8446 Y35.629
G1 X69.7072 Y35.6942
G1 X69.5769 Y35.7726
G1 X69.4548 Y35.8634
G1 X69.3458 Y35.9623
G1 X69.3027 Y36.0095
G1 X67.43 Y36.0095
G1 X67.3295 Y36.0144
G1 X67.2275 Y36.0293
G1 X67.1274 Y36.0541
G1 X67.0303 Y36.0886
G1 X66.937 Y36.1324
G1 X66.8444 Y36.188
G1 X66.7617 Y36.2496
G1 X66.6872 Y36.3172
G1 X63.2472 Y39.7572
G1 X63.1796 Y39.8317
G1 X63.118 Y39.9143
G1 X63.0625 Y40.007
G1 X63.0186 Y40.1003
G1 X62.9841 Y40.1974
G1 X62.9602 Y40.2926
G1 X62.9449 Y40.3946
G1 X62.9396 Y40.4975
G1 X62.9395 Y40.9124
G00 Z5.0000
(Block-name: block)
(Block-expand: 0)
(Block-enable: 1)
G0 X53.308 Y55.5383
G01 F60.00
G01 Z-0.1300
G01 F120.00
G1 X53.3773 Y55.5052
G1 X53.4616 Y55.4548
G1 X53.5445 Y55.3936
G1 X53.621 Y55.3245
G1 X53.6904 Y55.2483
G1 X53.7548 Y55.1616
G1 X53.8076 Y55.073
G1 X53.8495 Y54.9843
G1 X53.8859 Y54.8826
G1 X53.9098 Y54.7873
G1 X53.9176 Y54.736
G1 X54.8628 Y53.7908
G1 X54.9336 Y53.7125
G1 X54.9948 Y53.6296
G1 X55.0476 Y53.541
G1 X55.0895 Y53.4523
G1 X55.1245 Y53.3553
G1 X55.1498 Y53.2553
G1 X55.1651 Y53.1534
G1 X55.1704 Y53.0505
G1 X55.1705 Y52.5588
G1 X55.1794 Y52.5435
G1 X55.2277 Y52.4415
G1 X55.2676 Y52.3307
G1 X55.2964 Y52.2165
G1 X55.3144 Y52.0952
G1 X55.3199 Y51.9775
G1 X55.3139 Y51.8599
G1 X55.2964 Y51.7435
G1 X55.2676 Y51.6293
G1 X55.2277 Y51.5185
G1 X55.1794 Y51.4165
G1 X55.1191 Y51.3154
G1 X55.046 Y51.2169
G1 X54.9668 Y51.1298
G1 X54.8831 Y51.054
G1 X54.7887 Y50.9836
G1 X54.6835 Y50.9206
G1 X54.5769 Y50.8705
G1 X54.466 Y50.831
G1 X54.3565 Y50.8036
G1 X54.2352 Y50.7856
G1 X54.1175 Y50.7801
G1 X54.0048 Y50.7856
G1 X53.8835 Y50.8036
G1 X53.7693 Y50.8324
G1 X53.6585 Y50.8723
G1 X53.5565 Y50.9206
G1 X53.4513 Y50.9836
G1 X53.3569 Y51.054
G1 X53.2732 Y51.1298
G1 X53.194 Y51.2169
G1 X53.1236 Y51.3113
G1 X53.0629 Y51.4122
G1 X53.0105 Y51.5231
G1 X52.971 Y51.634
G1 X52.9436 Y51.7435
G1 X52.9256 Y51.8648
G1 X52.9201 Y51.9825
G1 X52.9256 Y52.0952
G1 X52.9426 Y52.2117
G1 X52.971 Y52.326
G1 X53.0105 Y52.4369
G1 X53.0606 Y52.5435
G1 X53.0695 Y52.5588
G1 X53.0695 Y52.6129
G1 X52.2545 Y53.4279
G1 X52.2373 Y53.4324
G1 X52.1311 Y53.4705
G1 X52.0202 Y53.5229
G1 X51.9234 Y53.5809
G1 X51.8287 Y53.6509
G1 X51.7378 Y53.7332
G1 X51.662 Y53.8169
G1 X51.5916 Y53.9113
G1 X51.5286 Y54.0165
G1 X51.4785 Y54.1231
G1 X51.439 Y54.234
G1 X51.4116 Y54.3435
G1 X51.3936 Y54.4648
G1 X51.3881 Y54.5825
G1 X51.3941 Y54.7001
G1 X51.4116 Y54.8165
G1 X51.439 Y54.926
G1 X51.4803 Y55.0415
G1 X51.5286 Y55.1435
G1 X51.5889 Y55.2446
G1 X51.662 Y55.3431
G1 X51.7378 Y55.4268
G1 X51.8249 Y55.506
G1 X51.9234 Y55.5791
G1 X52.0245 Y55.6394
G1 X52.1265 Y55.6877
G1 X52.242 Y55.729
G1 X52.3515 Y55.7564
G1 X52.4679 Y55.7739
G1 X52.5905 Y55.7799
G1 X52.7032 Y55.7744
G1 X52.8197 Y55.7574
G1 X52.9387 Y55.7276
G1 X53.0495 Y55.6877
G1 X53.1515 Y55.6394
G1 X53.2526 Y55.5791
G1 X53.308 Y55.5383
G00 Z5.0000
(Block-name: block)
(Block-expand: 0)
(Block-enable: 1)
G0 X48.5074 Y57.6793
G01 F60.00
G01 Z-0.1300
G01 F120.00
G1 X51.219 Y60.3909
G1 X51.2792 Y60.4452
G1 X51.3424 Y60.4918
G1 X51.4099 Y60.532
G1 X51.481 Y60.5653
G1 X51.555 Y60.5915
G1 X51.6313 Y60.6104
G1 X51.709 Y60.6217
G1 X51.7825 Y60.6253
G1 X51.861 Y60.6217
G1 X51.9387 Y60.6104
G1 X52.015 Y60.5915
G1 X52.039 Y60.5832
G1 X52.063 Y60.5915
G1 X52.1393 Y60.6104
G1 X52.217 Y60.6217
G1 X52.293 Y60.6254
G1 X55.8835 Y60.6253
G1 X55.9619 Y60.6212
G1 X56.0396 Y60.6094
G1 X56.1157 Y60.5901
G1 X56.1896 Y60.5634
G1 X56.2605 Y60.5296
G1 X56.3277 Y60.4891
G1 X56.3906 Y60.4421
G1 X56.4452 Y60.3926
G1 X59.406 Y57.432
G1 X59.4571 Y57.3756
G1 X59.5041 Y57.3127
G1 X59.547 Y57.2411
G1 X59.5803 Y57.17
G1 X59.6066 Y57.096
G1 X59.6245 Y57.0245
G1 X59.6362 Y56.9469
G1 X59.6404 Y56.866
G1 X59.6404 Y38.61
G1 X59.6498 Y38.609
G1 X59.6591 Y38.6062
G1 X59.6678 Y38.6016
G1 X59.6754 Y38.5954
G1 X59.6816 Y38.5878
G1 X59.6862 Y38.5791
G1 X59.689 Y38.5698
G1 X59.69 Y38.56
G1 X59.69 Y35.56
G1 X59.689 Y35.5502
G1 X59.6862 Y35.5409
G1 X59.6841 Y35.5364
G1 X59.6787 Y35.5283
G1 X59.6754 Y35.5246
G1 X59.6678 Y35.5184
G1 X59.6636 Y35.5159
G1 X59.6545 Y35.5122
G1 X59.6449 Y35.5102
G1 X59.64 Y35.51
G1 X56.6351 Y35.5102
G1 X56.6302 Y35.511
G1 X56.6209 Y35.5138
G1 X56.6122 Y35.5184
G1 X56.6046 Y35.5246
G1 X56.5984 Y35.5322
G1 X56.5938 Y35.5409
G1 X56.5922 Y35.5455
G1 X56.5902 Y35.5551
G1 X56.59 Y36.0095
G1 X54.6651 Y36.0095
G1 X52.772 Y34.1164
G1 X52.7615 Y34.0877
G1 X52.7153 Y33.9901
G1 X52.6575 Y33.8932
G1 X52.5905 Y33.8024
G1 X52.5149 Y33.7186
G1 X52.4276 Y33.6395
G1 X52.3368 Y33.5725
G1 X52.2399 Y33.5147
G1 X52.1378 Y33.4667
G1 X52.0315 Y33.4289
G1 X51.9219 Y33.4017
G1 X51.8103 Y33.3854
G1 X51.6975 Y33.3801
G1 X51.5848 Y33.3858
G1 X51.4733 Y33.4026
G1 X51.3638 Y33.4303
G1 X51.2577 Y33.4685
G1 X51.1558 Y33.517
G1 X51.0591 Y33.5752
G1 X50.9686 Y33.6426
G1 X50.8851 Y33.7186
G1 X50.8095 Y33.8024
G1 X50.7425 Y33.8932
G1 X50.6847 Y33.9901
G1 X50.6367 Y34.0922
G1 X50.5989 Y34.1985
G1 X50.5726 Y34.3033
G1 X50.5554 Y34.4197
G1 X50.5501 Y34.5325
G1 X50.5554 Y34.6403
G1 X50.5726 Y34.7567
G1 X50.5989 Y34.8615
G1 X50.6367 Y34.9678
G1 X50.687 Y35.0742
G1 X50.7425 Y35.1668
G1 X50.8095 Y35.2576
G1 X50.8886 Y35.3449
G1 X50.9686 Y35.4174
G1 X51.0591 Y35.4848
G1 X51.1601 Y35.5453
G1 X51.2577 Y35.5915
G1 X51.2864 Y35.602
G1 X53.4872 Y37.8028
G1 X53.5655 Y37.8736
G1 X53.6484 Y37.9348
G1 X53.737 Y37.9876
G1 X53.8257 Y38.0295
G1 X53.9227 Y38.0645
G1 X54.0275 Y38.0907
G1 X54.1295 Y38.1056
G1 X54.23 Y38.1105
G1 X56.59 Y38.1105
G1 X56.5902 Y38.5649
G1 X56.5922 Y38.5745
G1 X56.5938 Y38.5791
G1 X56.5959 Y38.5836
G1 X56.6013 Y38.5917
G1 X56.6083 Y38.5987
G1 X56.6122 Y38.6016
G1 X56.6164 Y38.6041
G1 X56.6255 Y38.6078
G1 X56.6351 Y38.6098
G1 X56.64 Y38.61
G1 X58.0396 Y38.61
G1 X58.0396 Y56.5345
G1 X55.5495 Y59.0246
G1 X52.293 Y59.0246
G1 X52.2121 Y59.0288
G1 X52.1393 Y59.0396
G1 X52.1328 Y59.0409
G1 X49.6393 Y56.5474
G1 X49.6439 Y56.515
G1 X49.6499 Y56.3925
G1 X49.6439 Y56.265
G1 X49.6245 Y56.134
G1 X49.5933 Y56.0103
G1 X49.55 Y55.8903
G1 X49.4976 Y55.7794
G1 X49.4322 Y55.6698
G1 X49.3564 Y55.5672
G1 X49.2709 Y55.4725
G1 X49.1728 Y55.3836
G1 X49.0702 Y55.3078
G1 X48.9606 Y55.2424
G1 X48.8497 Y55.19
G1 X48.7297 Y55.1467
G1 X48.606 Y55.1155
G1 X48.475 Y55.0961
G1 X48.3475 Y55.0901
G1 X48.2201 Y55.0966
G1 X48.094 Y55.1155
G1 X47.9703 Y55.1467
G1 X47.8503 Y55.19
G1 X47.735 Y55.2447
G1 X47.6258 Y55.3105
G1 X47.5234 Y55.3867
G1 X47.4291 Y55.4725
G1 X47.3436 Y55.5672
G1 X47.2678 Y55.6698
G1 X47.2024 Y55.7794
G1 X47.1481 Y55.8948
G1 X47.1053 Y56.015
G1 X47.0746 Y56.1388
G1 X47.0561 Y56.265
G1 X47.0501 Y56.3925
G1 X47.0566 Y56.5199
G1 X47.0755 Y56.646
G1 X47.1067 Y56.7697
G1 X47.15 Y56.8897
G1 X47.2047 Y57.005
G1 X47.2705 Y57.1142
G1 X47.3467 Y57.2166
G1 X47.4325 Y57.3109
G1 X47.5272 Y57.3964
G1 X47.6298 Y57.4722
G1 X47.7394 Y57.5376
G1 X47.8548 Y57.5919
G1 X47.975 Y57.6347
G1 X48.0988 Y57.6654
G1 X48.225 Y57.6839
G1 X48.3525 Y57.6899
G1 X48.475 Y57.6839
G1 X48.5074 Y57.6793
G00 Z5.0000
(Block-name: block)
(Block-expand: 0)
(Block-enable: 1)
G0 X46.2526 Y60.1508
G01 F60.00
G01 Z-0.1300
G01 F120.00
G1 X47.7659 Y61.6641
G1 X47.8041 Y61.6987
G1 X47.8514 Y61.7338
G1 X47.8978 Y61.7614
G1 X47.9422 Y61.7824
G1 X47.9976 Y61.8022
G1 X48.0452 Y61.8141
G1 X48.0986 Y61.8223
G1 X48.155 Y61.8252
G1 X60.313 Y61.8252
G1 X60.3694 Y61.8223
G1 X60.4228 Y61.8141
G1 X60.4704 Y61.8022
G1 X60.5258 Y61.7824
G1 X60.5745 Y61.7591
G1 X60.6166 Y61.7338
G1 X60.6602 Y61.7018
G1 X60.7021 Y61.6641
G1 X63.4354 Y58.9308
G1 X63.503 Y58.9547
G1 X63.6268 Y58.9854
G1 X63.753 Y59.0039
G1 X63.8755 Y59.0099
G1 X64.003 Y59.0039
G1 X64.1292 Y58.9854
G1 X64.2577 Y58.9533
G1 X64.3777 Y58.91
G1 X64.493 Y58.8553
G1 X64.5982 Y58.7922
G1 X64.7008 Y58.7164
G1 X64.7989 Y58.6275
G1 X64.8844 Y58.5328
G1 X64.9602 Y58.4302
G1 X65.0256 Y58.3206
G1 X65.078 Y58.2097
G1 X65.1227 Y58.085
G1 X65.1534 Y57.9612
G1 X65.1719 Y57.835
G1 X65.1779 Y57.7075
G1 X65.1719 Y57.585
G1 X65.1534 Y57.4588
G1 X65.1227 Y57.335
G1 X65.078 Y57.2103
G1 X65.0256 Y57.0994
G1 X64.9602 Y56.9898
G1 X64.8844 Y56.8872
G1 X64.8285 Y56.8252
G1 X64.8284 Y55.6075
G1 X64.8231 Y55.5046
G1 X64.8078 Y55.4027
G1 X64.7839 Y55.3074
G1 X64.7494 Y55.2103
G1 X64.7056 Y55.117
G1 X64.6528 Y55.0284
G1 X64.5916 Y54.9455
G1 X64.5208 Y54.8672
G1 X64.0306 Y54.377
G1 X64.0225 Y54.324
G1 X63.9927 Y54.205
G1 X63.948 Y54.0803
G1 X63.8956 Y53.9694
G1 X63.8302 Y53.8598
G1 X63.7544 Y53.7572
G1 X63.6689 Y53.6625
G1 X63.5708 Y53.5736
G1 X63.4682 Y53.4978
G1 X63.3586 Y53.4324
G1 X63.2477 Y53.38
G1 X63.1277 Y53.3367
G1 X63.004 Y53.3055
G1 X62.8779 Y53.2866
G1 X62.7455 Y53.2801
G1 X62.6181 Y53.2866
G1 X62.492 Y53.3055
G1 X62.373 Y53.3353
G1 X62.2528 Y53.3781
G1 X62.1374 Y53.4324
G1 X62.0278 Y53.4978
G1 X61.9214 Y53.5767
G1 X61.8305 Y53.6591
G1 X61.7447 Y53.7534
G1 X61.6658 Y53.8598
G1 X61.6004 Y53.9694
G1 X61.548 Y54.0803
G1 X61.5033 Y54.205
G1 X61.4726 Y54.3288
G1 X61.4541 Y54.455
G1 X61.4481 Y54.5775
G1 X61.4546 Y54.7099
G1 X61.4735 Y54.836
G1 X61.5033 Y54.955
G1 X61.548 Y55.0797
G1 X61.6004 Y55.1906
G1 X61.6658 Y55.3002
G1 X61.7416 Y55.4028
G1 X61.8271 Y55.4975
G1 X61.9252 Y55.5864
G1 X62.0278 Y55.6622
G1 X62.1374 Y55.7276
G1 X62.2483 Y55.78
G1 X62.373 Y55.8247
G1 X62.492 Y55.8545
G1 X62.545 Y55.8626
G1 X62.7275 Y56.0451
G1 X62.7275 Y57.1055
G1 X62.6761 Y57.2148
G1 X62.6347 Y57.3303
G1 X62.6035 Y57.454
G1 X62.5846 Y57.5801
G1 X62.5781 Y57.7075
G1 X62.5841 Y57.835
G1 X62.6026 Y57.9612
G1 X62.6333 Y58.085
G1 X62.6572 Y58.1526
G1 X60.0851 Y60.7247
G1 X48.3829 Y60.7247
G1 X47.0308 Y59.3726
G1 X47.0547 Y59.305
G1 X47.0845 Y59.186
G1 X47.1039 Y59.055
G1 X47.1099 Y58.9275
G1 X47.1039 Y58.805
G1 X47.0845 Y58.674
G1 X47.0547 Y58.555
G1 X47.0119 Y58.4348
G1 X46.9553 Y58.315
G1 X46.8922 Y58.2098
G1 X46.8164 Y58.1072
G1 X46.7275 Y58.0091
G1 X46.6366 Y57.9267
G1 X46.5342 Y57.8505
G1 X46.425 Y57.7847
G1 X46.3052 Y57.7281
G1 X46.185 Y57.6853
G1 X46.066 Y57.6555
G1 X45.935 Y57.6361
G1 X45.8075 Y57.6301
G1 X45.685 Y57.6361
G1 X45.554 Y57.6555
G1 X45.435 Y57.6853
G1 X45.3148 Y57.7281
G1 X45.1994 Y57.7824
G1 X45.0898 Y57.8478
G1 X44.9872 Y57.9236
G1 X44.8925 Y58.0091
G1 X44.8067 Y58.1034
G1 X44.7305 Y58.2058
G1 X44.6647 Y58.315
G1 X44.61 Y58.4303
G1 X44.5667 Y58.5503
G1 X44.5355 Y58.674
G1 X44.5166 Y58.8001
G1 X44.5101 Y58.9275
G1 X44.5161 Y59.055
G1 X44.5346 Y59.1812
G1 X44.5653 Y59.305
G1 X44.6081 Y59.4252
G1 X44.6624 Y59.5406
G1 X44.7278 Y59.6502
G1 X44.8036 Y59.7528
G1 X44.8891 Y59.8475
G1 X44.9834 Y59.9333
G1 X45.0858 Y60.0095
G1 X45.195 Y60.0753
G1 X45.3103 Y60.13
G1 X45.4303 Y60.1733
G1 X45.554 Y60.2045
G1 X45.6801 Y60.2234
G1 X45.8075 Y60.2299
G1 X45.935 Y60.2239
G1 X46.0612 Y60.2054
G1 X46.185 Y60.1747
G1 X46.2526 Y60.1508
G00 Z5.0000
(Block-name: block)
(Block-expand: 0)
(Block-enable: 1)
G0 X41.4299 Y49.1375
G01 F60.00
G01 Z-0.1300
G01 F120.00
G1 X41.4234 Y49.0101
G1 X41.4045 Y48.884
G1 X41.3733 Y48.7603
G1 X41.33 Y48.6403
G1 X41.2753 Y48.525
G1 X41.2095 Y48.4158
G1 X41.1333 Y48.3134
G1 X41.0475 Y48.2191
G1 X40.9528 Y48.1336
G1 X40.8502 Y48.0578
G1 X40.7406 Y47.9924
G1 X40.6252 Y47.9381
G1 X40.505 Y47.8953
G1 X40.3812 Y47.8646
G1 X40.255 Y47.8461
G1 X40.1275 Y47.8401
G1 X40.0001 Y47.8466
G1 X39.874 Y47.8655
G1 X39.7503 Y47.8967
G1 X39.6303 Y47.94
G1 X39.515 Y47.9947
G1 X39.4058 Y48.0605
G1 X39.3034 Y48.1367
G1 X39.2091 Y48.2225
G1 X39.1236 Y48.3172
G1 X39.0478 Y48.4198
G1 X38.9824 Y48.5294
G1 X38.9281 Y48.6448
G1 X38.8853 Y48.765
G1 X38.8546 Y48.8888
G1 X38.8361 Y49.015
G1 X38.8301 Y49.1425
G1 X38.8366 Y49.2699
G1 X38.8555 Y49.396
G1 X38.8867 Y49.5197
G1 X38.93 Y49.6397
G1 X38.9847 Y49.755
G1 X39.0505 Y49.8642
G1 X39.1267 Y49.9666
G1 X39.2125 Y50.0609
G1 X39.3072 Y50.1464
G1 X39.4098 Y50.2222
G1 X39.5194 Y50.2876
G1 X39.6348 Y50.3419
G1 X39.755 Y50.3847
G1 X39.8788 Y50.4154
G1 X40.005 Y50.4339
G1 X40.1325 Y50.4399
G1 X40.2599 Y50.4334
G1 X40.386 Y50.4145
G1 X40.5097 Y50.3833
G1 X40.6297 Y50.34
G1 X40.745 Y50.2853
G1 X40.8542 Y50.2195
G1 X40.9566 Y50.1433
G1 X41.0509 Y50.0575
G1 X41.1364 Y49.9628
G1 X41.2122 Y49.8602
G1 X41.2776 Y49.7506
G1 X41.3319 Y49.6352
G1 X41.3747 Y49.515
G1 X41.4054 Y49.3912
G1 X41.4239 Y49.265
G1 X41.4299 Y49.1375
G00 Z5.0000
(Block-name: block)
(Block-expand: 0)
(Block-enable: 1)
G0 X17.79 Y50.83
G01 F60.00
G01 Z-0.1300
G01 F120.00
G1 X17.79 Y53.83
G1 X17.791 Y53.8398
G1 X17.7938 Y53.8491
G1 X17.7984 Y53.8578
G1 X17.8046 Y53.8654
G1 X17.8122 Y53.8716
G1 X17.8209 Y53.8762
G1 X17.8302 Y53.879
G1 X17.84 Y53.88
G1 X20.84 Y53.88
G1 X20.8498 Y53.879
G1 X20.8591 Y53.8762
G1 X20.8678 Y53.8716
G1 X20.8754 Y53.8654
G1 X20.8816 Y53.8578
G1 X20.8862 Y53.8491
G1 X20.889 Y53.8398
G1 X20.89 Y53.83
G1 X20.89 Y50.83
G1 X20.889 Y50.8202
G1 X20.8862 Y50.8109
G1 X20.8816 Y50.8022
G1 X20.8754 Y50.7946
G1 X20.8678 Y50.7884
G1 X20.8591 Y50.7838
G1 X20.8498 Y50.781
G1 X20.84 Y50.78
G1 X17.84 Y50.78
G1 X17.8302 Y50.781
G1 X17.8209 Y50.7838
G1 X17.8122 Y50.7884
G1 X17.8046 Y50.7946
G1 X17.7984 Y50.8022
G1 X17.7938 Y50.8109
G1 X17.791 Y50.8202
G1 X17.79 Y50.83
G00 Z5.0000
(Block-name: block)
(Block-expand: 0)
(Block-enable: 1)
G0 X13.2925 Y56.6899
G01 F60.00
G01 Z-0.1300
G01 F120.00
G1 X13.4052 Y56.6842
G1 X13.5167 Y56.6674
G1 X13.6262 Y56.6397
G1 X13.7323 Y56.6015
G1 X13.8342 Y56.553
G1 X13.9309 Y56.4948
G1 X14.0214 Y56.4274
G1 X14.1049 Y56.3514
G1 X14.1805 Y56.2676
G1 X14.2475 Y56.1768
G1 X14.3053 Y56.0799
G1 X14.3533 Y55.9778
G1 X14.3911 Y55.8715
G1 X14.4183 Y55.7619
G1 X14.4346 Y55.6503
G1 X14.4399 Y55.5375
G1 X14.4342 Y55.4248
G1 X14.4174 Y55.3133
G1 X14.3897 Y55.2038
G1 X14.3515 Y55.0977
G1 X14.303 Y54.9958
G1 X14.2448 Y54.8991
G1 X14.1774 Y54.8086
G1 X14.1014 Y54.7251
G1 X14.0176 Y54.6495
G1 X13.9268 Y54.5825
G1 X13.8299 Y54.5247
G1 X13.7278 Y54.4767
G1 X13.6215 Y54.4389
G1 X13.5119 Y54.4117
G1 X13.4003 Y54.3954
G1 X13.2875 Y54.3901
G1 X13.1748 Y54.3958
G1 X13.0633 Y54.4126
G1 X12.9538 Y54.4403
G1 X12.8477 Y54.4785
G1 X12.7458 Y54.527
G1 X12.6491 Y54.5852
G1 X12.5586 Y54.6526
G1 X12.4751 Y54.7286
G1 X12.3995 Y54.8124
G1 X12.3325 Y54.9032
G1 X12.2747 Y55.0001
G1 X12.2267 Y55.1022
G1 X12.1889 Y55.2085
G1 X12.1617 Y55.3181
G1 X12.1454 Y55.4297
G1 X12.1401 Y55.5425
G1 X12.1458 Y55.6552
G1 X12.1626 Y55.7667
G1 X12.1903 Y55.8762
G1 X12.2285 Y55.9823
G1 X12.277 Y56.0842
G1 X12.3352 Y56.1809
G1 X12.4026 Y56.2714
G1 X12.4786 Y56.3549
G1 X12.5624 Y56.4305
G1 X12.6532 Y56.4975
G1 X12.7501 Y56.5553
G1 X12.8522 Y56.6033
G1 X12.9585 Y56.6411
G1 X13.0681 Y56.6683
G1 X13.1797 Y56.6846
G1 X13.2925 Y56.6899
G00 Z5.0000
(Block-name: block)
(Block-expand: 0)
(Block-enable: 1)
G0 X10.4503 Y56.6491
G01 F60.00
G01 Z-0.1300
G01 F120.00
G1 X10.4555 Y56.6825
G1 X10.4734 Y56.754
G1 X10.5015 Y56.8325
G1 X10.533 Y56.8991
G1 X10.5732 Y56.9666
G1 X10.6229 Y57.0336
G1 X10.674 Y57.09
G1 X11.74 Y58.156
G1 X11.7964 Y58.2071
G1 X11.8593 Y58.2541
G1 X11.9309 Y58.297
G1 X12.002 Y58.3303
G1 X12.076 Y58.3566
G1 X12.1475 Y58.3745
G1 X12.2251 Y58.3862
G1 X12.306 Y58.3904
G1 X14.274 Y58.3904
G1 X14.35 Y58.3867
G1 X14.4325 Y58.3745
G1 X14.504 Y58.3566
G1 X14.578 Y58.3303
G1 X14.6534 Y58.2947
G1 X14.7166 Y58.2568
G1 X14.7661 Y58.2204
G1 X22.8777 Y58.2204
G1 X22.9586 Y58.2162
G1 X23.0363 Y58.2045
G1 X23.1124 Y58.1852
G1 X23.1863 Y58.1585
G1 X23.2572 Y58.1247
G1 X23.3244 Y58.0841
G1 X23.3873 Y58.0371
G1 X23.4437 Y57.986
G1 X27.996 Y53.4337
G1 X28.0502 Y53.3735
G1 X28.0941 Y53.3144
G1 X28.1347 Y53.2472
G1 X28.1685 Y53.1763
G1 X28.1966 Y53.0977
G1 X28.2145 Y53.0263
G1 X28.2262 Y52.9486
G1 X28.2303 Y52.8702
G1 X28.2304 Y50.163
G1 X28.2566 Y50.1433
G1 X28.3509 Y50.0575
G1 X28.4333 Y49.9666
G1 X28.5095 Y49.8642
G1 X28.5753 Y49.755
G1 X28.63 Y49.6397
G1 X28.6747 Y49.515
G1 X28.7054 Y49.3912
G1 X28.7239 Y49.265
G1 X28.7299 Y49.1375
G1 X28.7239 Y49.015
G1 X28.7054 Y48.8888
G1 X28.6747 Y48.765
G1 X28.63 Y48.6403
G1 X28.5776 Y48.5294
G1 X28.5122 Y48.4198
G1 X28.4364 Y48.3172
G1 X28.3475 Y48.2191
G1 X28.2566 Y48.1367
G1 X28.1542 Y48.0605
G1 X28.0406 Y47.9924
G1 X27.9252 Y47.9381
G1 X27.805 Y47.8953
G1 X27.686 Y47.8655
G1 X27.5599 Y47.8466
G1 X27.4275 Y47.8401
G1 X27.3001 Y47.8466
G1 X27.174 Y47.8655
G1 X27.055 Y47.8953
G1 X26.9348 Y47.9381
G1 X26.815 Y47.9947
G1 X26.7058 Y48.0605
G1 X26.6034 Y48.1367
G1 X26.5125 Y48.2191
G1 X26.4236 Y48.3172
G1 X26.3505 Y48.4158
G1 X26.2847 Y48.525
G1 X26.23 Y48.6403
G1 X26.1867 Y48.7603
G1 X26.1546 Y48.8888
G1 X26.1361 Y49.015
G1 X26.1301 Y49.1425
G1 X26.1361 Y49.265
G1 X26.1546 Y49.3912
G1 X26.1853 Y49.515
G1 X26.2281 Y49.6352
G1 X26.2824 Y49.7506
G1 X26.3478 Y49.8602
G1 X26.4267 Y49.9666
G1 X26.5125 Y50.0609
G1 X26.6034 Y50.1433
G1 X26.6296 Y50.163
G1 X26.6296 Y52.5362
G1 X22.5462 Y56.6196
G1 X14.444 Y56.6196
G1 X14.368 Y56.6233
G1 X14.2903 Y56.6346
G1 X14.2093 Y56.6549
G1 X14.1355 Y56.6816
G1 X14.0689 Y56.713
G1 X14.0014 Y56.7532
G1 X13.9519 Y56.7896
G1 X12.6375 Y56.7896
G1 X11.8166 Y55.9687
G1 X11.8511 Y55.8715
G1 X11.8774 Y55.7667
G1 X11.8946 Y55.6503
G1 X11.8999 Y55.5375
G1 X11.8946 Y55.4297
G1 X11.8783 Y55.3181
G1 X11.8511 Y55.2085
G1 X11.8115 Y55.0977
G1 X11.763 Y54.9958
G1 X11.7075 Y54.9032
G1 X11.6405 Y54.8124
G1 X11.5649 Y54.7286
G1 X11.4776 Y54.6495
G1 X11.3909 Y54.5852
G1 X11.2942 Y54.527
G1 X11.1923 Y54.4785
G1 X11.0862 Y54.4403
G1 X10.9767 Y54.4126
G1 X10.8603 Y54.3954
G1 X10.7475 Y54.3901
G1 X10.6348 Y54.3958
G1 X10.5233 Y54.4126
G1 X10.4185 Y54.4389
G1 X10.3122 Y54.4767
G1 X10.2058 Y54.527
G1 X10.1091 Y54.5852
G1 X10.0186 Y54.6526
G1 X9.9351 Y54.7286
G1 X9.8595 Y54.8124
G1 X9.7925 Y54.9032
G1 X9.7347 Y55.0001
G1 X9.6885 Y55.0977
G1 X9.6503 Y55.2038
G1 X9.6226 Y55.3133
G1 X9.6058 Y55.4248
G1 X9.6001 Y55.5375
G1 X9.6054 Y55.6503
G1 X9.6217 Y55.7619
G1 X9.6489 Y55.8715
G1 X9.6867 Y55.9778
G1 X9.7347 Y56.0799
G1 X9.7952 Y56.1809
G1 X9.8626 Y56.2714
G1 X9.9386 Y56.3549
G1 X10.0186 Y56.4274
G1 X10.1091 Y56.4948
G1 X10.2058 Y56.553
G1 X10.3077 Y56.6015
G1 X10.4138 Y56.6397
G1 X10.4503 Y56.6491
G00 Z5.0000
(Block-name: block)
(Block-expand: 0)
(Block-enable: 1)
G0 X7.06 Y54.44
G01 F60.00
G01 Z-0.1300
G01 F120.00
G1 X7.06 Y56.64
G1 X7.061 Y56.6498
G1 X7.0622 Y56.6545
G1 X7.0659 Y56.6636
G1 X7.0713 Y56.6717
G1 X7.0783 Y56.6787
G1 X7.0864 Y56.6841
G1 X7.0955 Y56.6878
G1 X7.1051 Y56.6898
G1 X9.31 Y56.69
G1 X9.3198 Y56.689
G1 X9.3291 Y56.6862
G1 X9.3378 Y56.6816
G1 X9.3417 Y56.6787
G1 X9.3487 Y56.6717
G1 X9.3541 Y56.6636
G1 X9.3578 Y56.6545
G1 X9.359 Y56.6498
G1 X9.36 Y56.64
G1 X9.36 Y55.0116
G1 X10.4711 Y53.9005
G1 X13.6349 Y53.9005
G1 X15.949 Y56.2145
G1 X16.0255 Y56.2836
G1 X16.1044 Y56.342
G1 X16.1927 Y56.3952
G1 X16.2903 Y56.4414
G1 X16.3874 Y56.4759
G1 X16.4827 Y56.4998
G1 X16.5846 Y56.5151
G1 X16.69 Y56.5205
G1 X22.07 Y56.5205
G1 X22.1705 Y56.5156
G1 X22.2725 Y56.5007
G1 X22.3773 Y56.4745
G1 X22.4743 Y56.4395
G1 X22.563 Y56.3976
G1 X22.6516 Y56.3448
G1 X22.7345 Y56.2836
G1 X22.811 Y56.2145
G1 X24.8928 Y54.1328
G1 X24.9636 Y54.0545
G1 X25.0248 Y53.9716
G1 X25.0776 Y53.883
G1 X25.1195 Y53.7943
G1 X25.1545 Y53.6973
G1 X25.1807 Y53.5925
G1 X25.1956 Y53.4905
G1 X25.2005 Y53.39
G1 X25.2005 Y48.0451
G1 X25.9951 Y47.2505
G1 X28.8549 Y47.2505
G1 X31.0595 Y49.4552
G1 X31.0595 Y54.1849
G1 X26.7449 Y58.4995
G1 X24.2533 Y58.4995
G1 X24.2102 Y58.4678
G1 X24.105 Y58.4047
G1 X23.9897 Y58.35
G1 X23.8697 Y58.3067
G1 X23.746 Y58.2755
G1 X23.6199 Y58.2566
G1 X23.4925 Y58.2501
G1 X23.365 Y58.2561
G1 X23.234 Y58.2755
G1 X23.115 Y58.3053
G1 X22.9948 Y58.3481
G1 X22.875 Y58.4047
G1 X22.7698 Y58.4678
G1 X22.6672 Y58.5436
G1 X22.5691 Y58.6325
G1 X22.4867 Y58.7234
G1 X22.4105 Y58.8258
G1 X22.3447 Y58.935
G1 X22.29 Y59.0503
G1 X22.2453 Y59.175
G1 X22.2155 Y59.294
G1 X22.1966 Y59.4201
G1 X22.1901 Y59.5475
G1 X22.1961 Y59.675
G1 X22.2146 Y59.8012
G1 X22.2453 Y59.925
G1 X22.29 Y60.0497
G1 X22.3447 Y60.165
G1 X22.4105 Y60.2742
G1 X22.4867 Y60.3766
G1 X22.5725 Y60.4709
G1 X22.6634 Y60.5533
G1 X22.7658 Y60.6295
G1 X22.875 Y60.6953
G1 X22.9903 Y60.75
G1 X23.1103 Y60.7933
G1 X23.234 Y60.8245
G1 X23.3601 Y60.8434
G1 X23.4875 Y60.8499
G1 X23.615 Y60.8439
G1 X23.746 Y60.8245
G1 X23.8697 Y60.7933
G1 X23.9897 Y60.75
G1 X24.105 Y60.6953
G1 X24.2102 Y60.6322
G1 X24.2533 Y60.6005
G1 X27.18 Y60.6005
G1 X27.2854 Y60.5951
G1 X27.3873 Y60.5798
G1 X27.4826 Y60.5559
G1 X27.5797 Y60.5214
G1 X27.6773 Y60.4752
G1 X27.7616 Y60.4248
G1 X27.8445 Y60.3636
G1 X27.9228 Y60.2928
G1 X32.8528 Y55.3628
G1 X32.9204 Y55.2883
G1 X32.982 Y55.2056
G1 X33.0376 Y55.113
G1 X33.0814 Y55.0197
G1 X33.1159 Y54.9226
G1 X33.1398 Y54.8273
G1 X33.1551 Y54.7254
G1 X33.1605 Y54.62
G1 X33.1605 Y49.02
G1 X33.1551 Y48.9146
G1 X33.1398 Y48.8127
G1 X33.1159 Y48.7174
G1 X33.0814 Y48.6203
G1 X33.0352 Y48.5227
G1 X32.9848 Y48.4385
G1 X32.9236 Y48.3555
G1 X32.8528 Y48.2772
G1 X30.0328 Y45.4572
G1 X29.9583 Y45.3896
G1 X29.8756 Y45.328
G1 X29.7873 Y45.2748
G1 X29.6942 Y45.2305
G1 X29.5973 Y45.1955
G1 X29.4973 Y45.1702
G1 X29.3954 Y45.1549
G1 X29.29 Y45.1495
G1 X25.56 Y45.1495
G1 X25.4546 Y45.1549
G1 X25.3527 Y45.1702
G1 X25.2574 Y45.1941
G1 X25.1603 Y45.2286
G1 X25.0627 Y45.2748
G1 X24.9784 Y45.3252
G1 X24.8955 Y45.3865
G1 X24.819 Y45.4555
G1 X23.4055 Y46.869
G1 X23.3364 Y46.9455
G1 X23.2752 Y47.0284
G1 X23.2224 Y47.117
G1 X23.1786 Y47.2103
G1 X23.1441 Y47.3074
G1 X23.1193 Y47.4075
G1 X23.1044 Y47.5095
G1 X23.0995 Y47.61
G1 X23.0995 Y52.9549
G1 X21.6349 Y54.4195
G1 X17.1251 Y54.4195
G1 X14.8128 Y52.1072
G1 X14.7345 Y52.0364
G1 X14.6516 Y51.9752
G1 X14.563 Y51.9224
G1 X14.4697 Y51.8786
G1 X14.3726 Y51.8441
G1 X14.2725 Y51.8193
G1 X14.1705 Y51.8044
G1 X14.07 Y51.7995
G1 X10.036 Y51.7995
G1 X9.9355 Y51.8044
G1 X9.8335 Y51.8193
G1 X9.7334 Y51.8441
G1 X9.6363 Y51.8786
G1 X9.5387 Y51.9248
G1 X9.4504 Y51.978
G1 X9.3677 Y52.0396
G1 X9.2932 Y52.1072
G1 X7.4655 Y53.935
G1 X7.3964 Y54.0115
G1 X7.338 Y54.0904
G1 X7.2848 Y54.1787
G1 X7.2386 Y54.2763
G1 X7.2055 Y54.3687
G1 X7.1999 Y54.39
G1 X7.11 Y54.39
G1 X7.1051 Y54.3902
G1 X7.0955 Y54.3922
G1 X7.0909 Y54.3938
G1 X7.0822 Y54.3984
G1 X7.0746 Y54.4046
G1 X7.0713 Y54.4083
G1 X7.0659 Y54.4164
G1 X7.0622 Y54.4255
G1 X7.061 Y54.4302
G1 X7.06 Y54.44
G00 Z5.0000
(Block-name: block)
(Block-expand: 0)
(Block-enable: 1)
G0 X4.49 Y57.63
G01 F60.00
G01 Z-0.1300
G01 F120.00
G1 X4.49 Y61.63
G1 X4.4902 Y61.6349
G1 X4.4922 Y61.6445
G1 X4.4938 Y61.6491
G1 X4.4984 Y61.6578
G1 X4.5046 Y61.6654
G1 X4.5083 Y61.6687
G1 X4.5164 Y61.6741
G1 X4.5255 Y61.6778
G1 X4.5302 Y61.679
G1 X4.54 Y61.68
G1 X8.54 Y61.68
G1 X8.5498 Y61.679
G1 X8.5545 Y61.6778
G1 X8.5636 Y61.6741
G1 X8.5717 Y61.6687
G1 X8.5787 Y61.6617
G1 X8.5841 Y61.6536
G1 X8.5878 Y61.6445
G1 X8.5898 Y61.6349
G1 X8.59 Y61.63
G1 X8.59 Y60.6805
G1 X10.1504 Y60.6805
G1 X10.1794 Y60.6976
G1 X10.2948 Y60.7519
G1 X10.415 Y60.7947
G1 X10.5388 Y60.8254
G1 X10.665 Y60.8439
G1 X10.7925 Y60.8499
G1 X10.9199 Y60.8434
G1 X11.046 Y60.8245
G1 X11.165 Y60.7947
G1 X11.2852 Y60.7519
G1 X11.405 Y60.6953
G1 X11.5142 Y60.6295
G1 X11.6166 Y60.5533
G1 X11.7075 Y60.4709
G1 X11.7964 Y60.3728
G1 X11.8722 Y60.2702
G1 X11.9376 Y60.1606
G1 X11.99 Y60.0497
G1 X12.0333 Y59.9297
G1 X12.0645 Y59.806
G1 X12.0834 Y59.6799
G1 X12.0899 Y59.5525
G1 X12.0839 Y59.425
G1 X12.0654 Y59.2988
G1 X12.0347 Y59.175
G1 X11.9919 Y59.0548
G1 X11.9376 Y58.9394
G1 X11.8722 Y58.8298
G1 X11.7964 Y58.7272
G1 X11.7109 Y58.6325
G1 X11.6166 Y58.5467
G1 X11.5142 Y58.4705
G1 X11.405 Y58.4047
G1 X11.2897 Y58.35
G1 X11.1697 Y58.3067
G1 X11.0412 Y58.2746
G1 X10.915 Y58.2561
G1 X10.7925 Y58.2501
G1 X10.665 Y58.2561
G1 X10.534 Y58.2755
G1 X10.4103 Y58.3067
G1 X10.2903 Y58.35
G1 X10.1794 Y58.4024
G1 X10.0658 Y58.4705
G1 X9.9672 Y58.5436
G1 X9.9272 Y58.5795
G1 X8.59 Y58.5795
G1 X8.59 Y57.63
G1 X8.589 Y57.6202
G1 X8.5862 Y57.6109
G1 X8.5816 Y57.6022
G1 X8.5787 Y57.5983
G1 X8.5754 Y57.5946
G1 X8.5678 Y57.5884
G1 X8.5591 Y57.5838
G1 X8.5498 Y57.581
G1 X8.54 Y57.58
G1 X4.54 Y57.58
G1 X4.5302 Y57.581
G1 X4.5209 Y57.5838
G1 X4.5122 Y57.5884
G1 X4.5046 Y57.5946
G1 X4.4984 Y57.6022
G1 X4.4938 Y57.6109
G1 X4.491 Y57.6202
G1 X4.49 Y57.63
G00 Z5.0000
(Block-name: block)
(Block-expand: 0)
(Block-enable: 1)
G0 X0.08 Y61.67
G01 F60.00
G01 Z-0.1300
G01 F120.00
G1 X4.08 Y61.67
G1 X4.0898 Y61.669
G1 X4.0991 Y61.6662
G1 X4.1078 Y61.6616
G1 X4.1154 Y61.6554
G1 X4.1187 Y61.6517
G1 X4.1241 Y61.6436
G1 X4.1278 Y61.6345
G1 X4.1298 Y61.6249
G1 X4.13 Y57.62
G1 X4.129 Y57.6102
G1 X4.1262 Y57.6009
G1 X4.1216 Y57.5922
G1 X4.1154 Y57.5846
G1 X4.1117 Y57.5813
G1 X4.1036 Y57.5759
G1 X4.0945 Y57.5722
G1 X4.0898 Y57.571
G1 X4.08 Y57.57
G1 X3.1305 Y57.57
G1 X3.1305 Y53.4776
G1 X3.2209 Y53.4231
G1 X3.3786 Y53.3062
G1 X3.5313 Y53.1678
G1 X3.6662 Y53.0186
G1 X3.7831 Y52.8609
G1 X3.8867 Y52.6885
G1 X3.973 Y52.5067
G1 X4.0424 Y52.3127
G1 X4.091 Y52.1175
G1 X4.1203 Y51.9185
G1 X4.1299 Y51.7225
G1 X4.1198 Y51.5166
G1 X4.0901 Y51.3177
G1 X4.0424 Y51.1273
G1 X3.973 Y50.9333
G1 X3.8867 Y50.7515
G1 X3.7831 Y50.5791
G1 X3.6631 Y50.4176
G1 X3.5313 Y50.2722
G1 X3.3786 Y50.1338
G1 X3.2209 Y50.0169
G1 X3.1305 Y49.9624
G1 X3.1305 Y46.9928
G1 X3.2485 Y46.9367
G1 X3.4209 Y46.8331
G1 X3.5824 Y46.7131
G1 X3.7278 Y46.5813
G1 X3.8662 Y46.4286
G1 X3.9831 Y46.2709
G1 X4.0867 Y46.0985
G1 X4.1748 Y45.9122
G1 X4.2424 Y45.7227
G1 X4.2901 Y45.5323
G1 X4.3203 Y45.3285
G1 X4.3299 Y45.1275
G1 X4.3203 Y44.9315
G1 X4.291 Y44.7325
G1 X4.2424 Y44.5373
G1 X4.173 Y44.3433
G1 X4.089 Y44.1658
G1 X3.9858 Y43.9932
G1 X3.8662 Y43.8314
G1 X3.7313 Y43.6822
G1 X3.5786 Y43.5438
G1 X3.4168 Y43.4242
G1 X3.2442 Y43.321
G1 X3.0622 Y43.2352
G1 X2.8727 Y43.1676
G1 X2.6823 Y43.1199
G1 X2.4834 Y43.0902
G1 X2.2825 Y43.0801
G1 X2.0815 Y43.0897
G1 X1.8825 Y43.119
G1 X1.6873 Y43.1676
G1 X1.4978 Y43.2352
G1 X1.3158 Y43.321
G1 X1.1432 Y43.4242
G1 X0.9814 Y43.5438
G1 X0.8322 Y43.6787
G1 X0.6969 Y43.8276
G1 X0.5769 Y43.9891
G1 X0.4733 Y44.1615
G1 X0.387 Y44.3433
G1 X0.319 Y44.5326
G1 X0.2699 Y44.7277
G1 X0.2402 Y44.9266
G1 X0.2301 Y45.1325
G1 X0.2397 Y45.3285
G1 X0.269 Y45.5275
G1 X0.3176 Y45.7227
G1 X0.387 Y45.9167
G1 X0.4733 Y46.0985
G1 X0.5742 Y46.2668
G1 X0.6938 Y46.4286
G1 X0.8322 Y46.5813
G1 X0.9776 Y46.7131
G1 X1.0295 Y46.7518
G1 X1.0295 Y49.9624
G1 X0.9391 Y50.0169
G1 X0.7814 Y50.1338
G1 X0.6287 Y50.2722
G1 X0.4938 Y50.4214
G1 X0.3769 Y50.5791
G1 X0.2733 Y50.7515
G1 X0.187 Y50.9333
G1 X0.1176 Y51.1273
G1 X0.069 Y51.3225
G1 X0.0397 Y51.5215
G1 X0.0301 Y51.7175
G1 X0.0402 Y51.9234
G1 X0.0699 Y52.1223
G1 X0.1176 Y52.3127
G1 X0.187 Y52.5067
G1 X0.2733 Y52.6885
G1 X0.3769 Y52.8609
G1 X0.4969 Y53.0224
G1 X0.6287 Y53.1678
G1 X0.7814 Y53.3062
G1 X0.9391 Y53.4231
G1 X1.0295 Y53.4776
G1 X1.0295 Y57.57
G1 X0.08 Y57.57
G1 X0.0702 Y57.571
G1 X0.0609 Y57.5738
G1 X0.0522 Y57.5784
G1 X0.0483 Y57.5813
G1 X0.0446 Y57.5846
G1 X0.0384 Y57.5922
G1 X0.0338 Y57.6009
G1 X0.031 Y57.6102
G1 X0.03 Y57.62
G1 X0.03 Y61.62
G1 X0.031 Y61.6298
G1 X0.0338 Y61.6391
G1 X0.0384 Y61.6478
G1 X0.0446 Y61.6554
G1 X0.0522 Y61.6616
G1 X0.0609 Y61.6662
G1 X0.0702 Y61.669
G1 X0.08 Y61.67
G00 Z5.0000
(Block-name: block)
(Block-expand: 0)
(Block-enable: 1)
G0 X4.5376 Y48.7045
G01 F60.00
G01 Z-0.1300
G01 F120.00
G1 X4.5424 Y48.8025
G1 X4.5573 Y48.9045
G1 X4.5821 Y49.0046
G1 X4.6166 Y49.1017
G1 X4.6628 Y49.1993
G1 X4.716 Y49.2876
G1 X4.7776 Y49.3703
G1 X4.8452 Y49.4448
G1 X6.573 Y51.1725
G1 X6.6495 Y51.2416
G1 X6.7324 Y51.3028
G1 X6.821 Y51.3556
G1 X6.9097 Y51.3975
G1 X7.0067 Y51.4325
G1 X7.1115 Y51.4587
G1 X7.2135 Y51.4736
G1 X7.314 Y51.4785
G1 X12.3376 Y51.4785
G1 X12.443 Y51.4731
G1 X12.545 Y51.4578
G1 X12.6402 Y51.4339
G1 X12.7419 Y51.3975
G1 X12.835 Y51.3532
G1 X12.9192 Y51.3028
G1 X13.0021 Y51.2416
G1 X13.0804 Y51.1708
G1 X14.0328 Y50.2184
G1 X14.1036 Y50.1401
G1 X14.1648 Y50.0572
G1 X14.2176 Y49.9686
G1 X14.2595 Y49.8799
G1 X14.2945 Y49.7829
G1 X14.3198 Y49.683
G1 X14.3351 Y49.581
G1 X14.3404 Y49.4781
G1 X14.3405 Y48.9705
G1 X18.8297 Y48.9704
G1 X18.9327 Y48.9651
G1 X19.0346 Y48.9498
G1 X19.1299 Y48.9259
G1 X19.2315 Y48.8895
G1 X19.3246 Y48.8452
G1 X19.4088 Y48.7948
G1 X19.4918 Y48.7336
G1 X19.5701 Y48.6628
G1 X23.1824 Y45.0505
G1 X29.7661 Y45.0505
G1 X39.3084 Y54.5928
G1 X39.3868 Y54.6636
G1 X39.4656 Y54.722
G1 X39.5539 Y54.7752
G1 X39.647 Y54.8195
G1 X39.7487 Y54.8559
G1 X39.8439 Y54.8798
G1 X39.9459 Y54.8951
G1 X40.0513 Y54.9005
G1 X45.0467 Y54.9005
G1 X45.0898 Y54.9322
G1 X45.1994 Y54.9976
G1 X45.3103 Y55.05
G1 X45.4303 Y55.0933
G1 X45.5588 Y55.1254
G1 X45.685 Y55.1439
G1 X45.8075 Y55.1499
G1 X45.935 Y55.1439
G1 X46.0612 Y55.1254
G1 X46.185 Y55.0947
G1 X46.3052 Y55.0519
G1 X46.4206 Y54.9976
G1 X46.5302 Y54.9322
G1 X46.6328 Y54.8564
G1 X46.7234 Y54.7747
G1 X46.7762 Y54.8222
G1 X46.8394 Y54.8688
G1 X46.9069 Y54.909
G1 X46.9735 Y54.9405
G1 X47.0473 Y54.9671
G1 X47.1235 Y54.9865
G1 X47.206 Y54.9987
G1 X47.2845 Y55.0023
G1 X47.358 Y54.9987
G1 X47.4158 Y54.9904
G1 X49.0745 Y54.9904
G1 X49.7504 Y55.6663
G1 X49.7538 Y55.7309
G1 X49.7655 Y55.8085
G1 X49.7849 Y55.8847
G1 X49.8115 Y55.9585
G1 X49.8453 Y56.0294
G1 X49.8859 Y56.0967
G1 X49.9329 Y56.1596
G1 X49.9824 Y56.2142
G1 X52.044 Y58.276
G1 X52.1004 Y58.3271
G1 X52.1633 Y58.3741
G1 X52.2306 Y58.4147
G1 X52.3015 Y58.4485
G1 X52.38 Y58.4766
G1 X52.4563 Y58.4954
G1 X52.534 Y58.5067
G1 X52.6075 Y58.5103
G1 X52.8931 Y58.5104
G1 X52.9066 Y58.5249
G1 X52.9904 Y58.6005
G1 X53.0812 Y58.6675
G1 X53.1781 Y58.7253
G1 X53.2802 Y58.7733
G1 X53.3865 Y58.8111
G1 X53.4961 Y58.8383
G1 X53.6077 Y58.8546
G1 X53.7205 Y58.8599
G1 X53.8332 Y58.8542
G1 X53.9447 Y58.8374
G1 X54.0542 Y58.8097
G1 X54.1603 Y58.7715
G1 X54.2622 Y58.723
G1 X54.3589 Y58.6648
G1 X54.4494 Y58.5974
G1 X54.5294 Y58.5249
G1 X54.6054 Y58.4414
G1 X54.6728 Y58.3509
G1 X54.7333 Y58.2499
G1 X54.7795 Y58.1523
G1 X54.79 Y58.1236
G1 X57.4028 Y55.5108
G1 X57.4736 Y55.4325
G1 X57.5348 Y55.3496
G1 X57.5876 Y55.261
G1 X57.6314 Y55.1677
G1 X57.6659 Y55.0706
G1 X57.6907 Y54.9705
G1 X57.7056 Y54.8685
G1 X57.7104 Y54.7705
G1 X57.7105 Y52.5588
G1 X57.7194 Y52.5435
G1 X57.7695 Y52.4369
G1 X57.809 Y52.326
G1 X57.8364 Y52.2165
G1 X57.8544 Y52.0952
G1 X57.8599 Y51.9775
G1 X57.8544 Y51.8648
G1 X57.8364 Y51.7435
G1 X57.8076 Y51.6293
G1 X57.7677 Y51.5185
G1 X57.7194 Y51.4165
G1 X57.6591 Y51.3154
G1 X57.586 Y51.2169
G1 X57.5068 Y51.1298
G1 X57.4193 Y51.0509
G1 X57.3246 Y50.9809
G1 X57.2235 Y50.9206
G1 X57.1169 Y50.8705
G1 X57.006 Y50.831
G1 X56.8917 Y50.8026
G1 X56.7752 Y50.7856
G1 X56.6625 Y50.7801
G1 X56.5448 Y50.7856
G1 X56.4283 Y50.8026
G1 X56.314 Y50.831
G1 X56.2031 Y50.8705
G1 X56.0922 Y50.9229
G1 X55.9913 Y50.9836
G1 X55.8969 Y51.054
G1 X55.8098 Y51.1332
G1 X55.7309 Y51.2207
G1 X55.6636 Y51.3113
G1 X55.6029 Y51.4122
G1 X55.5505 Y51.5231
G1 X55.511 Y51.634
G1 X55.4826 Y51.7483
G1 X55.4656 Y51.8648
G1 X55.4601 Y51.9775
G1 X55.4661 Y52.1001
G1 X55.4836 Y52.2165
G1 X55.511 Y52.326
G1 X55.5523 Y52.4415
G1 X55.6006 Y52.5435
G1 X55.6095 Y52.5588
G1 X55.6095 Y54.3329
G1 X53.3044 Y56.638
G1 X53.2757 Y56.6485
G1 X53.1781 Y56.6947
G1 X53.0812 Y56.7525
G1 X52.9904 Y56.8195
G1 X52.9173 Y56.8854
G1 X51.3496 Y55.3177
G1 X51.3462 Y55.2531
G1 X51.3345 Y55.1755
G1 X51.3151 Y55.0993
G1 X51.2885 Y55.0255
G1 X51.2547 Y54.9546
G1 X51.2141 Y54.8873
G1 X51.1671 Y54.8244
G1 X51.1176 Y54.7698
G1 X49.9702 Y53.6224
G1 X49.9118 Y53.5698
G1 X49.8486 Y53.5232
G1 X49.7811 Y53.483
G1 X49.7145 Y53.4515
G1 X49.6407 Y53.4249
G1 X49.5597 Y53.4046
G1 X49.482 Y53.3933
G1 X49.406 Y53.3896
G1 X47.6015 Y53.3896
G1 X47.4959 Y53.284
G1 X47.4396 Y53.2329
G1 X47.3767 Y53.1859
G1 X47.3051 Y53.143
G1 X47.2385 Y53.1115
G1 X47.1647 Y53.0849
G1 X47.0837 Y53.0646
G1 X47.006 Y53.0533
G1 X46.93 Y53.0496
G1 X46.833 Y53.0496
G1 X46.8133 Y53.0234
G1 X46.7309 Y52.9325
G1 X46.6366 Y52.8467
G1 X46.5342 Y52.7705
G1 X46.425 Y52.7047
G1 X46.3097 Y52.65
G1 X46.1897 Y52.6067
G1 X46.066 Y52.5755
G1 X45.935 Y52.5561
G1 X45.8075 Y52.5501
G1 X45.685 Y52.5561
G1 X45.5588 Y52.5746
G1 X45.435 Y52.6053
G1 X45.3148 Y52.6481
G1 X45.1994 Y52.7024
G1 X45.0898 Y52.7678
G1 X45.0467 Y52.7995
G1 X40.4864 Y52.7995
G1 X30.9441 Y43.2572
G1 X30.8696 Y43.1896
G1 X30.7869 Y43.128
G1 X30.6943 Y43.0724
G1 X30.6055 Y43.0305
G1 X30.5085 Y42.9955
G1 X30.4038 Y42.9693
G1 X30.3018 Y42.9544
G1 X30.2013 Y42.9495
G1 X22.7473 Y42.9495
G1 X22.6419 Y42.9549
G1 X22.5399 Y42.9702
G1 X22.4447 Y42.9941
G1 X22.343 Y43.0305
G1 X22.2499 Y43.0748
G1 X22.1657 Y43.1252
G1 X22.0828 Y43.1864
G1 X22.0045 Y43.2572
G1 X18.3922 Y46.8695
G1 X13.7555 Y46.8695
G1 X13.7278 Y46.8567
G1 X13.6215 Y46.8189
G1 X13.5167 Y46.7926
G1 X13.4052 Y46.7758
G1 X13.2875 Y46.7701
G1 X13.1748 Y46.7758
G1 X13.0633 Y46.7926
G1 X12.9538 Y46.8203
G1 X12.8477 Y46.8585
G1 X12.7501 Y46.9047
G1 X12.6532 Y46.9625
G1 X12.5586 Y47.0326
G1 X12.4751 Y47.1086
G1 X12.3995 Y47.1924
G1 X12.3352 Y47.2791
G1 X12.277 Y47.3758
G1 X12.2285 Y47.4777
G1 X12.1903 Y47.5838
G1 X12.1626 Y47.6933
G1 X12.1454 Y47.8097
G1 X12.1401 Y47.9225
G1 X12.1458 Y48.0352
G1 X12.1626 Y48.1467
G1 X12.1903 Y48.2562
G1 X12.2267 Y48.3578
G1 X12.2395 Y48.3855
G1 X12.2395 Y49.0405
G1 X11.9025 Y49.3775
G1 X7.7491 Y49.3775
G1 X6.6385 Y48.2669
G1 X6.6385 Y15.0111
G1 X8.9128 Y12.7368
G1 X8.9835 Y12.6585
G1 X9.042 Y12.5796
G1 X9.0952 Y12.4913
G1 X9.1395 Y12.3983
G1 X9.1745 Y12.3013
G1 X9.2007 Y12.1965
G1 X9.2156 Y12.0945
G1 X9.2205 Y11.994
G1 X9.2205 Y10.2779
G1 X12.8779 Y6.6205
G1 X14.632 Y6.6205
G1 X14.7325 Y6.6156
G1 X14.8345 Y6.6007
G1 X14.9346 Y6.5759
G1 X15.0317 Y6.5414
G1 X15.125 Y6.4976
G1 X15.2176 Y6.442
G1 X15.3003 Y6.3804
G1 X15.3748 Y6.3128
G1 X17.1991 Y4.4885
G1 X26.8785 Y4.4885
G1 X27.3595 Y4.9695
G1 X27.3595 Y5.6245
G1 X27.3467 Y5.6522
G1 X27.3103 Y5.7538
G1 X27.2826 Y5.8633
G1 X27.2658 Y5.9748
G1 X27.2601 Y6.0875
G1 X27.2654 Y6.2003
G1 X27.2826 Y6.3167
G1 X27.3103 Y6.4262
G1 X27.3485 Y6.5323
G1 X27.397 Y6.6342
G1 X27.4525 Y6.7268
G1 X27.5195 Y6.8176
G1 X27.5951 Y6.9014
G1 X27.6786 Y6.9774
G1 X27.7691 Y7.0448
G1 X27.8701 Y7.1053
G1 X27.9722 Y7.1533
G1 X28.0785 Y7.1911
G1 X28.1833 Y7.2174
G1 X28.2948 Y7.2342
G1 X28.4125 Y7.2399
G1 X28.5252 Y7.2342
G1 X28.6367 Y7.2174
G1 X28.7462 Y7.1897
G1 X28.8478 Y7.1533
G1 X28.8755 Y7.1405
G1 X36.0249 Y7.1405
G1 X37.9544 Y9.07
G1 X37.929 Y9.1725
G1 X37.9002 Y9.3666
G1 X37.8901 Y9.5725
G1 X37.8997 Y9.7685
G1 X37.929 Y9.9675
G1 X37.9776 Y10.1627
G1 X38.047 Y10.3567
G1 X38.1333 Y10.5385
G1 X38.2369 Y10.7109
G1 X38.3569 Y10.8724
G1 X38.4887 Y11.0178
G1 X38.6376 Y11.1531
G1 X38.8032 Y11.2758
G1 X38.9758 Y11.379
G1 X39.1533 Y11.463
G1 X39.3426 Y11.531
G1 X39.5377 Y11.5801
G1 X39.7415 Y11.6103
G1 X39.9425 Y11.6199
G1 X40.1385 Y11.6103
G1 X40.1495 Y11.6089
G1 X40.1495 Y16.2087
G1 X40.1095 Y32.4674
G1 X40.111 Y32.5011
G1 X40.1114 Y32.5323
G1 X40.1134 Y32.5525
G1 X40.1141 Y32.5679
G1 X40.1191 Y32.6037
G1 X40.1233 Y32.6396
G1 X40.1265 Y32.6547
G1 X40.1297 Y32.6748
G1 X40.1372 Y32.7051
G1 X40.145 Y32.7404
G1 X40.1496 Y32.7551
G1 X40.1548 Y32.7748
G1 X40.1652 Y32.8042
G1 X40.1746 Y32.834
G1 X40.1824 Y32.8528
G1 X40.1895 Y32.8719
G1 X40.2027 Y32.9001
G1 X40.2151 Y32.9288
G1 X40.2247 Y32.9468
G1 X40.2335 Y32.9651
G1 X40.2495 Y32.9919
G1 X40.2646 Y33.0192
G1 X40.2759 Y33.0361
G1 X40.2865 Y33.0535
G1 X40.3051 Y33.0786
G1 X40.3227 Y33.1043
G1 X40.3356 Y33.1201
G1 X40.3479 Y33.1363
G1 X40.3688 Y33.1595
G1 X40.3906 Y33.1852
G1 X46.3128 Y39.5566
G1 X46.269 Y39.7325
G1 X46.2402 Y39.9266
G1 X46.2301 Y40.1325
G1 X46.2397 Y40.3285
G1 X46.269 Y40.5275
G1 X46.3176 Y40.7227
G1 X46.387 Y40.9167
G1 X46.4733 Y41.0985
G1 X46.5769 Y41.2709
G1 X46.6969 Y41.4324
G1 X46.8287 Y41.5778
G1 X46.9814 Y41.7162
G1 X47.1391 Y41.8331
G1 X47.3115 Y41.9367
G1 X47.4933 Y42.023
G1 X47.6873 Y42.0924
G1 X47.8825 Y42.141
G1 X48.0815 Y42.1703
G1 X48.2775 Y42.1799
G1 X48.4785 Y42.1703
G1 X48.6823 Y42.1401
G1 X48.8774 Y42.091
G1 X49.0667 Y42.023
G1 X49.2442 Y41.939
G1 X49.4168 Y41.8358
G1 X49.5824 Y41.7131
G1 X49.7313 Y41.5778
G1 X49.8631 Y41.4324
G1 X49.9831 Y41.2709
G1 X50.089 Y41.0942
G1 X50.1748 Y40.9122
G1 X50.2424 Y40.7227
G1 X50.291 Y40.5275
G1 X50.3203 Y40.3285
G1 X50.3299 Y40.1325
G1 X50.3203 Y39.9315
G1 X50.2901 Y39.7277
G1 X50.241 Y39.5326
G1 X50.173 Y39.3433
G1 X50.089 Y39.1658
G1 X49.9858 Y38.9932
G1 X49.8631 Y38.8276
G1 X49.7313 Y38.6822
G1 X49.5824 Y38.5469
G1 X49.4209 Y38.4269
G1 X49.2485 Y38.3233
G1 X49.0622 Y38.2352
G1 X48.8727 Y38.1676
G1 X48.6823 Y38.1199
G1 X48.4785 Y38.0897
G1 X48.2775 Y38.0801
G1 X48.0815 Y38.0897
G1 X47.8825 Y38.119
G1 X47.8519 Y38.1264
G1 X42.2115 Y32.0583
G1 X42.2505 Y16.2126
G1 X42.2505 Y11.606
G1 X42.2815 Y11.6103
G1 X42.4825 Y11.6199
G1 X42.6785 Y11.6103
G1 X42.8775 Y11.581
G1 X43.0774 Y11.531
G1 X43.2667 Y11.463
G1 X43.4485 Y11.3767
G1 X43.6168 Y11.2758
G1 X43.7786 Y11.1562
G1 X43.9313 Y11.0178
G1 X44.0631 Y10.8724
G1 X44.1831 Y10.7109
G1 X44.2867 Y10.5385
G1 X44.3665 Y10.3704
G1 X45.696 Y10.3704
G1 X45.772 Y10.3667
G1 X45.8545 Y10.3545
G1 X45.926 Y10.3366
G1 X46 Y10.3103
G1 X46.0754 Y10.2747
G1 X46.1386 Y10.2368
G1 X46.2018 Y10.1902
G1 X46.262 Y10.136
G1 X53.0115 Y3.3864
G1 X53.0198 Y3.3922
G1 X53.125 Y3.4553
G1 X53.2448 Y3.5119
G1 X53.365 Y3.5547
G1 X53.484 Y3.5845
G1 X53.537 Y3.5926
G1 X53.8972 Y3.9528
G1 X53.9755 Y4.0236
G1 X54.0584 Y4.0848
G1 X54.147 Y4.1376
G1 X54.2403 Y4.1814
G1 X54.3374 Y4.2159
G1 X54.4327 Y4.2398
G1 X54.5346 Y4.2551
G1 X54.6375 Y4.2604
G1 X56.1124 Y4.2605
G1 X56.1669 Y4.3509
G1 X56.2869 Y4.5124
G1 X56.4222 Y4.6613
G1 X56.5714 Y4.7962
G1 X56.7332 Y4.9158
G1 X56.9058 Y5.019
G1 X57.0878 Y5.1048
G1 X57.2773 Y5.1724
G1 X57.4725 Y5.221
G1 X57.6715 Y5.2503
G1 X57.8725 Y5.2599
G1 X58.0734 Y5.2498
G1 X58.2723 Y5.2201
G1 X58.4674 Y5.171
G1 X58.6567 Y5.103
G1 X58.8385 Y5.0167
G1 X59.0109 Y4.9131
G1 X59.1724 Y4.7931
G1 X59.3178 Y4.6613
G1 X59.4531 Y4.5124
G1 X59.5731 Y4.3509
G1 X59.679 Y4.1742
G1 X59.7648 Y3.9922
G1 X59.8324 Y3.8027
G1 X59.881 Y3.6075
G1 X59.9103 Y3.4085
G1 X59.9199 Y3.2075
G1 X59.9103 Y3.0115
G1 X59.881 Y2.8125
G1 X59.8324 Y2.6173
G1 X59.763 Y2.4233
G1 X59.6767 Y2.2415
G1 X59.5731 Y2.0691
G1 X59.4531 Y1.9076
G1 X59.3178 Y1.7587
G1 X59.1724 Y1.6269
G1 X59.0109 Y1.5069
G1 X58.8342 Y1.401
G1 X58.6522 Y1.3152
G1 X58.4627 Y1.2476
G1 X58.2675 Y1.199
G1 X58.0685 Y1.1697
G1 X57.8725 Y1.1601
G1 X57.6715 Y1.1697
G1 X57.4677 Y1.1999
G1 X57.2726 Y1.249
G1 X57.0833 Y1.317
G1 X56.9058 Y1.401
G1 X56.7332 Y1.5042
G1 X56.5676 Y1.6269
G1 X56.4187 Y1.7622
G1 X56.2838 Y1.9114
G1 X56.1669 Y2.0691
G1 X56.1124 Y2.1595
G1 X55.0751 Y2.1595
G1 X55.0226 Y2.107
G1 X55.0145 Y2.054
G1 X54.9847 Y1.935
G1 X54.9419 Y1.8148
G1 X54.8853 Y1.695
G1 X54.8195 Y1.5858
G1 X54.7433 Y1.4834
G1 X54.6609 Y1.3925
G1 X54.5666 Y1.3067
G1 X54.4642 Y1.2305
G1 X54.3506 Y1.1624
G1 X54.2352 Y1.1081
G1 X54.115 Y1.0653
G1 X53.9912 Y1.0346
G1 X53.865 Y1.0161
G1 X53.7425 Y1.0101
G1 X53.615 Y1.0161
G1 X53.484 Y1.0355
G1 X53.3603 Y1.0667
G1 X53.2403 Y1.11
G1 X53.1294 Y1.1624
G1 X53.0198 Y1.2278
G1 X52.9134 Y1.3067
G1 X52.8191 Y1.3925
G1 X52.7367 Y1.4834
G1 X52.6798 Y1.5597
G1 X52.6475 Y1.5715
G1 X52.5809 Y1.603
G1 X52.5134 Y1.6432
G1 X52.4502 Y1.6898
G1 X52.3901 Y1.744
G1 X45.3645 Y8.7696
G1 X44.3665 Y8.7696
G1 X44.2867 Y8.6015
G1 X44.1858 Y8.4332
G1 X44.0662 Y8.2714
G1 X43.9313 Y8.1222
G1 X43.7786 Y7.9838
G1 X43.6168 Y7.8642
G1 X43.4442 Y7.761
G1 X43.2667 Y7.677
G1 X43.0774 Y7.609
G1 X42.8823 Y7.5599
G1 X42.6834 Y7.5302
G1 X42.4825 Y7.5201
G1 X42.2815 Y7.5297
G1 X42.0777 Y7.5599
G1 X41.8826 Y7.609
G1 X41.6933 Y7.677
G1 X41.5115 Y7.7633
G1 X41.3432 Y7.8642
G1 X41.21 Y7.9626
G1 X41.0768 Y7.8642
G1 X40.9085 Y7.7633
G1 X40.7267 Y7.677
G1 X40.5374 Y7.609
G1 X40.3423 Y7.5599
G1 X40.1385 Y7.5297
G1 X39.9375 Y7.5201
G1 X39.7366 Y7.5302
G1 X39.5425 Y7.559
G1 X39.44 Y7.5844
G1 X37.201 Y5.3455
G1 X37.1245 Y5.2764
G1 X37.0456 Y5.218
G1 X36.9573 Y5.1648
G1 X36.8597 Y5.1186
G1 X36.7626 Y5.0841
G1 X36.6673 Y5.0602
G1 X36.5654 Y5.0449
G1 X36.46 Y5.0395
G1 X29.4605 Y5.0395
G1 X29.4604 Y4.5319
G1 X29.4551 Y4.429
G1 X29.4398 Y4.327
G1 X29.4145 Y4.2271
G1 X29.3795 Y4.1301
G1 X29.3376 Y4.0414
G1 X29.2848 Y3.9528
G1 X29.2236 Y3.8699
G1 X29.1528 Y3.7916
G1 X28.0564 Y2.6952
G1 X27.9781 Y2.6244
G1 X27.8993 Y2.566
G1 X27.811 Y2.5128
G1 X27.7134 Y2.4666
G1 X27.6162 Y2.4321
G1 X27.521 Y2.4082
G1 X27.419 Y2.3929
G1 X27.3136 Y2.3875
G1 X16.764 Y2.3875
G1 X16.6635 Y2.3924
G1 X16.5615 Y2.4073
G1 X16.4567 Y2.4335
G1 X16.3597 Y2.4685
G1 X16.271 Y2.5104
G1 X16.1824 Y2.5632
G1 X16.0957 Y2.6276
G1 X16.0212 Y2.6952
G1 X14.1969 Y4.5195
G1 X12.4427 Y4.5195
G1 X12.3373 Y4.5248
G1 X12.2354 Y4.5402
G1 X12.1401 Y4.5641
G1 X12.0385 Y4.6004
G1 X11.9497 Y4.6424
G1 X11.8612 Y4.6952
G1 X11.7744 Y4.7595
G1 X11.6999 Y4.8272
G1 X7.4272 Y9.0999
G1 X7.3564 Y9.1782
G1 X7.2979 Y9.2571
G1 X7.2447 Y9.3454
G1 X7.1986 Y9.443
G1 X7.1641 Y9.5401
G1 X7.1402 Y9.6354
G1 X7.1248 Y9.7373
G1 X7.1195 Y9.8427
G1 X7.1195 Y11.5589
G1 X4.8435 Y13.835
G1 X4.7776 Y13.9077
G1 X4.716 Y13.9904
G1 X4.6604 Y14.083
G1 X4.6185 Y14.1717
G1 X4.5835 Y14.2687
G1 X4.5573 Y14.3735
G1 X4.5424 Y14.4755
G1 X4.5375 Y14.576
G1 X4.5376 Y48.7045
G00 Z5.0000
(Block-name: block)
(Block-expand: 0)
(Block-enable: 1)
G0 X8.2125 Y49.0699
G01 F60.00
G01 Z-0.1300
G01 F120.00
G1 X8.3252 Y49.0642
G1 X8.4367 Y49.0474
G1 X8.5462 Y49.0197
G1 X8.6523 Y48.9815
G1 X8.7542 Y48.933
G1 X8.8509 Y48.8748
G1 X8.9414 Y48.8074
G1 X9.0249 Y48.7314
G1 X9.1005 Y48.6476
G1 X9.1675 Y48.5568
G1 X9.2253 Y48.4599
G1 X9.2733 Y48.3578
G1 X9.3111 Y48.2515
G1 X9.3383 Y48.1419
G1 X9.3546 Y48.0303
G1 X9.3599 Y47.9175
G1 X9.3542 Y47.8048
G1 X9.3374 Y47.6933
G1 X9.3097 Y47.5838
G1 X9.2715 Y47.4777
G1 X9.223 Y47.3758
G1 X9.1648 Y47.2791
G1 X9.0974 Y47.1886
G1 X9.0214 Y47.1051
G1 X8.9376 Y47.0295
G1 X8.8468 Y46.9625
G1 X8.7499 Y46.9047
G1 X8.6478 Y46.8567
G1 X8.5415 Y46.8189
G1 X8.4319 Y46.7917
G1 X8.3203 Y46.7754
G1 X8.2075 Y46.7701
G1 X8.0948 Y46.7758
G1 X7.9833 Y46.7926
G1 X7.8738 Y46.8203
G1 X7.7677 Y46.8585
G1 X7.6658 Y46.907
G1 X7.5691 Y46.9652
G1 X7.4786 Y47.0326
G1 X7.3951 Y47.1086
G1 X7.3195 Y47.1924
G1 X7.2525 Y47.2832
G1 X7.1947 Y47.3801
G1 X7.1467 Y47.4822
G1 X7.1089 Y47.5885
G1 X7.0817 Y47.6981
G1 X7.0654 Y47.8097
G1 X7.0601 Y47.9225
G1 X7.0658 Y48.0352
G1 X7.0826 Y48.1467
G1 X7.1103 Y48.2562
G1 X7.1485 Y48.3623
G1 X7.197 Y48.4642
G1 X7.2552 Y48.5609
G1 X7.3226 Y48.6514
G1 X7.3986 Y48.7349
G1 X7.4824 Y48.8105
G1 X7.5732 Y48.8775
G1 X7.6701 Y48.9353
G1 X7.7722 Y48.9833
G1 X7.8785 Y49.0211
G1 X7.9881 Y49.0483
G1 X8.0997 Y49.0646
G1 X8.2125 Y49.0699
G00 Z5.0000
(Block-name: block)
(Block-expand: 0)
(Block-enable: 1)
G0 X9.6995 Y47.4545
G01 F60.00
G01 Z-0.1300
G01 F120.00
G1 X9.6867 Y47.4822
G1 X9.6489 Y47.5885
G1 X9.6226 Y47.6933
G1 X9.6058 Y47.8048
G1 X9.6001 Y47.9225
G1 X9.6054 Y48.0303
G1 X9.6217 Y48.1419
G1 X9.6503 Y48.2562
G1 X9.6885 Y48.3623
G1 X9.7347 Y48.4599
G1 X9.7952 Y48.5609
G1 X9.8626 Y48.6514
G1 X9.9351 Y48.7314
G1 X10.0224 Y48.8105
G1 X10.1091 Y48.8748
G1 X10.2058 Y48.933
G1 X10.3122 Y48.9833
G1 X10.4185 Y49.0211
G1 X10.5233 Y49.0474
G1 X10.6397 Y49.0646
G1 X10.7525 Y49.0699
G1 X10.8603 Y49.0646
G1 X10.9719 Y49.0483
G1 X11.0815 Y49.0211
G1 X11.1923 Y48.9815
G1 X11.2942 Y48.933
G1 X11.3868 Y48.8775
G1 X11.4776 Y48.8105
G1 X11.5614 Y48.7349
G1 X11.6374 Y48.6514
G1 X11.7048 Y48.5609
G1 X11.7653 Y48.4599
G1 X11.8133 Y48.3578
G1 X11.8511 Y48.2515
G1 X11.8774 Y48.1467
G1 X11.8942 Y48.0352
G1 X11.8999 Y47.9175
G1 X11.8942 Y47.8048
G1 X11.8774 Y47.6933
G1 X11.8497 Y47.5838
G1 X11.8133 Y47.4822
G1 X11.8005 Y47.4545
G1 X11.8005 Y46.7995
G1 X13.7255 Y44.8745
G1 X19.812 Y44.8745
G1 X19.9125 Y44.8696
G1 X20.0145 Y44.8547
G1 X20.1193 Y44.8285
G1 X20.2163 Y44.7935
G1 X20.305 Y44.7516
G1 X20.3936 Y44.6988
G1 X20.4765 Y44.6376
G1 X20.553 Y44.5685
G1 X23.5491 Y41.5725
G1 X34.7029 Y41.5725
G1 X41.5295 Y48.3991
G1 X41.5295 Y49.21
G1 X41.5349 Y49.3154
G1 X41.5502 Y49.4173
G1 X41.5755 Y49.5173
G1 X41.6105 Y49.6143
G1 X41.6524 Y49.703
G1 X41.7052 Y49.7916
G1 X41.7664 Y49.8745
G1 X41.8372 Y49.9528
G1 X43.5872 Y51.7028
G1 X43.6655 Y51.7736
G1 X43.7444 Y51.832
G1 X43.8327 Y51.8852
G1 X43.9303 Y51.9314
G1 X44.0274 Y51.9659
G1 X44.1227 Y51.9898
G1 X44.2295 Y52.0056
G1 X44.33 Y52.0105
G1 X47.6149 Y52.0105
G1 X47.84 Y52.2356
G1 X47.84 Y53.13
G1 X47.8402 Y53.1349
G1 X47.8422 Y53.1445
G1 X47.8459 Y53.1536
G1 X47.8484 Y53.1578
G1 X47.8546 Y53.1654
G1 X47.8583 Y53.1687
G1 X47.8664 Y53.1741
G1 X47.8709 Y53.1762
G1 X47.8802 Y53.179
G1 X47.89 Y53.18
G1 X50.19 Y53.18
G1 X50.1998 Y53.179
G1 X50.2091 Y53.1762
G1 X50.2136 Y53.1741
G1 X50.2217 Y53.1687
G1 X50.2287 Y53.1617
G1 X50.2341 Y53.1536
G1 X50.2378 Y53.1445
G1 X50.2398 Y53.1349
G1 X50.24 Y50.83
G1 X50.239 Y50.8202
G1 X50.2362 Y50.8109
G1 X50.2316 Y50.8022
G1 X50.2254 Y50.7946
G1 X50.2178 Y50.7884
G1 X50.2091 Y50.7838
G1 X50.1998 Y50.781
G1 X50.19 Y50.78
G1 X49.3556 Y50.78
G1 X48.7928 Y50.2172
G1 X48.7145 Y50.1464
G1 X48.6316 Y50.0852
G1 X48.543 Y50.0324
G1 X48.4543 Y49.9905
G1 X48.3526 Y49.9541
G1 X48.2525 Y49.9293
G1 X48.1505 Y49.9144
G1 X48.05 Y49.9095
G1 X44.7651 Y49.9095
G1 X43.6305 Y48.7749
G1 X43.6305 Y47.964
G1 X43.6256 Y47.8635
G1 X43.6107 Y47.7615
G1 X43.5845 Y47.6567
G1 X43.5495 Y47.5597
G1 X43.5076 Y47.471
G1 X43.4548 Y47.3824
G1 X43.3904 Y47.2957
G1 X43.3228 Y47.2212
G1 X35.8808 Y39.7792
G1 X35.8025 Y39.7084
G1 X35.7236 Y39.65
G1 X35.6353 Y39.5968
G1 X35.5423 Y39.5525
G1 X35.4406 Y39.5161
G1 X35.3453 Y39.4922
G1 X35.2434 Y39.4769
G1 X35.138 Y39.4715
G1 X23.114 Y39.4715
G1 X23.0135 Y39.4764
G1 X22.9115 Y39.4913
G1 X22.8067 Y39.5175
G1 X22.7097 Y39.5525
G1 X22.621 Y39.5944
G1 X22.5284 Y39.65
G1 X22.4457 Y39.7116
G1 X22.373 Y39.7775
G1 X19.3769 Y42.7735
G1 X13.8705 Y42.7735
G1 X13.8705 Y12.9958
G1 X13.8749 Y12.9915
G1 X13.9573 Y12.9006
G1 X14.0335 Y12.7982
G1 X14.0993 Y12.689
G1 X14.154 Y12.5737
G1 X14.1973 Y12.4537
G1 X14.2285 Y12.33
G1 X14.2479 Y12.199
G1 X14.2539 Y12.0715
G1 X14.2474 Y11.9441
G1 X14.2285 Y11.818
G1 X14.1987 Y11.699
G1 X14.1559 Y11.5788
G1 X14.1016 Y11.4634
G1 X14.0362 Y11.3538
G1 X13.9604 Y11.2512
G1 X13.8749 Y11.1565
G1 X13.7806 Y11.0707
G1 X13.6782 Y10.9945
G1 X13.569 Y10.9287
G1 X13.4537 Y10.874
G1 X13.329 Y10.8293
G1 X13.2052 Y10.7986
G1 X13.079 Y10.7801
G1 X12.9515 Y10.7741
G1 X12.8241 Y10.7806
G1 X12.698 Y10.7995
G1 X12.5743 Y10.8307
G1 X12.4543 Y10.874
G1 X12.3434 Y10.9264
G1 X12.2338 Y10.9918
G1 X12.1312 Y11.0676
G1 X12.0365 Y11.1531
G1 X11.9507 Y11.2474
G1 X11.8745 Y11.3498
G1 X11.8087 Y11.459
G1 X11.754 Y11.5743
G1 X11.7107 Y11.6943
G1 X11.6795 Y11.818
G1 X11.6606 Y11.9441
G1 X11.6541 Y12.0715
G1 X11.6601 Y12.199
G1 X11.6795 Y12.33
G1 X11.7107 Y12.4537
G1 X11.7521 Y12.5692
G1 X11.7695 Y12.6066
G1 X11.7695 Y43.8592
G1 X10.0072 Y45.6216
G1 X9.9364 Y45.6999
G1 X9.878 Y45.7787
G1 X9.8248 Y45.867
G1 X9.7805 Y45.9601
G1 X9.7455 Y46.0571
G1 X9.7193 Y46.1618
G1 X9.7044 Y46.2638
G1 X9.6995 Y46.3644
G1 X9.6995 Y47.4545
G00 Z5.0000
(Block-name: block)
(Block-expand: 0)
(Block-enable: 1)
G0 X71.9899 Y25.0575
G01 F60.00
G01 Z-0.1300
G01 F120.00
G1 X71.9822 Y24.9056
G1 X71.9597 Y24.7552
G1 X71.9225 Y24.6077
G1 X71.871 Y24.4646
G1 X71.8058 Y24.3272
G1 X71.7274 Y24.1969
G1 X71.6366 Y24.0748
G1 X71.5342 Y23.9623
G1 X71.4214 Y23.8603
G1 X71.2991 Y23.7699
G1 X71.1685 Y23.6919
G1 X71.0309 Y23.6271
G1 X70.8876 Y23.5761
G1 X70.74 Y23.5394
G1 X70.5895 Y23.5173
G1 X70.4375 Y23.5101
G1 X70.2856 Y23.5178
G1 X70.1352 Y23.5403
G1 X69.9877 Y23.5775
G1 X69.8446 Y23.629
G1 X69.7072 Y23.6942
G1 X69.5769 Y23.7726
G1 X69.4548 Y23.8634
G1 X69.3423 Y23.9658
G1 X69.2403 Y24.0786
G1 X69.1499 Y24.2009
G1 X69.0719 Y24.3315
G1 X69.0071 Y24.4691
G1 X68.9561 Y24.6124
G1 X68.9194 Y24.76
G1 X68.8973 Y24.9105
G1 X68.8901 Y25.0625
G1 X68.8978 Y25.2144
G1 X68.9203 Y25.3648
G1 X68.9575 Y25.5123
G1 X69.009 Y25.6554
G1 X69.0742 Y25.7928
G1 X69.1526 Y25.9231
G1 X69.2434 Y26.0452
G1 X69.3458 Y26.1577
G1 X69.4586 Y26.2597
G1 X69.5809 Y26.3501
G1 X69.7115 Y26.4281
G1 X69.8491 Y26.4929
G1 X69.9924 Y26.5439
G1 X70.14 Y26.5806
G1 X70.2905 Y26.6027
G1 X70.4425 Y26.6099
G1 X70.5944 Y26.6022
G1 X70.7448 Y26.5797
G1 X70.8923 Y26.5425
G1 X71.0354 Y26.491
G1 X71.1728 Y26.4258
G1 X71.3031 Y26.3474
G1 X71.4252 Y26.2566
G1 X71.5377 Y26.1542
G1 X71.6397 Y26.0414
G1 X71.7301 Y25.9191
G1 X71.8081 Y25.7885
G1 X71.8729 Y25.6509
G1 X71.9239 Y25.5076
G1 X71.9606 Y25.36
G1 X71.9827 Y25.2095
G1 X71.9899 Y25.0575
G00 Z5.0000
(Block-name: block)
(Block-expand: 0)
(Block-enable: 1)
M05
G00 Z5.0000
G00 Z15.00
(Block-name: block)
(Block-expand: 0)
(Block-enable: 1)
G0 X0 Y-0

(Block-name: Header)
(Block-expand: 0)
(Block-enable: 1)
(G-CODE GENERATED BY FLATCAM v8.991 - www.flatcam.org - Version Date: 2019/12/27)

(Name: big_roaster_oil)
(Type: G-code from Excellon)
(Units: MM)

(Created on неделя, 11 април 2021 at 12:45)

(Feedrate: 50.0 mm/min)
(Feedrate rapids 1500.0 mm/min)

(Z_Cut: -1.7 mm)
(Z_Move: 10.0 mm)
(Z Toolchange: 20.0 mm)
(X,Y Toolchange: 0.0000, 0.0000 mm)
(Z Start: None mm)
(Z End: 10.5 mm)
(Steps per circle: 64)
(Preprocessor Excellon: default)

(X range:    1.4800 ...   70.9800  mm)
(Y range:  -60.2300 ...   -1.2900  mm)

(Spindle Speed: 10000.0 RPM)
G21
G90
G94




G01 F50.00

M5
G00 Z20.0000
(Block-name: block)
(Block-expand: 0)
(Block-enable: 1)
T1
G0 X0 Y-0
M6
(MSG, Change to Tool Dia = 0.6000 ||| Total drills for tool T1 = 21)
M0
G00 Z20.0000

M03 S10000.0
G0 X32.08 Y1.74
G01 Z-1.7000
G01 Z0
G00 Z10.0000
(Block-name: block)
(Block-expand: 0)
(Block-enable: 1)
G0 X32.08 Y11.9
G01 Z-1.7000
G01 Z0
G00 Z10.0000
(Block-name: block)
(Block-expand: 0)
(Block-enable: 1)
G0 X35.29 Y13.7
G01 Z-1.7000
G01 Z0
G00 Z10.0000
(Block-name: block)
(Block-expand: 0)
(Block-enable: 1)
G0 X45.05 Y6.96
G01 Z-1.7000
G01 Z0
G00 Z10.0000
(Block-name: block)
(Block-expand: 0)
(Block-enable: 1)
G0 X43.58 Y2.31
G01 Z-1.7000
G01 Z0
G00 Z10.0000
(Block-name: block)
(Block-expand: 0)
(Block-enable: 1)
G0 X53.74 Y2.31
G01 Z-1.7000
G01 Z0
G00 Z10.0000
(Block-name: block)
(Block-expand: 0)
(Block-enable: 1)
G0 X55.21 Y6.96
G01 Z-1.7000
G01 Z0
G00 Z10.0000
(Block-name: block)
(Block-expand: 0)
(Block-enable: 1)
G0 X47.99 Y13.7
G01 Z-1.7000
G01 Z0
G00 Z10.0000
(Block-name: block)
(Block-expand: 0)
(Block-enable: 1)
G0 X51.7 Y34.53
G01 Z-1.7000
G01 Z0
G00 Z10.0000
(Block-name: block)
(Block-expand: 0)
(Block-enable: 1)
G0 X62.748 Y54.58
G01 Z-1.7000
G01 Z0
G00 Z10.0000
(Block-name: block)
(Block-expand: 0)
(Block-enable: 1)
G0 X63.878 Y57.71
G01 Z-1.7000
G01 Z0
G00 Z10.0000
(Block-name: block)
(Block-expand: 0)
(Block-enable: 1)
G0 X53.718 Y57.71
G01 Z-1.7000
G01 Z0
G00 Z10.0000
(Block-name: block)
(Block-expand: 0)
(Block-enable: 1)
G0 X52.588 Y54.58
G01 Z-1.7000
G01 Z0
G00 Z10.0000
(Block-name: block)
(Block-expand: 0)
(Block-enable: 1)
G0 X40.13 Y49.14
G01 Z-1.7000
G01 Z0
G00 Z10.0000
(Block-name: block)
(Block-expand: 0)
(Block-enable: 1)
G0 X27.43 Y49.14
G01 Z-1.7000
G01 Z0
G00 Z10.0000
(Block-name: block)
(Block-expand: 0)
(Block-enable: 1)
G0 X23.49 Y59.55
G01 Z-1.7000
G01 Z0
G00 Z10.0000
(Block-name: block)
(Block-expand: 0)
(Block-enable: 1)
G0 X10.79 Y59.55
G01 Z-1.7000
G01 Z0
G00 Z10.0000
(Block-name: block)
(Block-expand: 0)
(Block-enable: 1)
G0 X9.5 Y14.29
G01 Z-1.7000
G01 Z0
G00 Z10.0000
(Block-name: block)
(Block-expand: 0)
(Block-enable: 1)
G0 X12.954 Y12.074
G01 Z-1.7000
G01 Z0
G00 Z10.0000
(Block-name: block)
(Block-expand: 0)
(Block-enable: 1)
G0 X9.5 Y1.59
G01 Z-1.7000
G01 Z0
G00 Z10.0000
(Block-name: block)
(Block-expand: 0)
(Block-enable: 1)
G0 X12.954 Y1.914
G01 Z-1.7000
G01 Z0
G00 Z10.0000
(Block-name: block)
(Block-expand: 0)
(Block-enable: 1)

M5
G00 Z20.0000
(Block-name: block)
(Block-expand: 0)
(Block-enable: 1)
T2
G0 X0 Y-0
M6
(MSG, Change to Tool Dia = 0.8000 ||| Total drills for tool T2 = 23)
M0
G00 Z20.0000

M03 S10000.0
G0 X8.21 Y47.92
G01 Z-1.7000
G01 Z0
G00 Z10.0000
(Block-name: block)
(Block-expand: 0)
(Block-enable: 1)
G0 X10.75 Y47.92
G01 Z-1.7000
G01 Z0
G00 Z10.0000
(Block-name: block)
(Block-expand: 0)
(Block-enable: 1)
G0 X13.29 Y47.92
G01 Z-1.7000
G01 Z0
G00 Z10.0000
(Block-name: block)
(Block-expand: 0)
(Block-enable: 1)
G0 X23.33 Y13.71
G01 Z-1.7000
G01 Z0
G00 Z10.0000
(Block-name: block)
(Block-expand: 0)
(Block-enable: 1)
G0 X25.87 Y13.71
G01 Z-1.7000
G01 Z0
G00 Z10.0000
(Block-name: block)
(Block-expand: 0)
(Block-enable: 1)
G0 X28.41 Y13.71
G01 Z-1.7000
G01 Z0
G00 Z10.0000
(Block-name: block)
(Block-expand: 0)
(Block-enable: 1)
G0 X23.33 Y6.09
G01 Z-1.7000
G01 Z0
G00 Z10.0000
(Block-name: block)
(Block-expand: 0)
(Block-enable: 1)
G0 X25.87 Y6.09
G01 Z-1.7000
G01 Z0
G00 Z10.0000
(Block-name: block)
(Block-expand: 0)
(Block-enable: 1)
G0 X28.41 Y6.09
G01 Z-1.7000
G01 Z0
G00 Z10.0000
(Block-name: block)
(Block-expand: 0)
(Block-enable: 1)
G0 X39.94 Y9.57
G01 Z-1.7000
G01 Z0
G00 Z10.0000
(Block-name: block)
(Block-expand: 0)
(Block-enable: 1)
G0 X42.48 Y9.57
G01 Z-1.7000
G01 Z0
G00 Z10.0000
(Block-name: block)
(Block-expand: 0)
(Block-enable: 1)
G0 X51.7 Y24.37
G01 Z-1.7000
G01 Z0
G00 Z10.0000
(Block-name: block)
(Block-expand: 0)
(Block-enable: 1)
G0 X56.66 Y51.98
G01 Z-1.7000
G01 Z0
G00 Z10.0000
(Block-name: block)
(Block-expand: 0)
(Block-enable: 1)
G0 X54.12 Y51.98
G01 Z-1.7000
G01 Z0
G00 Z10.0000
(Block-name: block)
(Block-expand: 0)
(Block-enable: 1)
G0 X51.58 Y51.98
G01 Z-1.7000
G01 Z0
G00 Z10.0000
(Block-name: block)
(Block-expand: 0)
(Block-enable: 1)
G0 X49.04 Y51.98
G01 Z-1.7000
G01 Z0
G00 Z10.0000
(Block-name: block)
(Block-expand: 0)
(Block-enable: 1)
G0 X45.81 Y53.85
G01 Z-1.7000
G01 Z0
G00 Z10.0000
(Block-name: block)
(Block-expand: 0)
(Block-enable: 1)
G0 X48.35 Y56.39
G01 Z-1.7000
G01 Z0
G00 Z10.0000
(Block-name: block)
(Block-expand: 0)
(Block-enable: 1)
G0 X45.81 Y58.93
G01 Z-1.7000
G01 Z0
G00 Z10.0000
(Block-name: block)
(Block-expand: 0)
(Block-enable: 1)
G0 X19.34 Y52.33
G01 Z-1.7000
G01 Z0
G00 Z10.0000
(Block-name: block)
(Block-expand: 0)
(Block-enable: 1)
G0 X13.29 Y55.54
G01 Z-1.7000
G01 Z0
G00 Z10.0000
(Block-name: block)
(Block-expand: 0)
(Block-enable: 1)
G0 X10.75 Y55.54
G01 Z-1.7000
G01 Z0
G00 Z10.0000
(Block-name: block)
(Block-expand: 0)
(Block-enable: 1)
G0 X8.21 Y55.54
G01 Z-1.7000
G01 Z0
G00 Z10.0000
(Block-name: block)
(Block-expand: 0)
(Block-enable: 1)

M5
G00 Z20.0000
(Block-name: block)
(Block-expand: 0)
(Block-enable: 1)
T3
G0 X0 Y-0
M6
(MSG, Change to Tool Dia = 1.0000 ||| Total drills for tool T3 = 7)
M0
G00 Z20.0000

M03 S10000.0
G0 X70.12 Y19.52
G01 Z-1.7000
G01 Z0
G00 Z10.0000
(Block-name: block)
(Block-expand: 0)
(Block-enable: 1)
G0 X70.44 Y25.06
G01 Z-1.7000
G01 Z0
G00 Z10.0000
(Block-name: block)
(Block-expand: 0)
(Block-enable: 1)
G0 X70.44 Y37.06
G01 Z-1.7000
G01 Z0
G00 Z10.0000
(Block-name: block)
(Block-expand: 0)
(Block-enable: 1)
G0 X70.12 Y47.6
G01 Z-1.7000
G01 Z0
G00 Z10.0000
(Block-name: block)
(Block-expand: 0)
(Block-enable: 1)
G0 X58.14 Y37.06
G01 Z-1.7000
G01 Z0
G00 Z10.0000
(Block-name: block)
(Block-expand: 0)
(Block-enable: 1)
G0 X56.14 Y31.06
G01 Z-1.7000
G01 Z0
G00 Z10.0000
(Block-name: block)
(Block-expand: 0)
(Block-enable: 1)
G0 X58.14 Y25.06
G01 Z-1.7000
G01 Z0
G00 Z10.0000
(Block-name: block)
(Block-expand: 0)
(Block-enable: 1)

M5
G00 Z20.0000
(Block-name: block)
(Block-expand: 0)
(Block-enable: 1)
T4
G0 X0 Y-0
M6
(MSG, Change to Tool Dia = 1.2000 ||| Total drills for tool T4 = 16)
M0
G00 Z20.0000

M03 S10000.0
G0 X2.08 Y51.72
G01 Z-1.7000
G01 Z0
G00 Z10.0000
(Block-name: block)
(Block-expand: 0)
(Block-enable: 1)
G0 X2.28 Y45.13
G01 Z-1.7000
G01 Z0
G00 Z10.0000
(Block-name: block)
(Block-expand: 0)
(Block-enable: 1)
G0 X2.28 Y40.13
G01 Z-1.7000
G01 Z0
G00 Z10.0000
(Block-name: block)
(Block-expand: 0)
(Block-enable: 1)
G0 X2.28 Y14.1
G01 Z-1.7000
G01 Z0
G00 Z10.0000
(Block-name: block)
(Block-expand: 0)
(Block-enable: 1)
G0 X4.83 Y8.772
G01 Z-1.7000
G01 Z0
G00 Z10.0000
(Block-name: block)
(Block-expand: 0)
(Block-enable: 1)
G0 X2.5 Y2.54
G01 Z-1.7000
G01 Z0
G00 Z10.0000
(Block-name: block)
(Block-expand: 0)
(Block-enable: 1)
G0 X57.87 Y3.21
G01 Z-1.7000
G01 Z0
G00 Z10.0000
(Block-name: block)
(Block-expand: 0)
(Block-enable: 1)
G0 X62.95 Y3.21
G01 Z-1.7000
G01 Z0
G00 Z10.0000
(Block-name: block)
(Block-expand: 0)
(Block-enable: 1)
G0 X70.12 Y14.44
G01 Z-1.7000
G01 Z0
G00 Z10.0000
(Block-name: block)
(Block-expand: 0)
(Block-enable: 1)
G0 X70.12 Y42.52
G01 Z-1.7000
G01 Z0
G00 Z10.0000
(Block-name: block)
(Block-expand: 0)
(Block-enable: 1)
G0 X63.99 Y42.67
G01 Z-1.7000
G01 Z0
G00 Z10.0000
(Block-name: block)
(Block-expand: 0)
(Block-enable: 1)
G0 X64.04 Y50.58
G01 Z-1.7000
G01 Z0
G00 Z10.0000
(Block-name: block)
(Block-expand: 0)
(Block-enable: 1)
G0 X48.28 Y40.13
G01 Z-1.7000
G01 Z0
G00 Z10.0000
(Block-name: block)
(Block-expand: 0)
(Block-enable: 1)
G0 X48.28 Y45.13
G01 Z-1.7000
G01 Z0
G00 Z10.0000
(Block-name: block)
(Block-expand: 0)
(Block-enable: 1)
G0 X6.54 Y59.63
G01 Z-1.7000
G01 Z0
G00 Z10.0000
(Block-name: block)
(Block-expand: 0)
(Block-enable: 1)
G0 X2.08 Y59.62
G01 Z-1.7000
G01 Z0
G00 Z10.0000
(Block-name: block)
(Block-expand: 0)
(Block-enable: 1)

M5
G00 Z20.0000
(Block-name: block)
(Block-expand: 0)
(Block-enable: 1)
T5
G0 X0 Y-0
M6
(MSG, Change to Tool Dia = 3.0000 ||| Total drills for tool T5 = 2)
M0
G00 Z20.0000

M03 S10000.0
G0 X54.88 Y47.49
G01 Z-1.7000
G01 Z0
G00 Z10.0000
(Block-name: block)
(Block-expand: 0)
(Block-enable: 1)
G0 X55.76 Y13.76
G01 Z-1.7000
G01 Z0
G00 Z10.0000
(Block-name: block)
(Block-expand: 0)
(Block-enable: 1)

M5
G00 Z20.0000
(Block-name: block)
(Block-expand: 0)
(Block-enable: 1)
T6
G0 X0 Y-0
M6
(MSG, Change to Tool Dia = 3.2000 ||| Total drills for tool T6 = 4)
M0
G00 Z20.0000

M03 S10000.0
G0 X17.24 Y39.38
G01 Z-1.7000
G01 Z0
G00 Z10.0000
(Block-name: block)
(Block-expand: 0)
(Block-enable: 1)
G0 X17.28 Y11.3
G01 Z-1.7000
G01 Z0
G00 Z10.0000
(Block-name: block)
(Block-expand: 0)
(Block-enable: 1)
G0 X69.38 Y6.32
G01 Z-1.7000
G01 Z0
G00 Z10.0000
(Block-name: block)
(Block-expand: 0)
(Block-enable: 1)
G0 X68.05 Y54.57
G01 Z-1.7000
G01 Z0
G00 Z10.0000
(Block-name: block)
(Block-expand: 0)
(Block-enable: 1)
M05
G00 Z10.50
(Block-name: block)
(Block-expand: 0)
(Block-enable: 1)
G0 X0 Y-0

(Block-name: Header)
(Block-expand: 0)
(Block-enable: 1)
(G-CODE GENERATED BY FLATCAM v8.991 - www.flatcam.org - Version Date: 2019/12/27)

(Name: big_roaster_oil-B_Cu)
(Type: G-code from Geometry)
(Units: MM)

(Created on неделя, 11 април 2021 at 12:49)

(TOOL DIAMETER: 2.0 mm)
(Feedrate: 60.0 mm/min)
(Feedrate_Z: 60.0 mm/min)
(Feedrate rapids 1500.0 mm/min)

(Z_Cut: -1.2 mm)
(DepthPerCut: 0.6 mm <=>2 passes)
(Z_Move: 5.0 mm)
(Z Toolchange: 20.0 mm)
(X,Y Toolchange: 0.0000, 0.0000 mm)
(Z Start: None mm)
(Z End: 15.0 mm)
(Steps per circle: 64)
(Preprocessor Geometry: default)

(X range:   -0.9200 ...   75.7055  mm)
(Y range:  -62.7752 ...    0.6600  mm)

(Spindle Speed: 10000 RPM)
G21
G90
G94




G01 F60.00

M5
G00 Z20.0000
(Block-name: block)
(Block-expand: 0)
(Block-enable: 1)
G0 X0 Y-0
T1
M6    
(MSG, Change to Tool Dia = 2.0000)
M0
G00 Z20.0000

M03 S10000
G0 X-0.92 Y29.0576
G01 F60.00
G01 Z-0.6000
G01 F60.00
G1 X-0.92 Y0.34
G1 X-0.9152 Y0.242
G1 X-0.9008 Y0.1449
G1 X-0.8769 Y0.0497
G1 X-0.8439 Y-0.0427
G1 X-0.8019 Y-0.1314
G1 X-0.7515 Y-0.2156
G1 X-0.693 Y-0.2944
G1 X-0.6271 Y-0.3671
G1 X-0.5544 Y-0.433
G1 X-0.4756 Y-0.4915
G1 X-0.3914 Y-0.5419
G1 X-0.3027 Y-0.5839
G1 X-0.2103 Y-0.6169
G1 X-0.1151 Y-0.6408
G1 X-0.018 Y-0.6552
G1 X0.08 Y-0.66
G1 X35.3927 Y-0.66
G0 X35.3927 Y-0.66
G01 F60.00
G01 Z-1.2000
G01 F60.00
G1 X0.08 Y-0.66
G1 X-0.018 Y-0.6552
G1 X-0.1151 Y-0.6408
G1 X-0.2103 Y-0.6169
G1 X-0.3027 Y-0.5839
G1 X-0.3914 Y-0.5419
G1 X-0.4756 Y-0.4915
G1 X-0.5544 Y-0.433
G1 X-0.6271 Y-0.3671
G1 X-0.693 Y-0.2944
G1 X-0.7515 Y-0.2156
G1 X-0.8019 Y-0.1314
G1 X-0.8439 Y-0.0427
G1 X-0.8769 Y0.0497
G1 X-0.9008 Y0.1449
G1 X-0.9152 Y0.242
G1 X-0.92 Y0.34
G1 X-0.92 Y29.0576
G00 Z5.0000
(Block-name: block)
(Block-expand: 0)
(Block-enable: 1)
G0 X-0.92 Y33.0576
G01 F60.00
G01 Z-0.6000
G01 F60.00
G1 X-0.92 Y61.7752
G1 X-0.9152 Y61.8733
