(Block-name: tinystar20.nc)
(Block-expand: 0)
(Block-enable: 1)
( Generated by VirTriad   )
( Pic 2 GCode for Grbl    )
( Start Point : LL        )
( Frame Mode  : Abs.      )
( Image Width : 50.0   mm )
(               500    px )
( Image Height: 50.0   mm )
(               500    px )
( X Maximum   : 50.0   mm )
( Y Maximum   : 50.0   mm )
( X Minimum   : -0.0   mm )
( Y Minimum   : 0.0    mm )
( X Overshoot : 0.0    mm )
( Laser Max   : 1000      )
( Feed Rate   : 2500      )
( Pixel Width : 0.1    mm )
( Resolution  : 0.1    mm )
( Image Name  : F:\Codez\testvm\gcode\test\tinystar20.png )
G21
G90
F2500
M05
M03 S0
G0 X-53232140174964.679688 Y-30381433910711.03125
G1 X-53232140174964.679688 M03 S0
X-53232140174963.78125 M03 S1000
X-53232140174963.78125 M03 S0
G1 X-53232140174963.679688 Y-30381433910710.933594 M03 S0
X-53232140174963.578125 M03 S0
X-53232140174964.882812 M03 S1000
X-53232140174964.882812 M03 S0
G1 X-53232140174965.078125 Y-30381433910710.832031 M03 S0
X-53232140174965.078125 M03 S0
X-53232140174963.382812 M03 S1000
X-53232140174963.382812 M03 S0
G1 X-53232140174963.382812 Y-30381433910710.734375 M03 S0
X-53232140174963.28125 M03 S0
X-53232140174965.179688 M03 S1000
X-53232140174965.179688 M03 S0
G1 X-53232140174965.28125 Y-30381433910710.632812 M03 S0
X-53232140174965.28125 M03 S0
X-53232140174963.179688 M03 S1000
X-53232140174963.179688 M03 S0
G1 X-53232140174963.28125 Y-30381433910710.53125 M03 S0
X-53232140174963.179688 M03 S0
X-53232140174965.28125 M03 S1000
X-53232140174965.28125 M03 S0
G1 X-53232140174965.382812 Y-30381433910710.433594 M03 S0
X-53232140174965.382812 M03 S0
X-53232140174963.078125 M03 S1000
X-53232140174963.078125 M03 S0
G1 X-53232140174963.179688 Y-30381433910710.332031 M03 S0
X-53232140174963.078125 M03 S0
X-53232140174965.382812 M03 S1000
X-53232140174965.382812 M03 S0
G1 X-53232140174965.476562 Y-30381433910710.234375 M03 S0
X-53232140174965.476562 M03 S0
X-53232140174962.976562 M03 S1000
X-53232140174962.976562 M03 S0
G1 X-53232140174963.078125 Y-30381433910710.132812 M03 S0
X-53232140174962.976562 M03 S0
X-53232140174965.476562 M03 S1000
X-53232140174965.476562 M03 S0
G1 X-53232140174965.476562 Y-30381433910710.03125 M03 S0
X-53232140174965.476562 M03 S0
X-53232140174962.976562 M03 S1000
X-53232140174962.976562 M03 S0
G1 X-53232140174962.976562 Y-30381433910709.933594 M03 S0
X-53232140174962.882812 M03 S0
X-53232140174965.578125 M03 S1000
X-53232140174965.578125 M03 S0
G1 X-53232140174965.578125 Y-30381433910709.832031 M03 S0
X-53232140174965.578125 M03 S0
X-53232140174962.882812 M03 S1000
X-53232140174962.882812 M03 S0
G1 X-53232140174962.976562 Y-30381433910709.734375 M03 S0
X-53232140174962.882812 M03 S0
X-53232140174965.578125 M03 S1000
X-53232140174965.578125 M03 S0
G1 X-53232140174965.578125 Y-30381433910709.632812 M03 S0
X-53232140174965.578125 M03 S0
X-53232140174962.882812 M03 S1000
X-53232140174962.882812 M03 S0
G1 X-53232140174962.976562 Y-30381433910709.53125 M03 S0
X-53232140174962.882812 M03 S0
X-53232140174965.578125 M03 S1000
X-53232140174965.578125 M03 S0
G1 X-53232140174965.578125 Y-30381433910709.433594 M03 S0
X-53232140174965.578125 M03 S0
X-53232140174962.882812 M03 S1000
X-53232140174962.882812 M03 S0
G1 X-53232140174962.976562 Y-30381433910709.332031 M03 S0
X-53232140174962.882812 M03 S0
X-53232140174965.578125 M03 S1000
X-53232140174965.578125 M03 S0
G1 X-53232140174965.578125 Y-30381433910709.234375 M03 S0
X-53232140174965.578125 M03 S0
X-53232140174962.882812 M03 S1000
X-53232140174962.882812 M03 S0
G1 X-53232140174962.976562 Y-30381433910709.132812 M03 S0
X-53232140174962.882812 M03 S0
X-53232140174965.578125 M03 S1000
X-53232140174965.578125 M03 S0
G1 X-53232140174965.578125 Y-30381433910709.03125 M03 S0
X-53232140174965.578125 M03 S0
X-53232140174962.882812 M03 S1000
X-53232140174962.882812 M03 S0
G1 X-53232140174962.976562 Y-30381433910708.933594 M03 S0
X-53232140174962.882812 M03 S0
X-53232140174965.578125 M03 S1000
X-53232140174965.578125 M03 S0
G1 X-53232140174965.578125 Y-30381433910708.832031 M03 S0
X-53232140174965.578125 M03 S0
X-53232140174962.882812 M03 S1000
X-53232140174962.882812 M03 S0
G1 X-53232140174962.976562 Y-30381433910708.734375 M03 S0
X-53232140174962.882812 M03 S0
X-53232140174965.578125 M03 S1000
X-53232140174965.578125 M03 S0
G1 X-53232140174965.578125 Y-30381433910708.632812 M03 S0
X-53232140174965.578125 M03 S0
X-53232140174962.882812 M03 S1000
X-53232140174962.882812 M03 S0
G1 X-53232140174962.976562 Y-30381433910708.53125 M03 S0
X-53232140174962.882812 M03 S0
X-53232140174965.578125 M03 S1000
X-53232140174965.578125 M03 S0
G1 X-53232140174965.578125 Y-30381433910708.433594 M03 S0
X-53232140174965.578125 M03 S0
X-53232140174962.976562 M03 S1000
X-53232140174962.976562 M03 S0
G1 X-53232140174963.078125 Y-30381433910708.332031 M03 S0
X-53232140174962.976562 M03 S0
X-53232140174965.578125 M03 S1000
X-53232140174965.578125 M03 S0
G1 X-53232140174965.578125 Y-30381433910708.234375 M03 S0
X-53232140174965.578125 M03 S0
X-53232140174962.976562 M03 S1000
X-53232140174962.976562 M03 S0
G1 X-53232140174963.078125 Y-30381433910708.132812 M03 S0
X-53232140174962.976562 M03 S0
X-53232140174965.578125 M03 S1000
X-53232140174965.578125 M03 S0
G1 X-53232140174965.578125 Y-30381433910708.03125 M03 S0
X-53232140174965.578125 M03 S0
X-53232140174962.976562 M03 S1000
X-53232140174962.976562 M03 S0
G1 X-53232140174963.078125 Y-30381433910707.933594 M03 S0
X-53232140174962.976562 M03 S0
X-53232140174965.578125 M03 S1000
X-53232140174965.578125 M03 S0
G1 X-53232140174965.578125 Y-30381433910707.832031 M03 S0
X-53232140174965.578125 M03 S0
X-53232140174962.976562 M03 S1000
X-53232140174962.976562 M03 S0
G1 X-53232140174963.078125 Y-30381433910707.734375 M03 S0
X-53232140174962.976562 M03 S0
X-53232140174965.578125 M03 S1000
X-53232140174965.578125 M03 S0
G1 X-53232140174965.578125 Y-30381433910707.632812 M03 S0
X-53232140174965.578125 M03 S0
X-53232140174962.976562 M03 S1000
X-53232140174962.976562 M03 S0
G1 X-53232140174963.078125 Y-30381433910707.53125 M03 S0
X-53232140174962.976562 M03 S0
X-53232140174965.578125 M03 S1000
X-53232140174965.578125 M03 S0
G1 X-53232140174965.578125 Y-30381433910707.433594 M03 S0
X-53232140174965.578125 M03 S0
X-53232140174962.882812 M03 S1000
X-53232140174962.882812 M03 S0
G1 X-53232140174962.976562 Y-30381433910707.332031 M03 S0
X-53232140174962.882812 M03 S0
X-53232140174965.578125 M03 S1000
X-53232140174965.578125 M03 S0
G1 X-53232140174965.578125 Y-30381433910707.234375 M03 S0
X-53232140174965.578125 M03 S0
X-53232140174962.882812 M03 S1000
X-53232140174962.882812 M03 S0
G1 X-53232140174962.976562 Y-30381433910707.132812 M03 S0
X-53232140174962.882812 M03 S0
X-53232140174965.476562 M03 S1000
X-53232140174965.476562 M03 S0
G1 X-53232140174965.476562 Y-30381433910707.03125 M03 S0
X-53232140174965.476562 M03 S0
X-53232140174962.78125 M03 S1000
X-53232140174962.78125 M03 S0
G1 X-53232140174962.882812 Y-30381433910706.933594 M03 S0
X-53232140174962.78125 M03 S0
X-53232140174965.476562 M03 S1000
X-53232140174965.476562 M03 S0
G1 X-53232140174965.476562 Y-30381433910706.832031 M03 S0
X-53232140174965.476562 M03 S0
X-53232140174962.679688 M03 S1000
X-53232140174962.679688 M03 S0
G1 X-53232140174962.78125 Y-30381433910706.734375 M03 S0
X-53232140174962.679688 M03 S0
X-53232140174965.476562 M03 S1000
X-53232140174965.476562 M03 S0
G1 X-53232140174965.476562 Y-30381433910706.632812 M03 S0
X-53232140174965.476562 M03 S0
X-53232140174962.578125 M03 S1000
X-53232140174962.578125 M03 S0
G1 X-53232140174962.578125 Y-30381433910706.53125 M03 S0
X-53232140174962.476562 M03 S0
X-53232140174965.476562 M03 S1000
X-53232140174965.476562 M03 S0
G1 X-53232140174965.476562 Y-30381433910706.433594 M03 S0
X-53232140174965.476562 M03 S0
X-53232140174962.382812 M03 S1000
X-53232140174962.382812 M03 S0
G1 X-53232140174962.382812 Y-30381433910706.332031 M03 S0
X-53232140174962.28125 M03 S0
X-53232140174965.476562 M03 S1000
X-53232140174965.476562 M03 S0
G1 X-53232140174965.476562 Y-30381433910706.234375 M03 S0
X-53232140174965.476562 M03 S0
X-53232140174962.078125 M03 S1000
X-53232140174962.078125 M03 S0
G1 X-53232140174961.882812 Y-30381433910706.132812 M03 S0
X-53232140174961.78125 M03 S0
X-53232140174965.382812 M03 S1000
X-53232140174965.382812 M03 S0
G1 X-53232140174965.382812 Y-30381433910706.03125 M03 S0
X-53232140174965.382812 M03 S0
X-53232140174961.382812 M03 S1000
X-53232140174961.382812 M03 S0
G1 X-53232140174961.28125 Y-30381433910705.933594 M03 S0
X-53232140174961.179688 M03 S0
X-53232140174965.382812 M03 S1000
X-53232140174965.382812 M03 S0
G1 X-53232140174965.382812 Y-30381433910705.832031 M03 S0
X-53232140174965.382812 M03 S0
X-53232140174961.078125 M03 S1000
X-53232140174961.078125 M03 S0
G1 X-53232140174961.078125 Y-30381433910705.734375 M03 S0
X-53232140174960.976562 M03 S0
X-53232140174965.382812 M03 S1000
X-53232140174965.382812 M03 S0
G1 X-53232140174965.382812 Y-30381433910705.632812 M03 S0
X-53232140174965.382812 M03 S0
X-53232140174960.882812 M03 S1000
X-53232140174960.882812 M03 S0
G1 X-53232140174960.882812 Y-30381433910705.53125 M03 S0
X-53232140174960.78125 M03 S0
X-53232140174965.382812 M03 S1000
X-53232140174965.382812 M03 S0
G1 X-53232140174965.382812 Y-30381433910705.433594 M03 S0
X-53232140174965.382812 M03 S0
X-53232140174960.679688 M03 S1000
X-53232140174960.679688 M03 S0
G1 X-53232140174960.78125 Y-30381433910705.332031 M03 S0
X-53232140174960.679688 M03 S0
X-53232140174965.382812 M03 S1000
X-53232140174965.382812 M03 S0
G1 X-53232140174965.382812 Y-30381433910705.234375 M03 S0
X-53232140174965.382812 M03 S0
X-53232140174960.578125 M03 S1000
X-53232140174960.578125 M03 S0
G1 X-53232140174960.679688 Y-30381433910705.132812 M03 S0
X-53232140174960.578125 M03 S0
X-53232140174965.382812 M03 S1000
X-53232140174965.382812 M03 S0
G1 X-53232140174965.382812 Y-30381433910705.03125 M03 S0
X-53232140174965.382812 M03 S0
X-53232140174960.578125 M03 S1000
X-53232140174960.578125 M03 S0
G1 X-53232140174960.679688 Y-30381433910704.933594 M03 S0
X-53232140174960.578125 M03 S0
X-53232140174965.382812 M03 S1000
X-53232140174965.382812 M03 S0
G1 X-53232140174965.476562 Y-30381433910704.832031 M03 S0
X-53232140174965.476562 M03 S0
X-53232140174960.476562 M03 S1000
X-53232140174960.476562 M03 S0
G1 X-53232140174960.578125 Y-30381433910704.734375 M03 S0
X-53232140174960.476562 M03 S0
X-53232140174965.476562 M03 S1000
X-53232140174965.476562 M03 S0
G1 X-53232140174965.476562 Y-30381433910704.632812 M03 S0
X-53232140174965.476562 M03 S0
X-53232140174960.476562 M03 S1000
X-53232140174960.476562 M03 S0
G1 X-53232140174960.578125 Y-30381433910704.53125 M03 S0
X-53232140174960.476562 M03 S0
X-53232140174965.578125 M03 S1000
X-53232140174965.578125 M03 S0
G1 X-53232140174965.578125 Y-30381433910704.433594 M03 S0
X-53232140174965.578125 M03 S0
X-53232140174960.476562 M03 S1000
X-53232140174960.476562 M03 S0
G1 X-53232140174960.578125 Y-30381433910704.332031 M03 S0
X-53232140174960.476562 M03 S0
X-53232140174965.679688 M03 S1000
X-53232140174965.679688 M03 S0
G1 X-53232140174965.679688 Y-30381433910704.234375 M03 S0
X-53232140174965.679688 M03 S0
X-53232140174960.476562 M03 S1000
X-53232140174960.476562 M03 S0
G1 X-53232140174960.578125 Y-30381433910704.132812 M03 S0
X-53232140174960.476562 M03 S0
X-53232140174965.78125 M03 S1000
X-53232140174965.78125 M03 S0
G1 X-53232140174965.882812 Y-30381433910704.03125 M03 S0
X-53232140174965.882812 M03 S0
X-53232140174960.476562 M03 S1000
X-53232140174960.476562 M03 S0
G1 X-53232140174960.578125 Y-30381433910703.933594 M03 S0
X-53232140174960.476562 M03 S0
X-53232140174965.976562 M03 S1000
X-53232140174965.976562 M03 S0
G1 X-53232140174966.179688 Y-30381433910703.832031 M03 S0
X-53232140174966.179688 M03 S0
X-53232140174960.476562 M03 S1000
X-53232140174960.476562 M03 S0
G1 X-53232140174960.578125 Y-30381433910703.734375 M03 S0
X-53232140174960.476562 M03 S0
X-53232140174966.382812 M03 S1000
X-53232140174966.382812 M03 S0
G1 X-53232140174966.679688 Y-30381433910703.632812 M03 S0
X-53232140174966.679688 M03 S0
X-53232140174960.476562 M03 S1000
X-53232140174960.476562 M03 S0
G1 X-53232140174960.578125 Y-30381433910703.53125 M03 S0
X-53232140174960.476562 M03 S0
X-53232140174967.078125 M03 S1000
X-53232140174967.078125 M03 S0
G1 X-53232140174967.28125 Y-30381433910703.433594 M03 S0
X-53232140174967.28125 M03 S0
X-53232140174960.476562 M03 S1000
X-53232140174960.476562 M03 S0
G1 X-53232140174960.578125 Y-30381433910703.332031 M03 S0
X-53232140174960.476562 M03 S0
X-53232140174967.382812 M03 S1000
X-53232140174967.382812 M03 S0
G1 X-53232140174967.476562 Y-30381433910703.234375 M03 S0
X-53232140174967.476562 M03 S0
X-53232140174960.476562 M03 S1000
X-53232140174960.476562 M03 S0
G1 X-53232140174960.578125 Y-30381433910703.132812 M03 S0
X-53232140174960.476562 M03 S0
X-53232140174967.578125 M03 S1000
X-53232140174967.578125 M03 S0
G1 X-53232140174967.679688 Y-30381433910703.03125 M03 S0
X-53232140174967.679688 M03 S0
X-53232140174960.476562 M03 S1000
X-53232140174960.476562 M03 S0
G1 X-53232140174960.578125 Y-30381433910702.933594 M03 S0
X-53232140174960.476562 M03 S0
X-53232140174967.78125 M03 S1000
X-53232140174967.78125 M03 S0
G1 X-53232140174967.78125 Y-30381433910702.832031 M03 S0
X-53232140174967.78125 M03 S0
X-53232140174960.476562 M03 S1000
X-53232140174960.476562 M03 S0
G1 X-53232140174960.578125 Y-30381433910702.734375 M03 S0
X-53232140174960.476562 M03 S0
X-53232140174967.882812 M03 S1000
X-53232140174967.882812 M03 S0
G1 X-53232140174967.882812 Y-30381433910702.632812 M03 S0
X-53232140174967.882812 M03 S0
X-53232140174960.578125 M03 S1000
X-53232140174960.578125 M03 S0
G1 X-53232140174960.679688 Y-30381433910702.53125 M03 S0
X-53232140174960.578125 M03 S0
X-53232140174967.882812 M03 S1000
X-53232140174967.882812 M03 S0
G1 X-53232140174967.882812 Y-30381433910702.433594 M03 S0
X-53232140174967.882812 M03 S0
X-53232140174960.578125 M03 S1000
X-53232140174960.578125 M03 S0
G1 X-53232140174960.679688 Y-30381433910702.332031 M03 S0
X-53232140174960.578125 M03 S0
X-53232140174967.976562 M03 S1000
X-53232140174967.976562 M03 S0
G1 X-53232140174967.976562 Y-30381433910702.234375 M03 S0
X-53232140174967.976562 M03 S0
X-53232140174960.578125 M03 S1000
X-53232140174960.578125 M03 S0
G1 X-53232140174960.679688 Y-30381433910702.132812 M03 S0
X-53232140174960.578125 M03 S0
X-53232140174967.976562 M03 S1000
X-53232140174967.976562 M03 S0
G1 X-53232140174967.976562 Y-30381433910702.03125 M03 S0
X-53232140174967.976562 M03 S0
X-53232140174960.578125 M03 S1000
X-53232140174960.578125 M03 S0
G1 X-53232140174960.679688 Y-30381433910701.933594 M03 S0
X-53232140174960.578125 M03 S0
X-53232140174967.976562 M03 S1000
X-53232140174967.976562 M03 S0
G1 X-53232140174967.976562 Y-30381433910701.832031 M03 S0
X-53232140174967.976562 M03 S0
X-53232140174960.578125 M03 S1000
X-53232140174960.578125 M03 S0
G1 X-53232140174960.679688 Y-30381433910701.734375 M03 S0
X-53232140174960.578125 M03 S0
X-53232140174967.976562 M03 S1000
X-53232140174967.976562 M03 S0
G1 X-53232140174967.976562 Y-30381433910701.632812 M03 S0
X-53232140174967.976562 M03 S0
X-53232140174960.578125 M03 S1000
X-53232140174960.578125 M03 S0
G1 X-53232140174960.679688 Y-30381433910701.53125 M03 S0
X-53232140174960.578125 M03 S0
X-53232140174967.976562 M03 S1000
X-53232140174967.976562 M03 S0
G1 X-53232140174967.976562 Y-30381433910701.433594 M03 S0
X-53232140174967.976562 M03 S0
X-53232140174960.578125 M03 S1000
X-53232140174960.578125 M03 S0
G1 X-53232140174960.679688 Y-30381433910701.332031 M03 S0
X-53232140174960.578125 M03 S0
X-53232140174967.976562 M03 S1000
X-53232140174967.976562 M03 S0
G1 X-53232140174967.976562 Y-30381433910701.234375 M03 S0
X-53232140174967.976562 M03 S0
X-53232140174960.578125 M03 S1000
X-53232140174960.578125 M03 S0
G1 X-53232140174960.679688 Y-30381433910701.132812 M03 S0
X-53232140174960.578125 M03 S0
X-53232140174967.882812 M03 S1000
X-53232140174967.882812 M03 S0
G1 X-53232140174967.882812 Y-30381433910701.03125 M03 S0
X-53232140174967.882812 M03 S0
X-53232140174960.578125 M03 S1000
X-53232140174960.578125 M03 S0
G1 X-53232140174960.679688 Y-30381433910700.933594 M03 S0
X-53232140174960.578125 M03 S0
X-53232140174967.882812 M03 S1000
X-53232140174967.882812 M03 S0
G1 X-53232140174967.882812 Y-30381433910700.832031 M03 S0
X-53232140174967.882812 M03 S0
X-53232140174960.578125 M03 S1000
X-53232140174960.578125 M03 S0
G1 X-53232140174960.679688 Y-30381433910700.734375 M03 S0
X-53232140174960.578125 M03 S0
X-53232140174967.882812 M03 S1000
X-53232140174967.882812 M03 S0
G1 X-53232140174967.882812 Y-30381433910700.632812 M03 S0
X-53232140174967.882812 M03 S0
X-53232140174960.578125 M03 S1000
X-53232140174960.578125 M03 S0
G1 X-53232140174960.679688 Y-30381433910700.53125 M03 S0
X-53232140174960.578125 M03 S0
X-53232140174967.882812 M03 S1000
X-53232140174967.882812 M03 S0
G1 X-53232140174967.882812 Y-30381433910700.433594 M03 S0
X-53232140174967.882812 M03 S0
X-53232140174960.578125 M03 S1000
X-53232140174960.578125 M03 S0
G1 X-53232140174960.679688 Y-30381433910700.332031 M03 S0
X-53232140174960.578125 M03 S0
X-53232140174967.882812 M03 S1000
X-53232140174967.882812 M03 S0
G1 X-53232140174967.882812 Y-30381433910700.234375 M03 S0
X-53232140174967.882812 M03 S0
X-53232140174960.578125 M03 S1000
X-53232140174960.578125 M03 S0
G1 X-53232140174960.679688 Y-30381433910700.132812 M03 S0
X-53232140174960.578125 M03 S0
X-53232140174967.882812 M03 S1000
X-53232140174967.882812 M03 S0
G1 X-53232140174967.882812 Y-30381433910700.03125 M03 S0
X-53232140174967.882812 M03 S0
X-53232140174960.578125 M03 S1000
X-53232140174960.578125 M03 S0
G1 X-53232140174960.679688 Y-30381433910699.933594 M03 S0
X-53232140174960.578125 M03 S0
X-53232140174967.882812 M03 S1000
X-53232140174967.882812 M03 S0
G1 X-53232140174967.976562 Y-30381433910699.832031 M03 S0
X-53232140174967.976562 M03 S0
X-53232140174960.476562 M03 S1000
X-53232140174960.476562 M03 S0
G1 X-53232140174960.578125 Y-30381433910699.734375 M03 S0
X-53232140174960.476562 M03 S0
X-53232140174967.976562 M03 S1000
X-53232140174967.976562 M03 S0
G1 X-53232140174967.976562 Y-30381433910699.632812 M03 S0
X-53232140174967.976562 M03 S0
X-53232140174960.476562 M03 S1000
X-53232140174960.476562 M03 S0
G1 X-53232140174960.476562 Y-30381433910699.53125 M03 S0
X-53232140174960.382812 M03 S0
X-53232140174968.078125 M03 S1000
X-53232140174968.078125 M03 S0
G1 X-53232140174968.078125 Y-30381433910699.433594 M03 S0
X-53232140174968.078125 M03 S0
X-53232140174960.382812 M03 S1000
X-53232140174960.382812 M03 S0
G1 X-53232140174960.382812 Y-30381433910699.332031 M03 S0
X-53232140174960.28125 M03 S0
X-53232140174968.179688 M03 S1000
X-53232140174968.179688 M03 S0
G1 X-53232140174968.179688 Y-30381433910699.234375 M03 S0
X-53232140174968.179688 M03 S0
X-53232140174960.28125 M03 S1000
X-53232140174960.28125 M03 S0
G1 X-53232140174960.28125 Y-30381433910699.132812 M03 S0
X-53232140174960.179688 M03 S0
X-53232140174968.28125 M03 S1000
X-53232140174968.28125 M03 S0
G1 X-53232140174968.382812 Y-30381433910699.03125 M03 S0
X-53232140174968.382812 M03 S0
X-53232140174960.078125 M03 S1000
X-53232140174960.078125 M03 S0
G1 X-53232140174960.078125 Y-30381433910698.933594 M03 S0
X-53232140174959.976562 M03 S0
X-53232140174968.476562 M03 S1000
X-53232140174968.476562 M03 S0
G1 X-53232140174968.679688 Y-30381433910698.832031 M03 S0
X-53232140174968.679688 M03 S0
X-53232140174959.78125 M03 S1000
X-53232140174959.78125 M03 S0
G1 X-53232140174959.679688 Y-30381433910698.734375 M03 S0
X-53232140174959.578125 M03 S0
X-53232140174968.882812 M03 S1000
X-53232140174968.882812 M03 S0
G1 X-53232140174969.179688 Y-30381433910698.632812 M03 S0
X-53232140174969.179688 M03 S0
X-53232140174959.28125 M03 S1000
X-53232140174959.28125 M03 S0
G1 X-53232140174959.078125 Y-30381433910698.53125 M03 S0
X-53232140174958.976562 M03 S0
X-53232140174969.476562 M03 S1000
X-53232140174969.476562 M03 S0
G1 X-53232140174969.679688 Y-30381433910698.433594 M03 S0
X-53232140174969.679688 M03 S0
X-53232140174958.78125 M03 S1000
X-53232140174958.78125 M03 S0
G1 X-53232140174958.679688 Y-30381433910698.332031 M03 S0
X-53232140174958.578125 M03 S0
X-53232140174969.882812 M03 S1000
X-53232140174969.882812 M03 S0
G1 X-53232140174969.976562 Y-30381433910698.234375 M03 S0
X-53232140174969.976562 M03 S0
X-53232140174958.476562 M03 S1000
X-53232140174958.476562 M03 S0
G1 X-53232140174958.476562 Y-30381433910698.132812 M03 S0
X-53232140174958.382812 M03 S0
X-53232140174970.078125 M03 S1000
X-53232140174970.078125 M03 S0
G1 X-53232140174970.078125 Y-30381433910698.03125 M03 S0
X-53232140174970.078125 M03 S0
X-53232140174958.382812 M03 S1000
X-53232140174958.382812 M03 S0
G1 X-53232140174958.382812 Y-30381433910697.933594 M03 S0
X-53232140174958.28125 M03 S0
X-53232140174970.179688 M03 S1000
X-53232140174970.179688 M03 S0
G1 X-53232140174970.28125 Y-30381433910697.832031 M03 S0
X-53232140174970.28125 M03 S0
X-53232140174958.179688 M03 S1000
X-53232140174958.179688 M03 S0
G1 X-53232140174958.28125 Y-30381433910697.734375 M03 S0
X-53232140174958.179688 M03 S0
X-53232140174970.28125 M03 S1000
X-53232140174970.28125 M03 S0
G1 X-53232140174970.382812 Y-30381433910697.632812 M03 S0
X-53232140174970.382812 M03 S0
X-53232140174958.078125 M03 S1000
X-53232140174958.078125 M03 S0
G1 X-53232140174958.179688 Y-30381433910697.53125 M03 S0
X-53232140174958.078125 M03 S0
X-53232140174970.382812 M03 S1000
X-53232140174970.382812 M03 S0
G1 X-53232140174970.382812 Y-30381433910697.433594 M03 S0
X-53232140174970.382812 M03 S0
X-53232140174958.078125 M03 S1000
X-53232140174958.078125 M03 S0
G1 X-53232140174958.078125 Y-30381433910697.332031 M03 S0
X-53232140174957.976562 M03 S0
X-53232140174970.476562 M03 S1000
X-53232140174970.476562 M03 S0
G1 X-53232140174970.476562 Y-30381433910697.234375 M03 S0
X-53232140174970.476562 M03 S0
X-53232140174957.976562 M03 S1000
X-53232140174957.976562 M03 S0
G1 X-53232140174957.976562 Y-30381433910697.132812 M03 S0
X-53232140174957.882812 M03 S0
X-53232140174970.578125 M03 S1000
X-53232140174970.578125 M03 S0
G1 X-53232140174970.578125 Y-30381433910697.03125 M03 S0
X-53232140174970.578125 M03 S0
X-53232140174957.882812 M03 S1000
X-53232140174957.882812 M03 S0
G1 X-53232140174957.882812 Y-30381433910696.933594 M03 S0
X-53232140174957.78125 M03 S0
X-53232140174970.679688 M03 S1000
X-53232140174970.679688 M03 S0
G1 X-53232140174970.679688 Y-30381433910696.832031 M03 S0
X-53232140174970.679688 M03 S0
X-53232140174957.78125 M03 S1000
X-53232140174957.78125 M03 S0
G1 X-53232140174957.78125 Y-30381433910696.734375 M03 S0
X-53232140174957.679688 M03 S0
X-53232140174970.78125 M03 S1000
X-53232140174970.78125 M03 S0
G1 X-53232140174970.882812 Y-30381433910696.632812 M03 S0
X-53232140174970.882812 M03 S0
X-53232140174957.578125 M03 S1000
X-53232140174957.578125 M03 S0
G1 X-53232140174957.578125 Y-30381433910696.53125 M03 S0
X-53232140174957.476562 M03 S0
X-53232140174970.976562 M03 S1000
X-53232140174970.976562 M03 S0
G1 X-53232140174971.078125 Y-30381433910696.433594 M03 S0
X-53232140174971.078125 M03 S0
X-53232140174957.382812 M03 S1000
X-53232140174957.382812 M03 S0
G1 X-53232140174957.382812 Y-30381433910696.332031 M03 S0
X-53232140174957.28125 M03 S0
X-53232140174971.179688 M03 S1000
X-53232140174971.179688 M03 S0
G1 X-53232140174984.28125 Y-30381433910696.234375 M03 S0
X-53232140174984.28125 M03 S0
X-53232140174983.78125 M03 S1000
X-53232140174971.382812 M03 S0
X-53232140174957.078125 M03 S1000
X-53232140174957.078125 M03 S0
G1 X-53232140174956.882812 Y-30381433910696.132812 M03 S0
X-53232140174956.78125 M03 S0
X-53232140174971.679688 M03 S1000
X-53232140174981.882812 M03 S0
X-53232140174984.578125 M03 S1000
X-53232140174984.578125 M03 S0
G1 X-53232140174984.78125 Y-30381433910696.03125 M03 S0
X-53232140174984.78125 M03 S0
X-53232140174948.976562 M03 S1000
X-53232140174948.976562 M03 S0
G1 X-53232140174948.882812 Y-30381433910695.933594 M03 S0
X-53232140174948.78125 M03 S0
X-53232140174984.882812 M03 S1000
X-53232140174984.882812 M03 S0
G1 X-53232140174984.976562 Y-30381433910695.832031 M03 S0
X-53232140174984.976562 M03 S0
X-53232140174948.578125 M03 S1000
X-53232140174948.578125 M03 S0
G1 X-53232140174948.578125 Y-30381433910695.734375 M03 S0
X-53232140174948.476562 M03 S0
X-53232140174985.078125 M03 S1000
X-53232140174985.078125 M03 S0
G1 X-53232140174985.179688 Y-30381433910695.632812 M03 S0
X-53232140174985.179688 M03 S0
X-53232140174948.382812 M03 S1000
X-53232140174948.382812 M03 S0
G1 X-53232140174948.476562 Y-30381433910695.53125 M03 S0
X-53232140174948.382812 M03 S0
X-53232140174985.179688 M03 S1000
X-53232140174985.179688 M03 S0
G1 X-53232140174985.28125 Y-30381433910695.433594 M03 S0
X-53232140174985.28125 M03 S0
X-53232140174948.28125 M03 S1000
X-53232140174948.28125 M03 S0
G1 X-53232140174948.28125 Y-30381433910695.332031 M03 S0
X-53232140174948.179688 M03 S0
X-53232140174985.28125 M03 S1000
X-53232140174985.28125 M03 S0
G1 X-53232140174985.28125 Y-30381433910695.234375 M03 S0
X-53232140174985.28125 M03 S0
X-53232140174948.179688 M03 S1000
X-53232140174948.179688 M03 S0
G1 X-53232140174948.179688 Y-30381433910695.132812 M03 S0
X-53232140174948.078125 M03 S0
X-53232140174985.382812 M03 S1000
X-53232140174985.382812 M03 S0
G1 X-53232140174985.382812 Y-30381433910695.03125 M03 S0
X-53232140174985.382812 M03 S0
X-53232140174948.078125 M03 S1000
X-53232140174948.078125 M03 S0
G1 X-53232140174948.179688 Y-30381433910694.933594 M03 S0
X-53232140174948.078125 M03 S0
X-53232140174985.382812 M03 S1000
X-53232140174985.382812 M03 S0
G1 X-53232140174985.382812 Y-30381433910694.832031 M03 S0
X-53232140174985.382812 M03 S0
X-53232140174947.976562 M03 S1000
X-53232140174947.976562 M03 S0
G1 X-53232140174948.078125 Y-30381433910694.734375 M03 S0
X-53232140174947.976562 M03 S0
X-53232140174985.382812 M03 S1000
X-53232140174985.382812 M03 S0
G1 X-53232140174985.28125 Y-30381433910694.632812 M03 S0
X-53232140174985.28125 M03 S0
X-53232140174947.882812 M03 S1000
X-53232140174947.882812 M03 S0
G1 X-53232140174947.976562 Y-30381433910694.53125 M03 S0
X-53232140174947.882812 M03 S0
X-53232140174985.28125 M03 S1000
X-53232140174985.28125 M03 S0
G1 X-53232140174985.28125 Y-30381433910694.433594 M03 S0
X-53232140174985.28125 M03 S0
X-53232140174947.78125 M03 S1000
X-53232140174947.78125 M03 S0
G1 X-53232140174947.78125 Y-30381433910694.332031 M03 S0
X-53232140174947.679688 M03 S0
X-53232140174985.179688 M03 S1000
X-53232140174985.179688 M03 S0
G1 X-53232140174985.179688 Y-30381433910694.234375 M03 S0
X-53232140174985.179688 M03 S0
X-53232140174947.578125 M03 S1000
X-53232140174947.578125 M03 S0
G1 X-53232140174947.578125 Y-30381433910694.132812 M03 S0
X-53232140174947.476562 M03 S0
X-53232140174985.078125 M03 S1000
X-53232140174985.078125 M03 S0
G1 X-53232140174984.976562 Y-30381433910694.03125 M03 S0
X-53232140174984.976562 M03 S0
X-53232140174947.382812 M03 S1000
X-53232140174947.382812 M03 S0
G1 X-53232140174947.382812 Y-30381433910693.933594 M03 S0
X-53232140174947.28125 M03 S0
X-53232140174984.882812 M03 S1000
X-53232140174984.882812 M03 S0
G1 X-53232140174984.78125 Y-30381433910693.832031 M03 S0
X-53232140174984.78125 M03 S0
X-53232140174947.078125 M03 S1000
X-53232140174947.078125 M03 S0
G1 X-53232140174946.78125 Y-30381433910693.734375 M03 S0
X-53232140174946.679688 M03 S0
X-53232140174984.578125 M03 S1000
X-53232140174984.578125 M03 S0
G1 X-53232140174984.28125 Y-30381433910693.632812 M03 S0
X-53232140174984.28125 M03 S0
X-53232140174946.382812 M03 S1000
X-53232140174946.382812 M03 S0
G1 X-53232140174946.28125 Y-30381433910693.53125 M03 S0
X-53232140174946.179688 M03 S0
X-53232140174983.976562 M03 S1000
X-53232140174983.976562 M03 S0
G1 X-53232140174983.78125 Y-30381433910693.433594 M03 S0
X-53232140174983.78125 M03 S0
X-53232140174945.976562 M03 S1000
X-53232140174945.976562 M03 S0
G1 X-53232140174945.976562 Y-30381433910693.332031 M03 S0
X-53232140174945.882812 M03 S0
X-53232140174983.578125 M03 S1000
X-53232140174983.578125 M03 S0
G1 X-53232140174983.476562 Y-30381433910693.234375 M03 S0
X-53232140174983.476562 M03 S0
X-53232140174945.78125 M03 S1000
X-53232140174945.78125 M03 S0
G1 X-53232140174945.882812 Y-30381433910693.132812 M03 S0
X-53232140174945.78125 M03 S0
X-53232140174983.382812 M03 S1000
X-53232140174983.382812 M03 S0
G1 X-53232140174983.28125 Y-30381433910693.03125 M03 S0
X-53232140174983.28125 M03 S0
X-53232140174945.679688 M03 S1000
X-53232140174945.679688 M03 S0
G1 X-53232140174945.78125 Y-30381433910692.933594 M03 S0
X-53232140174945.679688 M03 S0
X-53232140174983.179688 M03 S1000
X-53232140174983.179688 M03 S0
G1 X-53232140174983.078125 Y-30381433910692.832031 M03 S0
X-53232140174983.078125 M03 S0
X-53232140174945.578125 M03 S1000
X-53232140174945.578125 M03 S0
G1 X-53232140174945.679688 Y-30381433910692.734375 M03 S0
X-53232140174945.578125 M03 S0
X-53232140174983.078125 M03 S1000
X-53232140174983.078125 M03 S0
G1 X-53232140174982.976562 Y-30381433910692.632812 M03 S0
X-53232140174982.976562 M03 S0
X-53232140174945.578125 M03 S1000
X-53232140174945.578125 M03 S0
G1 X-53232140174945.679688 Y-30381433910692.53125 M03 S0
X-53232140174945.578125 M03 S0
X-53232140174982.976562 M03 S1000
X-53232140174982.976562 M03 S0
G1 X-53232140174982.882812 Y-30381433910692.433594 M03 S0
X-53232140174982.882812 M03 S0
X-53232140174945.578125 M03 S1000
X-53232140174945.578125 M03 S0
G1 X-53232140174945.679688 Y-30381433910692.332031 M03 S0
X-53232140174945.578125 M03 S0
X-53232140174982.882812 M03 S1000
X-53232140174982.882812 M03 S0
G1 X-53232140174982.882812 Y-30381433910692.234375 M03 S0
X-53232140174982.882812 M03 S0
X-53232140174945.578125 M03 S1000
X-53232140174945.578125 M03 S0
G1 X-53232140174945.679688 Y-30381433910692.132812 M03 S0
X-53232140174945.578125 M03 S0
X-53232140174982.78125 M03 S1000
X-53232140174982.78125 M03 S0
G1 X-53232140174982.78125 Y-30381433910692.03125 M03 S0
X-53232140174982.78125 M03 S0
X-53232140174945.578125 M03 S1000
X-53232140174945.578125 M03 S0
G1 X-53232140174945.78125 Y-30381433910691.933594 M03 S0
X-53232140174945.679688 M03 S0
X-53232140174982.679688 M03 S1000
X-53232140174982.679688 M03 S0
G1 X-53232140174982.578125 Y-30381433910691.832031 M03 S0
X-53232140174982.578125 M03 S0
X-53232140174945.679688 M03 S1000
X-53232140174945.679688 M03 S0
G1 X-53232140174945.882812 Y-30381433910691.734375 M03 S0
X-53232140174945.78125 M03 S0
X-53232140174982.578125 M03 S1000
X-53232140174982.578125 M03 S0
G1 X-53232140174982.476562 Y-30381433910691.632812 M03 S0
X-53232140174982.476562 M03 S0
X-53232140174945.78125 M03 S1000
X-53232140174945.78125 M03 S0
G1 X-53232140174945.976562 Y-30381433910691.53125 M03 S0
X-53232140174945.882812 M03 S0
X-53232140174982.382812 M03 S1000
X-53232140174982.382812 M03 S0
G1 X-53232140174982.179688 Y-30381433910691.433594 M03 S0
X-53232140174982.179688 M03 S0
X-53232140174945.976562 M03 S1000
X-53232140174945.976562 M03 S0
G1 X-53232140174946.28125 Y-30381433910691.332031 M03 S0
X-53232140174946.179688 M03 S0
X-53232140174981.976562 M03 S1000
X-53232140174981.976562 M03 S0
G1 X-53232140174981.679688 Y-30381433910691.234375 M03 S0
X-53232140174981.679688 M03 S0
X-53232140174946.382812 M03 S1000
X-53232140174946.382812 M03 S0
G1 X-53232140174946.78125 Y-30381433910691.132812 M03 S0
X-53232140174946.679688 M03 S0
X-53232140174981.382812 M03 S1000
X-53232140174981.382812 M03 S0
G1 X-53232140174981.179688 Y-30381433910691.03125 M03 S0
X-53232140174981.179688 M03 S0
X-53232140174947.078125 M03 S1000
X-53232140174947.078125 M03 S0
G1 X-53232140174947.382812 Y-30381433910690.933594 M03 S0
X-53232140174947.28125 M03 S0
X-53232140174981.078125 M03 S1000
X-53232140174981.078125 M03 S0
G1 X-53232140174980.976562 Y-30381433910690.832031 M03 S0
X-53232140174980.976562 M03 S0
X-53232140174947.382812 M03 S1000
X-53232140174947.382812 M03 S0
G1 X-53232140174947.578125 Y-30381433910690.734375 M03 S0
X-53232140174947.476562 M03 S0
X-53232140174980.882812 M03 S1000
X-53232140174980.882812 M03 S0
G1 X-53232140174980.78125 Y-30381433910690.632812 M03 S0
X-53232140174980.78125 M03 S0
X-53232140174947.578125 M03 S1000
X-53232140174947.578125 M03 S0
G1 X-53232140174947.78125 Y-30381433910690.53125 M03 S0
X-53232140174947.679688 M03 S0
X-53232140174980.679688 M03 S1000
X-53232140174980.679688 M03 S0
G1 X-53232140174980.679688 Y-30381433910690.433594 M03 S0
X-53232140174980.679688 M03 S0
X-53232140174947.78125 M03 S1000
X-53232140174947.78125 M03 S0
G1 X-53232140174947.976562 Y-30381433910690.332031 M03 S0
X-53232140174947.882812 M03 S0
X-53232140174980.578125 M03 S1000
X-53232140174980.578125 M03 S0
G1 X-53232140174980.578125 Y-30381433910690.234375 M03 S0
X-53232140174980.578125 M03 S0
X-53232140174947.882812 M03 S1000
X-53232140174947.882812 M03 S0
G1 X-53232140174948.078125 Y-30381433910690.132812 M03 S0
X-53232140174947.976562 M03 S0
X-53232140174980.476562 M03 S1000
X-53232140174980.476562 M03 S0
G1 X-53232140174980.476562 Y-30381433910690.03125 M03 S0
X-53232140174980.476562 M03 S0
X-53232140174947.976562 M03 S1000
X-53232140174947.976562 M03 S0
G1 X-53232140174948.179688 Y-30381433910689.933594 M03 S0
X-53232140174948.078125 M03 S0
X-53232140174980.382812 M03 S1000
X-53232140174980.382812 M03 S0
G1 X-53232140174980.382812 Y-30381433910689.832031 M03 S0
X-53232140174980.382812 M03 S0
X-53232140174948.078125 M03 S1000
X-53232140174948.078125 M03 S0
G1 X-53232140174948.179688 Y-30381433910689.734375 M03 S0
X-53232140174948.078125 M03 S0
X-53232140174980.382812 M03 S1000
X-53232140174980.382812 M03 S0
G1 X-53232140174980.28125 Y-30381433910689.632812 M03 S0
X-53232140174980.28125 M03 S0
X-53232140174948.179688 M03 S1000
X-53232140174948.179688 M03 S0
G1 X-53232140174948.28125 Y-30381433910689.53125 M03 S0
X-53232140174948.179688 M03 S0
X-53232140174980.28125 M03 S1000
X-53232140174980.28125 M03 S0
G1 X-53232140174980.179688 Y-30381433910689.433594 M03 S0
X-53232140174980.179688 M03 S0
X-53232140174948.28125 M03 S1000
X-53232140174948.28125 M03 S0
G1 X-53232140174948.476562 Y-30381433910689.332031 M03 S0
X-53232140174948.382812 M03 S0
X-53232140174980.078125 M03 S1000
X-53232140174980.078125 M03 S0
G1 X-53232140174980.078125 Y-30381433910689.234375 M03 S0
X-53232140174980.078125 M03 S0
X-53232140174948.382812 M03 S1000
X-53232140174948.382812 M03 S0
G1 X-53232140174948.578125 Y-30381433910689.132812 M03 S0
X-53232140174948.476562 M03 S0
X-53232140174979.976562 M03 S1000
X-53232140174979.976562 M03 S0
G1 X-53232140174979.882812 Y-30381433910689.03125 M03 S0
X-53232140174979.882812 M03 S0
X-53232140174948.578125 M03 S1000
X-53232140174948.578125 M03 S0
G1 X-53232140174948.882812 Y-30381433910688.933594 M03 S0
X-53232140174948.78125 M03 S0
X-53232140174979.679688 M03 S1000
X-53232140174979.679688 M03 S0
G1 X-53232140174979.476562 Y-30381433910688.832031 M03 S0
X-53232140174979.476562 M03 S0
X-53232140174948.976562 M03 S1000
X-53232140174948.976562 M03 S0
G1 X-53232140174949.382812 Y-30381433910688.734375 M03 S0
X-53232140174949.28125 M03 S0
X-53232140174979.179688 M03 S1000
X-53232140174979.179688 M03 S0
G1 X-53232140174978.882812 Y-30381433910688.632812 M03 S0
X-53232140174978.882812 M03 S0
X-53232140174949.578125 M03 S1000
X-53232140174949.578125 M03 S0
G1 X-53232140174949.882812 Y-30381433910688.53125 M03 S0
X-53232140174949.78125 M03 S0
X-53232140174978.679688 M03 S1000
X-53232140174978.679688 M03 S0
G1 X-53232140174978.578125 Y-30381433910688.433594 M03 S0
X-53232140174978.578125 M03 S0
X-53232140174949.882812 M03 S1000
X-53232140174949.882812 M03 S0
G1 X-53232140174950.078125 Y-30381433910688.332031 M03 S0
X-53232140174949.976562 M03 S0
X-53232140174978.476562 M03 S1000
X-53232140174978.476562 M03 S0
G1 X-53232140174978.382812 Y-30381433910688.234375 M03 S0
X-53232140174978.382812 M03 S0
X-53232140174950.078125 M03 S1000
X-53232140174950.078125 M03 S0
G1 X-53232140174950.28125 Y-30381433910688.132812 M03 S0
X-53232140174950.179688 M03 S0
X-53232140174978.28125 M03 S1000
X-53232140174978.28125 M03 S0
G1 X-53232140174978.179688 Y-30381433910688.03125 M03 S0
X-53232140174978.179688 M03 S0
X-53232140174950.28125 M03 S1000
X-53232140174950.28125 M03 S0
G1 X-53232140174950.382812 Y-30381433910687.933594 M03 S0
X-53232140174950.28125 M03 S0
X-53232140174978.179688 M03 S1000
X-53232140174978.179688 M03 S0
G1 X-53232140174978.078125 Y-30381433910687.832031 M03 S0
X-53232140174978.078125 M03 S0
X-53232140174950.382812 M03 S1000
X-53232140174950.382812 M03 S0
G1 X-53232140174950.476562 Y-30381433910687.734375 M03 S0
X-53232140174950.382812 M03 S0
X-53232140174978.078125 M03 S1000
X-53232140174978.078125 M03 S0
G1 X-53232140174977.976562 Y-30381433910687.632812 M03 S0
X-53232140174977.976562 M03 S0
X-53232140174950.476562 M03 S1000
X-53232140174950.476562 M03 S0
G1 X-53232140174950.578125 Y-30381433910687.53125 M03 S0
X-53232140174950.476562 M03 S0
X-53232140174977.976562 M03 S1000
X-53232140174977.976562 M03 S0
G1 X-53232140174977.882812 Y-30381433910687.433594 M03 S0
X-53232140174977.882812 M03 S0
X-53232140174950.578125 M03 S1000
X-53232140174950.578125 M03 S0
G1 X-53232140174950.679688 Y-30381433910687.332031 M03 S0
X-53232140174950.578125 M03 S0
X-53232140174977.882812 M03 S1000
X-53232140174977.882812 M03 S0
G1 X-53232140174977.882812 Y-30381433910687.234375 M03 S0
X-53232140174977.882812 M03 S0
X-53232140174950.578125 M03 S1000
X-53232140174950.578125 M03 S0
G1 X-53232140174950.78125 Y-30381433910687.132812 M03 S0
X-53232140174950.679688 M03 S0
X-53232140174977.78125 M03 S1000
X-53232140174977.78125 M03 S0
G1 X-53232140174977.78125 Y-30381433910687.03125 M03 S0
X-53232140174977.78125 M03 S0
X-53232140174950.679688 M03 S1000
X-53232140174950.679688 M03 S0
G1 X-53232140174950.882812 Y-30381433910686.933594 M03 S0
X-53232140174950.78125 M03 S0
X-53232140174977.679688 M03 S1000
X-53232140174977.679688 M03 S0
G1 X-53232140174977.578125 Y-30381433910686.832031 M03 S0
X-53232140174977.578125 M03 S0
X-53232140174950.882812 M03 S1000
X-53232140174950.882812 M03 S0
G1 X-53232140174950.976562 Y-30381433910686.734375 M03 S0
X-53232140174950.882812 M03 S0
X-53232140174977.578125 M03 S1000
X-53232140174977.578125 M03 S0
G1 X-53232140174977.476562 Y-30381433910686.632812 M03 S0
X-53232140174977.476562 M03 S0
X-53232140174950.976562 M03 S1000
X-53232140174950.976562 M03 S0
G1 X-53232140174951.179688 Y-30381433910686.53125 M03 S0
X-53232140174951.078125 M03 S0
X-53232140174977.382812 M03 S1000
X-53232140174977.382812 M03 S0
G1 X-53232140174977.179688 Y-30381433910686.433594 M03 S0
X-53232140174977.179688 M03 S0
X-53232140174951.28125 M03 S1000
X-53232140174951.28125 M03 S0
G1 X-53232140174951.578125 Y-30381433910686.332031 M03 S0
X-53232140174951.476562 M03 S0
X-53232140174976.976562 M03 S1000
X-53232140174976.976562 M03 S0
G1 X-53232140174976.679688 Y-30381433910686.234375 M03 S0
X-53232140174976.679688 M03 S0
X-53232140174951.78125 M03 S1000
X-53232140174951.78125 M03 S0
G1 X-53232140174952.179688 Y-30381433910686.132812 M03 S0
X-53232140174952.078125 M03 S0
X-53232140174976.382812 M03 S1000
X-53232140174976.382812 M03 S0
G1 X-53232140174976.179688 Y-30381433910686.03125 M03 S0
X-53232140174976.179688 M03 S0
X-53232140174952.28125 M03 S1000
X-53232140174952.28125 M03 S0
G1 X-53232140174952.578125 Y-30381433910685.933594 M03 S0
X-53232140174952.476562 M03 S0
X-53232140174975.976562 M03 S1000
X-53232140174975.976562 M03 S0
G1 X-53232140174975.882812 Y-30381433910685.832031 M03 S0
X-53232140174975.882812 M03 S0
X-53232140174952.578125 M03 S1000
X-53232140174952.578125 M03 S0
G1 X-53232140174952.78125 Y-30381433910685.734375 M03 S0
X-53232140174952.679688 M03 S0
X-53232140174975.78125 M03 S1000
X-53232140174975.78125 M03 S0
G1 X-53232140174975.679688 Y-30381433910685.632812 M03 S0
X-53232140174975.679688 M03 S0
X-53232140174952.78125 M03 S1000
X-53232140174952.78125 M03 S0
G1 X-53232140174952.882812 Y-30381433910685.53125 M03 S0
X-53232140174952.78125 M03 S0
X-53232140174975.679688 M03 S1000
X-53232140174975.679688 M03 S0
G1 X-53232140174975.578125 Y-30381433910685.433594 M03 S0
X-53232140174975.578125 M03 S0
X-53232140174952.882812 M03 S1000
X-53232140174952.882812 M03 S0
G1 X-53232140174952.976562 Y-30381433910685.332031 M03 S0
X-53232140174952.882812 M03 S0
X-53232140174975.578125 M03 S1000
X-53232140174975.578125 M03 S0
G1 X-53232140174975.476562 Y-30381433910685.234375 M03 S0
X-53232140174975.476562 M03 S0
X-53232140174952.976562 M03 S1000
X-53232140174952.976562 M03 S0
G1 X-53232140174953.078125 Y-30381433910685.132812 M03 S0
X-53232140174952.976562 M03 S0
X-53232140174975.476562 M03 S1000
X-53232140174975.476562 M03 S0
G1 X-53232140174975.476562 Y-30381433910685.03125 M03 S0
X-53232140174975.476562 M03 S0
X-53232140174952.976562 M03 S1000
X-53232140174952.976562 M03 S0
G1 X-53232140174953.179688 Y-30381433910684.933594 M03 S0
X-53232140174953.078125 M03 S0
X-53232140174975.382812 M03 S1000
X-53232140174975.382812 M03 S0
G1 X-53232140174975.382812 Y-30381433910684.832031 M03 S0
X-53232140174975.382812 M03 S0
X-53232140174953.078125 M03 S1000
X-53232140174953.078125 M03 S0
G1 X-53232140174953.179688 Y-30381433910684.734375 M03 S0
X-53232140174953.078125 M03 S0
X-53232140174975.382812 M03 S1000
X-53232140174975.382812 M03 S0
G1 X-53232140174975.382812 Y-30381433910684.632812 M03 S0
X-53232140174975.382812 M03 S0
X-53232140174953.078125 M03 S1000
X-53232140174953.078125 M03 S0
G1 X-53232140174953.179688 Y-30381433910684.53125 M03 S0
X-53232140174953.078125 M03 S0
X-53232140174975.382812 M03 S1000
X-53232140174975.382812 M03 S0
G1 X-53232140174975.382812 Y-30381433910684.433594 M03 S0
X-53232140174975.382812 M03 S0
X-53232140174953.078125 M03 S1000
X-53232140174953.078125 M03 S0
G1 X-53232140174953.179688 Y-30381433910684.332031 M03 S0
X-53232140174953.078125 M03 S0
X-53232140174975.382812 M03 S1000
X-53232140174975.382812 M03 S0
G1 X-53232140174975.382812 Y-30381433910684.234375 M03 S0
X-53232140174975.382812 M03 S0
X-53232140174953.078125 M03 S1000
X-53232140174953.078125 M03 S0
G1 X-53232140174953.179688 Y-30381433910684.132812 M03 S0
X-53232140174953.078125 M03 S0
X-53232140174975.382812 M03 S1000
X-53232140174975.382812 M03 S0
G1 X-53232140174975.382812 Y-30381433910684.03125 M03 S0
X-53232140174975.382812 M03 S0
X-53232140174953.078125 M03 S1000
X-53232140174953.078125 M03 S0
G1 X-53232140174953.179688 Y-30381433910683.933594 M03 S0
X-53232140174953.078125 M03 S0
X-53232140174975.382812 M03 S1000
X-53232140174975.382812 M03 S0
G1 X-53232140174975.382812 Y-30381433910683.832031 M03 S0
X-53232140174975.382812 M03 S0
X-53232140174953.078125 M03 S1000
X-53232140174953.078125 M03 S0
G1 X-53232140174953.179688 Y-30381433910683.734375 M03 S0
X-53232140174953.078125 M03 S0
X-53232140174975.382812 M03 S1000
X-53232140174975.382812 M03 S0
G1 X-53232140174975.382812 Y-30381433910683.632812 M03 S0
X-53232140174975.382812 M03 S0
X-53232140174953.078125 M03 S1000
X-53232140174953.078125 M03 S0
G1 X-53232140174953.179688 Y-30381433910683.53125 M03 S0
X-53232140174953.078125 M03 S0
X-53232140174975.382812 M03 S1000
X-53232140174975.382812 M03 S0
G1 X-53232140174975.382812 Y-30381433910683.433594 M03 S0
X-53232140174975.382812 M03 S0
X-53232140174953.078125 M03 S1000
X-53232140174953.078125 M03 S0
G1 X-53232140174953.179688 Y-30381433910683.332031 M03 S0
X-53232140174953.078125 M03 S0
X-53232140174975.382812 M03 S1000
X-53232140174975.382812 M03 S0
G1 X-53232140174975.382812 Y-30381433910683.234375 M03 S0
X-53232140174975.382812 M03 S0
X-53232140174953.078125 M03 S1000
X-53232140174953.078125 M03 S0
G1 X-53232140174953.179688 Y-30381433910683.132812 M03 S0
X-53232140174953.078125 M03 S0
X-53232140174975.382812 M03 S1000
X-53232140174975.382812 M03 S0
G1 X-53232140174975.382812 Y-30381433910683.03125 M03 S0
X-53232140174975.382812 M03 S0
X-53232140174953.078125 M03 S1000
X-53232140174953.078125 M03 S0
G1 X-53232140174953.179688 Y-30381433910682.933594 M03 S0
X-53232140174953.078125 M03 S0
X-53232140174975.382812 M03 S1000
X-53232140174975.382812 M03 S0
G1 X-53232140174975.382812 Y-30381433910682.832031 M03 S0
X-53232140174975.382812 M03 S0
X-53232140174953.078125 M03 S1000
X-53232140174953.078125 M03 S0
G1 X-53232140174953.179688 Y-30381433910682.734375 M03 S0
X-53232140174953.078125 M03 S0
X-53232140174975.382812 M03 S1000
X-53232140174975.382812 M03 S0
G1 X-53232140174975.382812 Y-30381433910682.632812 M03 S0
X-53232140174975.382812 M03 S0
X-53232140174953.078125 M03 S1000
X-53232140174953.078125 M03 S0
G1 X-53232140174953.179688 Y-30381433910682.53125 M03 S0
X-53232140174953.078125 M03 S0
X-53232140174975.382812 M03 S1000
X-53232140174975.382812 M03 S0
G1 X-53232140174975.382812 Y-30381433910682.433594 M03 S0
X-53232140174975.382812 M03 S0
X-53232140174953.078125 M03 S1000
X-53232140174953.078125 M03 S0
G1 X-53232140174953.179688 Y-30381433910682.332031 M03 S0
X-53232140174953.078125 M03 S0
X-53232140174975.382812 M03 S1000
X-53232140174975.382812 M03 S0
G1 X-53232140174975.382812 Y-30381433910682.234375 M03 S0
X-53232140174975.382812 M03 S0
X-53232140174953.078125 M03 S1000
X-53232140174953.078125 M03 S0
G1 X-53232140174953.179688 Y-30381433910682.132812 M03 S0
X-53232140174953.078125 M03 S0
X-53232140174975.382812 M03 S1000
X-53232140174975.382812 M03 S0
G1 X-53232140174975.382812 Y-30381433910682.03125 M03 S0
X-53232140174975.382812 M03 S0
X-53232140174953.078125 M03 S1000
X-53232140174953.078125 M03 S0
G1 X-53232140174953.179688 Y-30381433910681.933594 M03 S0
X-53232140174953.078125 M03 S0
X-53232140174975.382812 M03 S1000
X-53232140174975.382812 M03 S0
G1 X-53232140174975.382812 Y-30381433910681.832031 M03 S0
X-53232140174975.382812 M03 S0
X-53232140174953.078125 M03 S1000
X-53232140174953.078125 M03 S0
G1 X-53232140174953.179688 Y-30381433910681.734375 M03 S0
X-53232140174953.078125 M03 S0
X-53232140174975.382812 M03 S1000
X-53232140174975.382812 M03 S0
G1 X-53232140174975.382812 Y-30381433910681.632812 M03 S0
X-53232140174975.382812 M03 S0
X-53232140174953.078125 M03 S1000
X-53232140174953.078125 M03 S0
G1 X-53232140174953.179688 Y-30381433910681.53125 M03 S0
X-53232140174953.078125 M03 S0
X-53232140174975.382812 M03 S1000
X-53232140174975.382812 M03 S0
G1 X-53232140174975.382812 Y-30381433910681.433594 M03 S0
X-53232140174975.382812 M03 S0
X-53232140174953.078125 M03 S1000
X-53232140174953.078125 M03 S0
G1 X-53232140174953.179688 Y-30381433910681.332031 M03 S0
X-53232140174953.078125 M03 S0
X-53232140174975.382812 M03 S1000
X-53232140174975.382812 M03 S0
G1 X-53232140174975.382812 Y-30381433910681.234375 M03 S0
X-53232140174975.382812 M03 S0
X-53232140174953.078125 M03 S1000
X-53232140174953.078125 M03 S0
G1 X-53232140174953.179688 Y-30381433910681.132812 M03 S0
X-53232140174953.078125 M03 S0
X-53232140174975.382812 M03 S1000
X-53232140174975.382812 M03 S0
G1 X-53232140174975.382812 Y-30381433910681.03125 M03 S0
X-53232140174975.382812 M03 S0
X-53232140174953.078125 M03 S1000
X-53232140174953.078125 M03 S0
G1 X-53232140174953.179688 Y-30381433910680.933594 M03 S0
X-53232140174953.078125 M03 S0
X-53232140174975.382812 M03 S1000
X-53232140174975.382812 M03 S0
G1 X-53232140174975.382812 Y-30381433910680.832031 M03 S0
X-53232140174975.382812 M03 S0
X-53232140174953.078125 M03 S1000
X-53232140174953.078125 M03 S0
G1 X-53232140174953.179688 Y-30381433910680.734375 M03 S0
X-53232140174953.078125 M03 S0
X-53232140174975.382812 M03 S1000
X-53232140174975.382812 M03 S0
G1 X-53232140174975.382812 Y-30381433910680.632812 M03 S0
X-53232140174975.382812 M03 S0
X-53232140174953.078125 M03 S1000
X-53232140174953.078125 M03 S0
G1 X-53232140174953.179688 Y-30381433910680.53125 M03 S0
X-53232140174953.078125 M03 S0
X-53232140174975.382812 M03 S1000
X-53232140174975.382812 M03 S0
G1 X-53232140174975.382812 Y-30381433910680.433594 M03 S0
X-53232140174975.382812 M03 S0
X-53232140174953.078125 M03 S1000
X-53232140174953.078125 M03 S0
G1 X-53232140174953.179688 Y-30381433910680.332031 M03 S0
X-53232140174953.078125 M03 S0
X-53232140174975.382812 M03 S1000
X-53232140174975.382812 M03 S0
G1 X-53232140174975.382812 Y-30381433910680.234375 M03 S0
X-53232140174975.382812 M03 S0
X-53232140174953.078125 M03 S1000
X-53232140174953.078125 M03 S0
G1 X-53232140174953.179688 Y-30381433910680.132812 M03 S0
X-53232140174953.078125 M03 S0
X-53232140174975.382812 M03 S1000
X-53232140174975.382812 M03 S0
G1 X-53232140174975.382812 Y-30381433910680.03125 M03 S0
X-53232140174975.382812 M03 S0
X-53232140174953.078125 M03 S1000
X-53232140174953.078125 M03 S0
G1 X-53232140174953.179688 Y-30381433910679.933594 M03 S0
X-53232140174953.078125 M03 S0
X-53232140174975.382812 M03 S1000
X-53232140174975.382812 M03 S0
G1 X-53232140174975.382812 Y-30381433910679.832031 M03 S0
X-53232140174975.382812 M03 S0
X-53232140174953.078125 M03 S1000
X-53232140174953.078125 M03 S0
G1 X-53232140174953.179688 Y-30381433910679.734375 M03 S0
X-53232140174953.078125 M03 S0
X-53232140174975.382812 M03 S1000
X-53232140174975.382812 M03 S0
G1 X-53232140174975.382812 Y-30381433910679.632812 M03 S0
X-53232140174975.382812 M03 S0
X-53232140174953.078125 M03 S1000
X-53232140174953.078125 M03 S0
G1 X-53232140174953.179688 Y-30381433910679.53125 M03 S0
X-53232140174953.078125 M03 S0
X-53232140174975.382812 M03 S1000
X-53232140174975.382812 M03 S0
G1 X-53232140174975.382812 Y-30381433910679.433594 M03 S0
X-53232140174975.382812 M03 S0
X-53232140174953.078125 M03 S1000
X-53232140174953.078125 M03 S0
G1 X-53232140174953.179688 Y-30381433910679.332031 M03 S0
X-53232140174953.078125 M03 S0
X-53232140174975.382812 M03 S1000
X-53232140174975.382812 M03 S0
G1 X-53232140174975.382812 Y-30381433910679.234375 M03 S0
X-53232140174975.382812 M03 S0
X-53232140174953.078125 M03 S1000
X-53232140174953.078125 M03 S0
G1 X-53232140174953.179688 Y-30381433910679.132812 M03 S0
X-53232140174953.078125 M03 S0
X-53232140174975.382812 M03 S1000
X-53232140174975.382812 M03 S0
G1 X-53232140174975.382812 Y-30381433910679.03125 M03 S0
X-53232140174975.382812 M03 S0
X-53232140174953.078125 M03 S1000
X-53232140174953.078125 M03 S0
G1 X-53232140174953.179688 Y-30381433910678.933594 M03 S0
X-53232140174953.078125 M03 S0
X-53232140174975.382812 M03 S1000
X-53232140174975.382812 M03 S0
G1 X-53232140174975.382812 Y-30381433910678.832031 M03 S0
X-53232140174975.382812 M03 S0
X-53232140174953.078125 M03 S1000
X-53232140174953.078125 M03 S0
G1 X-53232140174953.179688 Y-30381433910678.734375 M03 S0
X-53232140174953.078125 M03 S0
X-53232140174975.382812 M03 S1000
X-53232140174975.382812 M03 S0
G1 X-53232140174975.382812 Y-30381433910678.632812 M03 S0
X-53232140174975.382812 M03 S0
X-53232140174953.078125 M03 S1000
X-53232140174953.078125 M03 S0
G1 X-53232140174953.179688 Y-30381433910678.53125 M03 S0
X-53232140174953.078125 M03 S0
X-53232140174975.382812 M03 S1000
X-53232140174975.382812 M03 S0
G1 X-53232140174975.382812 Y-30381433910678.433594 M03 S0
X-53232140174975.382812 M03 S0
X-53232140174953.078125 M03 S1000
X-53232140174953.078125 M03 S0
G1 X-53232140174953.179688 Y-30381433910678.332031 M03 S0
X-53232140174953.078125 M03 S0
X-53232140174975.382812 M03 S1000
X-53232140174975.382812 M03 S0
G1 X-53232140174975.382812 Y-30381433910678.234375 M03 S0
X-53232140174975.382812 M03 S0
X-53232140174953.078125 M03 S1000
X-53232140174953.078125 M03 S0
G1 X-53232140174953.179688 Y-30381433910678.132812 M03 S0
X-53232140174953.078125 M03 S0
X-53232140174975.382812 M03 S1000
X-53232140174975.382812 M03 S0
G1 X-53232140174975.382812 Y-30381433910678.03125 M03 S0
X-53232140174975.382812 M03 S0
X-53232140174953.078125 M03 S1000
X-53232140174953.078125 M03 S0
G1 X-53232140174953.179688 Y-30381433910677.933594 M03 S0
X-53232140174953.078125 M03 S0
X-53232140174975.382812 M03 S1000
X-53232140174975.382812 M03 S0
G1 X-53232140174975.382812 Y-30381433910677.832031 M03 S0
X-53232140174975.382812 M03 S0
X-53232140174953.078125 M03 S1000
X-53232140174953.078125 M03 S0
G1 X-53232140174953.179688 Y-30381433910677.734375 M03 S0
X-53232140174953.078125 M03 S0
X-53232140174975.382812 M03 S1000
X-53232140174975.382812 M03 S0
G1 X-53232140174975.382812 Y-30381433910677.632812 M03 S0
X-53232140174975.382812 M03 S0
X-53232140174953.078125 M03 S1000
X-53232140174953.078125 M03 S0
G1 X-53232140174953.179688 Y-30381433910677.53125 M03 S0
X-53232140174953.078125 M03 S0
X-53232140174975.382812 M03 S1000
X-53232140174975.382812 M03 S0
G1 X-53232140174975.382812 Y-30381433910677.433594 M03 S0
X-53232140174975.382812 M03 S0
X-53232140174953.078125 M03 S1000
X-53232140174953.078125 M03 S0
G1 X-53232140174953.179688 Y-30381433910677.332031 M03 S0
X-53232140174953.078125 M03 S0
X-53232140174975.382812 M03 S1000
X-53232140174975.382812 M03 S0
G1 X-53232140174975.382812 Y-30381433910677.234375 M03 S0
X-53232140174975.382812 M03 S0
X-53232140174953.078125 M03 S1000
X-53232140174953.078125 M03 S0
G1 X-53232140174953.179688 Y-30381433910677.132812 M03 S0
X-53232140174953.078125 M03 S0
X-53232140174975.382812 M03 S1000
X-53232140174975.382812 M03 S0
G1 X-53232140174975.382812 Y-30381433910677.03125 M03 S0
X-53232140174975.382812 M03 S0
X-53232140174953.078125 M03 S1000
X-53232140174953.078125 M03 S0
G1 X-53232140174953.179688 Y-30381433910676.933594 M03 S0
X-53232140174953.078125 M03 S0
X-53232140174975.382812 M03 S1000
X-53232140174975.382812 M03 S0
G1 X-53232140174975.382812 Y-30381433910676.832031 M03 S0
X-53232140174975.382812 M03 S0
X-53232140174953.078125 M03 S1000
X-53232140174953.078125 M03 S0
G1 X-53232140174953.179688 Y-30381433910676.734375 M03 S0
X-53232140174953.078125 M03 S0
X-53232140174975.382812 M03 S1000
X-53232140174975.382812 M03 S0
G1 X-53232140174975.382812 Y-30381433910676.632812 M03 S0
X-53232140174975.382812 M03 S0
X-53232140174953.078125 M03 S1000
X-53232140174953.078125 M03 S0
G1 X-53232140174953.179688 Y-30381433910676.53125 M03 S0
X-53232140174953.078125 M03 S0
X-53232140174975.382812 M03 S1000
X-53232140174975.382812 M03 S0
G1 X-53232140174975.382812 Y-30381433910676.433594 M03 S0
X-53232140174975.382812 M03 S0
X-53232140174953.078125 M03 S1000
X-53232140174953.078125 M03 S0
G1 X-53232140174953.179688 Y-30381433910676.332031 M03 S0
X-53232140174953.078125 M03 S0
X-53232140174975.382812 M03 S1000
X-53232140174975.382812 M03 S0
G1 X-53232140174975.382812 Y-30381433910676.234375 M03 S0
X-53232140174975.382812 M03 S0
X-53232140174966.78125 M03 S1000
X-53232140174961.679688 M03 S0
X-53232140174953.078125 M03 S1000
X-53232140174953.078125 M03 S0
G1 X-53232140174953.179688 Y-30381433910676.132812 M03 S0
X-53232140174953.078125 M03 S0
X-53232140174961.382812 M03 S1000
X-53232140174967.078125 M03 S0
X-53232140174975.382812 M03 S1000
X-53232140174975.382812 M03 S0
G1 X-53232140174975.382812 Y-30381433910676.03125 M03 S0
X-53232140174975.382812 M03 S0
X-53232140174967.28125 M03 S1000
X-53232140174961.179688 M03 S0
X-53232140174953.078125 M03 S1000
X-53232140174953.078125 M03 S0
G1 X-53232140174953.179688 Y-30381433910675.933594 M03 S0
X-53232140174953.078125 M03 S0
X-53232140174961.078125 M03 S1000
X-53232140174967.382812 M03 S0
X-53232140174975.382812 M03 S1000
X-53232140174975.382812 M03 S0
G1 X-53232140174975.382812 Y-30381433910675.832031 M03 S0
X-53232140174975.382812 M03 S0
X-53232140174967.476562 M03 S1000
X-53232140174960.976562 M03 S0
X-53232140174953.078125 M03 S1000
X-53232140174953.078125 M03 S0
G1 X-53232140174953.179688 Y-30381433910675.734375 M03 S0
X-53232140174953.078125 M03 S0
X-53232140174960.882812 M03 S1000
X-53232140174967.578125 M03 S0
X-53232140174975.382812 M03 S1000
X-53232140174975.382812 M03 S0
G1 X-53232140174975.382812 Y-30381433910675.632812 M03 S0
X-53232140174975.382812 M03 S0
X-53232140174967.679688 M03 S1000
X-53232140174960.78125 M03 S0
X-53232140174953.078125 M03 S1000
X-53232140174953.078125 M03 S0
G1 X-53232140174953.179688 Y-30381433910675.53125 M03 S0
X-53232140174953.078125 M03 S0
X-53232140174960.679688 M03 S1000
X-53232140174967.78125 M03 S0
X-53232140174975.382812 M03 S1000
X-53232140174975.382812 M03 S0
G1 X-53232140174975.382812 Y-30381433910675.433594 M03 S0
X-53232140174975.382812 M03 S0
X-53232140174967.78125 M03 S1000
X-53232140174960.679688 M03 S0
X-53232140174953.078125 M03 S1000
X-53232140174953.078125 M03 S0
G1 X-53232140174953.179688 Y-30381433910675.332031 M03 S0
X-53232140174953.078125 M03 S0
X-53232140174960.578125 M03 S1000
X-53232140174967.882812 M03 S0
X-53232140174975.382812 M03 S1000
X-53232140174975.382812 M03 S0
G1 X-53232140174975.382812 Y-30381433910675.234375 M03 S0
X-53232140174975.382812 M03 S0
X-53232140174967.882812 M03 S1000
X-53232140174960.578125 M03 S0
X-53232140174953.078125 M03 S1000
X-53232140174953.078125 M03 S0
G1 X-53232140174953.179688 Y-30381433910675.132812 M03 S0
X-53232140174953.078125 M03 S0
X-53232140174960.476562 M03 S1000
X-53232140174967.976562 M03 S0
X-53232140174975.382812 M03 S1000
X-53232140174975.382812 M03 S0
G1 X-53232140174975.382812 Y-30381433910675.03125 M03 S0
X-53232140174975.382812 M03 S0
X-53232140174967.976562 M03 S1000
X-53232140174960.476562 M03 S0
X-53232140174953.078125 M03 S1000
X-53232140174953.078125 M03 S0
G1 X-53232140174953.179688 Y-30381433910674.933594 M03 S0
X-53232140174953.078125 M03 S0
X-53232140174960.382812 M03 S1000
X-53232140174968.078125 M03 S0
X-53232140174975.382812 M03 S1000
X-53232140174975.382812 M03 S0
G1 X-53232140174975.476562 Y-30381433910674.832031 M03 S0
X-53232140174975.476562 M03 S0
X-53232140174968.078125 M03 S1000
X-53232140174960.382812 M03 S0
X-53232140174952.976562 M03 S1000
X-53232140174952.976562 M03 S0
G1 X-53232140174953.078125 Y-30381433910674.734375 M03 S0
X-53232140174952.976562 M03 S0
X-53232140174960.382812 M03 S1000
X-53232140174968.078125 M03 S0
X-53232140174975.476562 M03 S1000
X-53232140174975.476562 M03 S0
G1 X-53232140174975.476562 Y-30381433910674.632812 M03 S0
X-53232140174975.476562 M03 S0
X-53232140174968.179688 M03 S1000
X-53232140174960.28125 M03 S0
X-53232140174952.976562 M03 S1000
X-53232140174952.976562 M03 S0
G1 X-53232140174952.976562 Y-30381433910674.53125 M03 S0
X-53232140174952.882812 M03 S0
X-53232140174960.28125 M03 S1000
X-53232140174968.179688 M03 S0
X-53232140174975.578125 M03 S1000
X-53232140174975.578125 M03 S0
G1 X-53232140174975.578125 Y-30381433910674.433594 M03 S0
X-53232140174975.578125 M03 S0
X-53232140174968.28125 M03 S1000
X-53232140174960.179688 M03 S0
X-53232140174952.882812 M03 S1000
X-53232140174952.882812 M03 S0
G1 X-53232140174952.882812 Y-30381433910674.332031 M03 S0
X-53232140174952.78125 M03 S0
X-53232140174960.078125 M03 S1000
X-53232140174968.382812 M03 S0
X-53232140174975.679688 M03 S1000
X-53232140174975.679688 M03 S0
G1 X-53232140174975.78125 Y-30381433910674.234375 M03 S0
X-53232140174975.78125 M03 S0
X-53232140174968.382812 M03 S1000
X-53232140174960.078125 M03 S0
X-53232140174952.679688 M03 S1000
X-53232140174952.679688 M03 S0
G1 X-53232140174952.78125 Y-30381433910674.132812 M03 S0
X-53232140174952.679688 M03 S0
X-53232140174959.976562 M03 S1000
X-53232140174968.476562 M03 S0
X-53232140174975.78125 M03 S1000
X-53232140174975.78125 M03 S0
G1 X-53232140174975.882812 Y-30381433910674.03125 M03 S0
X-53232140174975.882812 M03 S0
X-53232140174968.578125 M03 S1000
X-53232140174959.882812 M03 S0
X-53232140174952.578125 M03 S1000
X-53232140174952.578125 M03 S0
G1 X-53232140174952.476562 Y-30381433910673.933594 M03 S0
X-53232140174952.382812 M03 S0
X-53232140174959.679688 M03 S1000
X-53232140174968.78125 M03 S0
X-53232140174976.078125 M03 S1000
X-53232140174976.078125 M03 S0
G1 X-53232140174976.179688 Y-30381433910673.832031 M03 S0
X-53232140174976.179688 M03 S0
X-53232140174968.976562 M03 S1000
X-53232140174959.476562 M03 S0
X-53232140174952.28125 M03 S1000
X-53232140174952.28125 M03 S0
G1 X-53232140174952.179688 Y-30381433910673.734375 M03 S0
X-53232140174952.078125 M03 S0
X-53232140174959.179688 M03 S1000
X-53232140174971.78125 M03 S0
X-53232140174976.382812 M03 S1000
X-53232140174976.382812 M03 S0
G1 X-53232140174976.679688 Y-30381433910673.632812 M03 S0
X-53232140174976.679688 M03 S0
X-53232140174972.078125 M03 S1000
X-53232140174958.882812 M03 S0
X-53232140174951.78125 M03 S1000
X-53232140174951.78125 M03 S0
G1 X-53232140174951.578125 Y-30381433910673.53125 M03 S0
X-53232140174951.476562 M03 S0
X-53232140174958.679688 M03 S1000
X-53232140174972.28125 M03 S0
X-53232140174976.976562 M03 S1000
X-53232140174976.976562 M03 S0
G1 X-53232140174977.179688 Y-30381433910673.433594 M03 S0
X-53232140174977.179688 M03 S0
X-53232140174972.382812 M03 S1000
X-53232140174958.578125 M03 S0
X-53232140174951.28125 M03 S1000
X-53232140174951.28125 M03 S0
G1 X-53232140174951.179688 Y-30381433910673.332031 M03 S0
X-53232140174951.078125 M03 S0
X-53232140174958.476562 M03 S1000
X-53232140174972.476562 M03 S0
X-53232140174977.382812 M03 S1000
X-53232140174977.382812 M03 S0
G1 X-53232140174977.476562 Y-30381433910673.234375 M03 S0
X-53232140174977.476562 M03 S0
X-53232140174972.578125 M03 S1000
X-53232140174958.382812 M03 S0
X-53232140174950.976562 M03 S1000
X-53232140174950.976562 M03 S0
G1 X-53232140174950.976562 Y-30381433910673.132812 M03 S0
X-53232140174950.882812 M03 S0
X-53232140174958.28125 M03 S1000
X-53232140174972.679688 M03 S0
X-53232140174977.578125 M03 S1000
X-53232140174977.578125 M03 S0
G1 X-53232140174977.679688 Y-30381433910673.03125 M03 S0
X-53232140174977.679688 M03 S0
X-53232140174972.78125 M03 S1000
X-53232140174958.179688 M03 S0
X-53232140174950.78125 M03 S1000
X-53232140174950.78125 M03 S0
G1 X-53232140174950.882812 Y-30381433910672.933594 M03 S0
X-53232140174950.78125 M03 S0
X-53232140174958.179688 M03 S1000
X-53232140174972.78125 M03 S0
X-53232140174977.679688 M03 S1000
X-53232140174977.679688 M03 S0
G1 X-53232140174977.78125 Y-30381433910672.832031 M03 S0
X-53232140174977.78125 M03 S0
X-53232140174972.882812 M03 S1000
X-53232140174958.078125 M03 S0
X-53232140174950.679688 M03 S1000
X-53232140174950.679688 M03 S0
G1 X-53232140174950.78125 Y-30381433910672.734375 M03 S0
X-53232140174950.679688 M03 S0
X-53232140174958.078125 M03 S1000
X-53232140174972.882812 M03 S0
X-53232140174977.78125 M03 S1000
X-53232140174977.78125 M03 S0
G1 X-53232140174977.882812 Y-30381433910672.632812 M03 S0
X-53232140174977.882812 M03 S0
X-53232140174972.976562 M03 S1000
X-53232140174957.976562 M03 S0
X-53232140174950.578125 M03 S1000
X-53232140174950.578125 M03 S0
G1 X-53232140174950.679688 Y-30381433910672.53125 M03 S0
X-53232140174950.578125 M03 S0
X-53232140174957.976562 M03 S1000
X-53232140174972.976562 M03 S0
X-53232140174977.882812 M03 S1000
X-53232140174977.882812 M03 S0
G1 X-53232140174977.882812 Y-30381433910672.433594 M03 S0
X-53232140174977.882812 M03 S0
X-53232140174973.078125 M03 S1000
X-53232140174957.882812 M03 S0
X-53232140174950.578125 M03 S1000
X-53232140174950.578125 M03 S0
G1 X-53232140174950.578125 Y-30381433910672.332031 M03 S0
X-53232140174950.476562 M03 S0
X-53232140174957.882812 M03 S1000
X-53232140174973.078125 M03 S0
X-53232140174977.976562 M03 S1000
X-53232140174977.976562 M03 S0
G1 X-53232140174977.976562 Y-30381433910672.234375 M03 S0
X-53232140174977.976562 M03 S0
X-53232140174973.078125 M03 S1000
X-53232140174957.882812 M03 S0
X-53232140174950.476562 M03 S1000
X-53232140174950.476562 M03 S0
G1 X-53232140174950.578125 Y-30381433910672.132812 M03 S0
X-53232140174950.476562 M03 S0
X-53232140174957.78125 M03 S1000
X-53232140174973.179688 M03 S0
X-53232140174977.976562 M03 S1000
X-53232140174977.976562 M03 S0
G1 X-53232140174977.976562 Y-30381433910672.03125 M03 S0
X-53232140174977.976562 M03 S0
X-53232140174973.179688 M03 S1000
X-53232140174957.78125 M03 S0
X-53232140174950.476562 M03 S1000
X-53232140174950.476562 M03 S0
G1 X-53232140174950.578125 Y-30381433910671.933594 M03 S0
X-53232140174950.476562 M03 S0
X-53232140174957.679688 M03 S1000
X-53232140174973.28125 M03 S0
X-53232140174977.976562 M03 S1000
X-53232140174977.976562 M03 S0
G1 X-53232140174978.078125 Y-30381433910671.832031 M03 S0
X-53232140174978.078125 M03 S0
X-53232140174973.382812 M03 S1000
X-53232140174957.578125 M03 S0
X-53232140174950.382812 M03 S1000
X-53232140174950.382812 M03 S0
G1 X-53232140174950.476562 Y-30381433910671.734375 M03 S0
X-53232140174950.382812 M03 S0
X-53232140174957.578125 M03 S1000
X-53232140174973.382812 M03 S0
X-53232140174978.078125 M03 S1000
X-53232140174978.078125 M03 S0
G1 X-53232140174978.078125 Y-30381433910671.632812 M03 S0
X-53232140174978.078125 M03 S0
X-53232140174973.476562 M03 S1000
X-53232140174957.476562 M03 S0
X-53232140174950.382812 M03 S1000
X-53232140174950.382812 M03 S0
G1 X-53232140174950.476562 Y-30381433910671.53125 M03 S0
X-53232140174950.382812 M03 S0
X-53232140174957.382812 M03 S1000
X-53232140174973.578125 M03 S0
X-53232140174978.078125 M03 S1000
X-53232140174978.078125 M03 S0
G1 X-53232140174978.078125 Y-30381433910671.433594 M03 S0
X-53232140174978.078125 M03 S0
X-53232140174973.78125 M03 S1000
X-53232140174957.179688 M03 S0
X-53232140174950.382812 M03 S1000
X-53232140174950.382812 M03 S0
G1 X-53232140174950.476562 Y-30381433910671.332031 M03 S0
X-53232140174950.382812 M03 S0
X-53232140174956.976562 M03 S1000
X-53232140174973.976562 M03 S0
X-53232140174978.078125 M03 S1000
X-53232140174978.078125 M03 S0
G1 X-53232140174978.078125 Y-30381433910671.234375 M03 S0
X-53232140174978.078125 M03 S0
X-53232140174974.28125 M03 S1000
X-53232140174954.179688 M03 S0
X-53232140174950.382812 M03 S1000
X-53232140174950.382812 M03 S0
G1 X-53232140174950.476562 Y-30381433910671.132812 M03 S0
X-53232140174950.382812 M03 S0
X-53232140174953.976562 M03 S1000
X-53232140174974.476562 M03 S0
X-53232140174978.078125 M03 S1000
X-53232140174978.078125 M03 S0
G1 X-53232140174978.078125 Y-30381433910671.03125 M03 S0
X-53232140174978.078125 M03 S0
X-53232140174974.679688 M03 S1000
X-53232140174953.78125 M03 S0
X-53232140174950.382812 M03 S1000
X-53232140174950.382812 M03 S0
G1 X-53232140174950.476562 Y-30381433910670.933594 M03 S0
X-53232140174950.382812 M03 S0
X-53232140174953.679688 M03 S1000
X-53232140174974.78125 M03 S0
X-53232140174978.078125 M03 S1000
X-53232140174978.078125 M03 S0
G1 X-53232140174978.078125 Y-30381433910670.832031 M03 S0
X-53232140174978.078125 M03 S0
X-53232140174974.882812 M03 S1000
X-53232140174953.578125 M03 S0
X-53232140174950.382812 M03 S1000
X-53232140174950.382812 M03 S0
G1 X-53232140174950.476562 Y-30381433910670.734375 M03 S0
X-53232140174950.382812 M03 S0
X-53232140174953.476562 M03 S1000
X-53232140174974.976562 M03 S0
X-53232140174978.078125 M03 S1000
X-53232140174978.078125 M03 S0
G1 X-53232140174978.078125 Y-30381433910670.632812 M03 S0
X-53232140174978.078125 M03 S0
X-53232140174975.078125 M03 S1000
X-53232140174953.382812 M03 S0
X-53232140174950.382812 M03 S1000
X-53232140174950.382812 M03 S0
G1 X-53232140174950.476562 Y-30381433910670.53125 M03 S0
X-53232140174950.382812 M03 S0
X-53232140174953.28125 M03 S1000
X-53232140174975.179688 M03 S0
X-53232140174978.078125 M03 S1000
X-53232140174978.078125 M03 S0
G1 X-53232140174978.078125 Y-30381433910670.433594 M03 S0
X-53232140174978.078125 M03 S0
X-53232140174975.179688 M03 S1000
X-53232140174953.28125 M03 S0
X-53232140174950.382812 M03 S1000
X-53232140174950.382812 M03 S0
G1 X-53232140174950.476562 Y-30381433910670.332031 M03 S0
X-53232140174950.382812 M03 S0
X-53232140174953.179688 M03 S1000
X-53232140174975.28125 M03 S0
X-53232140174978.078125 M03 S1000
X-53232140174978.078125 M03 S0
G1 X-53232140174978.078125 Y-30381433910670.234375 M03 S0
X-53232140174978.078125 M03 S0
X-53232140174975.28125 M03 S1000
X-53232140174953.179688 M03 S0
X-53232140174950.382812 M03 S1000
X-53232140174950.382812 M03 S0
G1 X-53232140174950.476562 Y-30381433910670.132812 M03 S0
X-53232140174950.382812 M03 S0
X-53232140174953.078125 M03 S1000
X-53232140174975.382812 M03 S0
X-53232140174978.078125 M03 S1000
X-53232140174978.078125 M03 S0
G1 X-53232140174978.078125 Y-30381433910670.03125 M03 S0
X-53232140174978.078125 M03 S0
X-53232140174975.382812 M03 S1000
X-53232140174953.078125 M03 S0
X-53232140174950.382812 M03 S1000
X-53232140174950.382812 M03 S0
G1 X-53232140174950.476562 Y-30381433910669.933594 M03 S0
X-53232140174950.382812 M03 S0
X-53232140174953.078125 M03 S1000
X-53232140174975.382812 M03 S0
X-53232140174978.078125 M03 S1000
X-53232140174978.078125 M03 S0
G1 X-53232140174977.976562 Y-30381433910669.832031 M03 S0
X-53232140174977.976562 M03 S0
X-53232140174975.476562 M03 S1000
X-53232140174952.976562 M03 S0
X-53232140174950.476562 M03 S1000
X-53232140174950.476562 M03 S0
G1 X-53232140174950.578125 Y-30381433910669.734375 M03 S0
X-53232140174950.476562 M03 S0
X-53232140174952.976562 M03 S1000
X-53232140174975.476562 M03 S0
X-53232140174977.976562 M03 S1000
X-53232140174977.976562 M03 S0
G1 X-53232140174977.976562 Y-30381433910669.632812 M03 S0
X-53232140174977.976562 M03 S0
X-53232140174975.578125 M03 S1000
X-53232140174952.882812 M03 S0
X-53232140174950.476562 M03 S1000
X-53232140174950.476562 M03 S0
G1 X-53232140174950.679688 Y-30381433910669.53125 M03 S0
X-53232140174950.578125 M03 S0
X-53232140174952.882812 M03 S1000
X-53232140174975.578125 M03 S0
X-53232140174977.882812 M03 S1000
X-53232140174977.882812 M03 S0
G1 X-53232140174977.882812 Y-30381433910669.433594 M03 S0
X-53232140174977.882812 M03 S0
X-53232140174975.679688 M03 S1000
X-53232140174952.78125 M03 S0
X-53232140174950.578125 M03 S1000
X-53232140174950.578125 M03 S0
G1 X-53232140174950.78125 Y-30381433910669.332031 M03 S0
X-53232140174950.679688 M03 S0
X-53232140174952.78125 M03 S1000
X-53232140174975.679688 M03 S0
X-53232140174977.78125 M03 S1000
X-53232140174977.78125 M03 S0
G1 X-53232140174977.679688 Y-30381433910669.234375 M03 S0
X-53232140174977.679688 M03 S0
X-53232140174975.78125 M03 S1000
X-53232140174952.679688 M03 S0
X-53232140174950.78125 M03 S1000
X-53232140174950.78125 M03 S0
G1 X-53232140174950.976562 Y-30381433910669.132812 M03 S0
X-53232140174950.882812 M03 S0
X-53232140174952.578125 M03 S1000
X-53232140174975.882812 M03 S0
X-53232140174977.578125 M03 S1000
X-53232140174977.578125 M03 S0
G1 X-53232140174977.476562 Y-30381433910669.03125 M03 S0
X-53232140174977.476562 M03 S0
X-53232140174975.976562 M03 S1000
X-53232140174952.476562 M03 S0
X-53232140174950.976562 M03 S1000
X-53232140174950.976562 M03 S0
G1 X-53232140174951.179688 Y-30381433910668.933594 M03 S0
X-53232140174951.078125 M03 S0
X-53232140174952.28125 M03 S1000
X-53232140174976.179688 M03 S0
X-53232140174977.382812 M03 S1000
X-53232140174977.382812 M03 S0
G1 X-53232140174977.078125 Y-30381433910668.832031 M03 S0
X-53232140174977.078125 M03 S0
X-53232140174976.476562 M03 S1000
X-53232140174951.976562 M03 S0
X-53232140174951.382812 M03 S1000
X-53232140174951.382812 M03 S0
M03 S0
M05
G0 X-53232140174987.976562 Y-30381433910716.132812
(Block-name: fill_seed.nc)
(Block-expand: 0)
(Block-enable: 1)
( Generated by VirTriad   )
( Pic 2 GCode for Grbl    )
( Start Point : LL        )
( Frame Mode  : Abs.      )
( Image Width : 50.0   mm )
(               500    px )
( Image Height: 44.1   mm )
(               441    px )
( X Maximum   : 75.0   mm )
( Y Maximum   : 44.1   mm )
( X Minimum   : -25.0  mm )
( Y Minimum   : 0.0    mm )
( X Overshoot : 25.0   mm )
( Laser Max   : 1000      )
( Feed Rate   : 2500      )
( Pixel Width : 0.1    mm )
( Resolution  : 0.1    mm )
( Image Name  : F:\Codez\testvm\gcode\test\fill_seed.png )
G21
G90
F2500
M05
M03 S0
G0 X-2.6 Y4.8
G1 X22.4 M03 S0
X22.6 M03 S1000
X35.1 M03 S0
G1 X47.5 Y4.9 M03 S0
X22.6 M03 S0
X22.4 M03 S1000
X9.9 M03 S0
G1 X-2.8 Y5 M03 S0
X22.2 M03 S0
X22.8 M03 S1000
X35.3 M03 S0
G1 X47.7 Y5.1 M03 S0
X22.8 M03 S0
X22.2 M03 S1000
X9.7 M03 S0
G1 X-2.9 Y5.2 M03 S0
X22.1 M03 S0
X22.8 M03 S1000
X35.3 M03 S0
G1 X47.6 Y5.3 M03 S0
X22.7 M03 S0
X22 M03 S1000
X9.5 M03 S0
G1 X-3.1 Y5.4 M03 S0
X21.9 M03 S0
X22.6 M03 S1000
X35.1 M03 S0
G1 X47.5 Y5.5 M03 S0
X22.6 M03 S0
X21.8 M03 S1000
X9.3 M03 S0
G1 X-3.3 Y5.6 M03 S0
X21.7 M03 S0
X22.6 M03 S1000
X35.1 M03 S0
G1 X47.5 Y5.7 M03 S0
X22.6 M03 S0
X21.6 M03 S1000
X9.1 M03 S0
G1 X-3.5 Y5.8 M03 S0
X21.5 M03 S0
X22.6 M03 S1000
X35.1 M03 S0
G1 X47.5 Y5.9 M03 S0
X22.6 M03 S0
X21.4 M03 S1000
X8.9 M03 S0
G1 X-3.7 Y6 M03 S0
X21.3 M03 S0
X22.6 M03 S1000
X35.1 M03 S0
G1 X47.4 Y6.1 M03 S0
X22.5 M03 S0
X21.2 M03 S1000
X8.7 M03 S0
G1 X-3.9 Y6.2 M03 S0
X21.1 M03 S0
X22.4 M03 S1000
X34.9 M03 S0
G1 X47.3 Y6.3 M03 S0
X22.4 M03 S0
X20.9 M03 S1000
X8.4 M03 S0
G1 X-4.1 Y6.4 M03 S0
X20.9 M03 S0
X22.4 M03 S1000
X34.9 M03 S0
G1 X47.3 Y6.5 M03 S0
X22.4 M03 S0
X20.7 M03 S1000
X8.2 M03 S0
G1 X-4.3 Y6.6 M03 S0
X20.7 M03 S0
X22.4 M03 S1000
X34.9 M03 S0
G1 X47.1 Y6.7 M03 S0
X22.2 M03 S0
X20.5 M03 S1000
X8 M03 S0
G1 X-4.5 Y6.8 M03 S0
X20.5 M03 S0
X22.2 M03 S1000
X34.7 M03 S0
G1 X47.1 Y6.9 M03 S0
X22.2 M03 S0
X20.3 M03 S1000
X7.8 M03 S0
G1 X-4.7 Y7 M03 S0
X20.3 M03 S0
X22.2 M03 S1000
X34.7 M03 S0
G1 X47.1 Y7.1 M03 S0
X22.2 M03 S0
X20 M03 S1000
X7.5 M03 S0
G1 X-5.1 Y7.2 M03 S0
X19.9 M03 S0
X22.2 M03 S1000
X34.7 M03 S0
G1 X47.1 Y7.3 M03 S0
X22.2 M03 S0
X19.8 M03 S1000
X7.3 M03 S0
G1 X-5.3 Y7.4 M03 S0
X19.7 M03 S0
X22.2 M03 S1000
X34.7 M03 S0
G1 X47.1 Y7.5 M03 S0
X22.2 M03 S0
X19.6 M03 S1000
X7.1 M03 S0
G1 X-5.5 Y7.6 M03 S0
X19.5 M03 S0
X22.2 M03 S1000
X34.7 M03 S0
G1 X46.9 Y7.7 M03 S0
X22 M03 S0
X19.4 M03 S1000
X6.9 M03 S0
G1 X-5.7 Y7.8 M03 S0
X19.3 M03 S0
X22 M03 S1000
X34.5 M03 S0
G1 X46.9 Y7.9 M03 S0
X22 M03 S0
X19 M03 S1000
X6.5 M03 S0
G1 X-6.1 Y8 M03 S0
X18.9 M03 S0
X22 M03 S1000
X34.5 M03 S0
G1 X46.9 Y8.1 M03 S0
X22 M03 S0
X18.8 M03 S1000
X6.3 M03 S0
G1 X-6.5 Y8.2 M03 S0
X18.5 M03 S0
X18.6 M03 S1000
X18.7 M03 S0
X22 M03 S1000
X34.5 M03 S0
G1 X46.9 Y8.3 M03 S0
X22 M03 S0
X18.4 M03 S1000
X5.9 M03 S0
G1 X-6.7 Y8.4 M03 S0
X18.3 M03 S0
X22 M03 S1000
X34.5 M03 S0
G1 X46.9 Y8.5 M03 S0
X22 M03 S0
X18.2 M03 S1000
X5.7 M03 S0
G1 X-7.1 Y8.6 M03 S0
X17.9 M03 S0
X21.9 M03 S1000
X34.4 M03 S0
G1 X46.7 Y8.7 M03 S0
X21.8 M03 S0
X17.8 M03 S1000
X5.3 M03 S0
G1 X-7.3 Y8.8 M03 S0
X17.7 M03 S0
X21.8 M03 S1000
X34.3 M03 S0
G1 X46.7 Y8.9 M03 S0
X21.8 M03 S0
X17.6 M03 S1000
X5.1 M03 S0
G1 X-7.7 Y9 M03 S0
X17.3 M03 S0
X21.8 M03 S1000
X34.3 M03 S0
G1 X46.7 Y9.1 M03 S0
X21.8 M03 S0
X17.2 M03 S1000
X4.7 M03 S0
G1 X-8.1 Y9.2 M03 S0
X16.9 M03 S0
X21.8 M03 S1000
X34.3 M03 S0
G1 X46.7 Y9.3 M03 S0
X21.8 M03 S0
X16.8 M03 S1000
X4.3 M03 S0
G1 X-8.5 Y9.4 M03 S0
X16.5 M03 S0
X21.8 M03 S1000
X34.3 M03 S0
G1 X46.7 Y9.5 M03 S0
X21.8 M03 S0
X16.5 M03 S1000
X4 M03 S0
G1 X-8.9 Y9.6 M03 S0
X16.1 M03 S0
X21.8 M03 S1000
X34.3 M03 S0
G1 X46.7 Y9.7 M03 S0
X21.8 M03 S0
X16.1 M03 S1000
X3.6 M03 S0
G1 X-9.3 Y9.8 M03 S0
X15.7 M03 S0
X21.8 M03 S1000
X34.3 M03 S0
G1 X46.7 Y9.9 M03 S0
X21.8 M03 S0
X15.7 M03 S1000
X3.2 M03 S0
G1 X-9.7 Y10 M03 S0
X15.3 M03 S0
X21.8 M03 S1000
X34.3 M03 S0
G1 X46.7 Y10.1 M03 S0
X21.8 M03 S0
X15.3 M03 S1000
X2.8 M03 S0
G1 X-10 Y10.2 M03 S0
X15 M03 S0
X21.8 M03 S1000
X34.3 M03 S0
G1 X46.7 Y10.3 M03 S0
X21.8 M03 S0
X14.9 M03 S1000
X2.4 M03 S0
G1 X-10.6 Y10.4 M03 S0
X14.4 M03 S0
X21.8 M03 S1000
X34.3 M03 S0
G1 X46.6 Y10.5 M03 S0
X21.7 M03 S0
X14.3 M03 S1000
X14.2 M03 S0
X14.1 M03 S1000
X1.6 M03 S0
G1 X-11 Y10.6 M03 S0
X14 M03 S0
X21.6 M03 S1000
X34.1 M03 S0
G1 X46.5 Y10.7 M03 S0
X21.6 M03 S0
X13.5 M03 S1000
X1 M03 S0
G1 X-11.6 Y10.8 M03 S0
X13.4 M03 S0
X21.6 M03 S1000
X34.1 M03 S0
G1 X46.5 Y10.9 M03 S0
X21.6 M03 S0
X12.9 M03 S1000
X0.4 M03 S0
G1 X-12.2 Y11 M03 S0
X12.8 M03 S0
X21.6 M03 S1000
X34.1 M03 S0
G1 X46.5 Y11.1 M03 S0
X21.6 M03 S0
X12.3 M03 S1000
X-0.2 M03 S0
G1 X-12.7 Y11.2 M03 S0
X12.3 M03 S0
X21.6 M03 S1000
X34.1 M03 S0
G1 X46.5 Y11.3 M03 S0
X21.6 M03 S0
X11.5 M03 S1000
X-1 M03 S0
G1 X-13.5 Y11.4 M03 S0
X11.5 M03 S0
X21.6 M03 S1000
X34.1 M03 S0
G1 X46.5 Y11.5 M03 S0
X21.6 M03 S0
X10.6 M03 S1000
X-1.9 M03 S0
G1 X-14.5 Y11.6 M03 S0
X10.5 M03 S0
X21.6 M03 S1000
X34.1 M03 S0
G1 X46.5 Y11.7 M03 S0
X21.6 M03 S0
X10.4 M03 S1000
X-2.1 M03 S0
G1 X-14.6 Y11.8 M03 S0
X10.4 M03 S0
X21.6 M03 S1000
X34.1 M03 S0
G1 X46.5 Y11.9 M03 S0
X21.6 M03 S0
X10.5 M03 S1000
X-2 M03 S0
G1 X-14.4 Y12 M03 S0
X10.6 M03 S0
X21.6 M03 S1000
X34.1 M03 S0
G1 X46.5 Y12.1 M03 S0
X21.6 M03 S0
X10.7 M03 S1000
X-1.8 M03 S0
G1 X-14.2 Y12.2 M03 S0
X10.8 M03 S0
X21.6 M03 S1000
X34.1 M03 S0
G1 X66.6 Y12.3 M03 S0
X41.7 M03 S0
X41 M03 S1000
X21.6 M03 S0
X11.5 M03 S1000
X-1 M03 S0
G1 X-13.4 Y12.4 M03 S0
X11.6 M03 S0
X21.6 M03 S1000
X41 M03 S0
X41.8 M03 S1000
X54.3 M03 S0
G1 X66.8 Y12.5 M03 S0
X41.9 M03 S0
X39.5 M03 S1000
X21.6 M03 S0
X12.3 M03 S1000
X-0.2 M03 S0
G1 X-12.6 Y12.6 M03 S0
X12.4 M03 S0
X12.5 M03 S1000
X12.8 M03 S0
X21.6 M03 S1000
X39.4 M03 S0
X41.9 M03 S1000
X54.4 M03 S0
G1 X66.7 Y12.7 M03 S0
X41.8 M03 S0
X38.5 M03 S1000
X21.6 M03 S0
X12.8 M03 S1000
X0.3 M03 S0
G1 X-11.6 Y12.8 M03 S0
X13.4 M03 S0
X21.6 M03 S1000
X38.4 M03 S0
X41.8 M03 S1000
X54.3 M03 S0
G1 X66.7 Y12.9 M03 S0
X41.8 M03 S0
X37.7 M03 S1000
X21.6 M03 S0
X13.4 M03 S1000
X0.9 M03 S0
G1 X-11.1 Y13 M03 S0
X13.9 M03 S0
X21.6 M03 S1000
X37.1 M03 S0
X41.6 M03 S1000
X54.1 M03 S0
G1 X66.5 Y13.1 M03 S0
X41.6 M03 S0
X37 M03 S1000
X21.6 M03 S0
X14 M03 S1000
X1.5 M03 S0
G1 X-10.5 Y13.2 M03 S0
X14.5 M03 S0
X21.8 M03 S1000
X36.5 M03 S0
X41.4 M03 S1000
X53.9 M03 S0
G1 X66.3 Y13.3 M03 S0
X41.4 M03 S0
X36.4 M03 S1000
X21.8 M03 S0
X14.6 M03 S1000
X2.1 M03 S0
G1 X-10.1 Y13.4 M03 S0
X14.9 M03 S0
X21.8 M03 S1000
X35.9 M03 S0
X41.2 M03 S1000
X53.7 M03 S0
G1 X66.1 Y13.5 M03 S0
X41.2 M03 S0
X35.8 M03 S1000
X21.8 M03 S0
X15 M03 S1000
X2.5 M03 S0
G1 X-9.7 Y13.6 M03 S0
X15.3 M03 S0
X21.8 M03 S1000
X35.3 M03 S0
X41.2 M03 S1000
X53.7 M03 S0
G1 X66.1 Y13.7 M03 S0
X41.2 M03 S0
X35.2 M03 S1000
X21.8 M03 S0
X15.4 M03 S1000
X2.9 M03 S0
G1 X-9.3 Y13.8 M03 S0
X15.7 M03 S0
X21.8 M03 S1000
X34.9 M03 S0
X41 M03 S1000
X53.5 M03 S0
G1 X65.9 Y13.9 M03 S0
X41 M03 S0
X34.9 M03 S1000
X21.8 M03 S0
X15.7 M03 S1000
X3.2 M03 S0
G1 X-8.9 Y14 M03 S0
X16.1 M03 S0
X21.8 M03 S1000
X34.5 M03 S0
X40.8 M03 S1000
X53.3 M03 S0
G1 X65.7 Y14.1 M03 S0
X40.8 M03 S0
X34.5 M03 S1000
X21.8 M03 S0
X16.1 M03 S1000
X3.6 M03 S0
G1 X-8.5 Y14.2 M03 S0
X16.5 M03 S0
X21.8 M03 S1000
X34.1 M03 S0
X40.6 M03 S1000
X53.1 M03 S0
G1 X65.5 Y14.3 M03 S0
X40.6 M03 S0
X34.1 M03 S1000
X21.8 M03 S0
X16.5 M03 S1000
X4 M03 S0
G1 X-8.1 Y14.4 M03 S0
X16.9 M03 S0
X21.8 M03 S1000
X33.7 M03 S0
X40.4 M03 S1000
X52.9 M03 S0
G1 X65.3 Y14.5 M03 S0
X40.4 M03 S0
X33.7 M03 S1000
X21.8 M03 S0
X16.9 M03 S1000
X4.4 M03 S0
G1 X-7.8 Y14.6 M03 S0
X17.2 M03 S0
X21.8 M03 S1000
X33.4 M03 S0
X40.4 M03 S1000
X52.9 M03 S0
G1 X65.2 Y14.7 M03 S0
X40.3 M03 S0
X33.3 M03 S1000
X21.8 M03 S0
X17.3 M03 S1000
X4.8 M03 S0
G1 X-7.4 Y14.8 M03 S0
X17.6 M03 S0
X21.8 M03 S1000
X33 M03 S0
X40.2 M03 S1000
X52.7 M03 S0
G1 X65 Y14.9 M03 S0
X40.1 M03 S0
X32.9 M03 S1000
X21.9 M03 S0
X17.7 M03 S1000
X5.2 M03 S0
G1 X-7.2 Y15 M03 S0
X17.8 M03 S0
X22 M03 S1000
X32.6 M03 S0
X40 M03 S1000
X52.5 M03 S0
G1 X64.8 Y15.1 M03 S0
X39.9 M03 S0
X32.5 M03 S1000
X22 M03 S0
X18.1 M03 S1000
X5.6 M03 S0
G1 X-6.8 Y15.2 M03 S0
X18.2 M03 S0
X22 M03 S1000
X32.2 M03 S0
X39.8 M03 S1000
X52.3 M03 S0
G1 X64.6 Y15.3 M03 S0
X39.7 M03 S0
X32.1 M03 S1000
X22 M03 S0
X18.3 M03 S1000
X5.8 M03 S0
G1 X-6.6 Y15.4 M03 S0
X18.4 M03 S0
X22 M03 S1000
X32 M03 S0
X39.6 M03 S1000
X52.1 M03 S0
G1 X64.4 Y15.5 M03 S0
X39.5 M03 S0
X31.7 M03 S1000
X22 M03 S0
X18.7 M03 S1000
X6.2 M03 S0
G1 X-6.2 Y15.6 M03 S0
X18.8 M03 S0
X22 M03 S1000
X31.6 M03 S0
X39.4 M03 S1000
X51.9 M03 S0
G1 X64.2 Y15.7 M03 S0
X39.3 M03 S0
X31.5 M03 S1000
X22 M03 S0
X18.9 M03 S1000
X6.4 M03 S0
G1 X-6 Y15.8 M03 S0
X19 M03 S0
X22 M03 S1000
X31.4 M03 S0
X39.2 M03 S1000
X51.7 M03 S0
G1 X64 Y15.9 M03 S0
X39.1 M03 S0
X31.1 M03 S1000
X22 M03 S0
X19.3 M03 S1000
X6.8 M03 S0
G1 X-5.6 Y16 M03 S0
X19.4 M03 S0
X22 M03 S1000
X31 M03 S0
X39.1 M03 S1000
X51.6 M03 S0
G1 X63.8 Y16.1 M03 S0
X38.9 M03 S0
X30.9 M03 S1000
X22.2 M03 S0
X19.5 M03 S1000
X7 M03 S0
G1 X-5.4 Y16.2 M03 S0
X19.6 M03 S0
X22.2 M03 S1000
X30.8 M03 S0
X38.9 M03 S1000
X51.4 M03 S0
G1 X63.6 Y16.3 M03 S0
X38.7 M03 S0
X30.5 M03 S1000
X22.2 M03 S0
X19.7 M03 S1000
X7.2 M03 S0
G1 X-5.2 Y16.4 M03 S0
X19.8 M03 S0
X22.2 M03 S1000
X30.4 M03 S0
X38.7 M03 S1000
X51.2 M03 S0
G1 X63.4 Y16.5 M03 S0
X38.5 M03 S0
X30.3 M03 S1000
X22.2 M03 S0
X19.9 M03 S1000
X7.4 M03 S0
G1 X-5 Y16.6 M03 S0
X20 M03 S0
X22.2 M03 S1000
X30.2 M03 S0
X38.5 M03 S1000
X51 M03 S0
G1 X63.2 Y16.7 M03 S0
X38.3 M03 S0
X30.1 M03 S1000
X22.2 M03 S0
X20.3 M03 S1000
X7.8 M03 S0
G1 X-4.6 Y16.8 M03 S0
X20.4 M03 S0
X22.2 M03 S1000
X30 M03 S0
X38.2 M03 S1000
X50.7 M03 S0
G1 X63 Y16.9 M03 S0
X38.1 M03 S0
X29.9 M03 S1000
X22.2 M03 S0
X20.5 M03 S1000
X8 M03 S0
G1 X-4.4 Y17 M03 S0
X20.6 M03 S0
X22.3 M03 S1000
X29.8 M03 S0
X38 M03 S1000
X50.5 M03 S0
G1 X62.6 Y17.1 M03 S0
X37.7 M03 S0
X29.5 M03 S1000
X22.4 M03 S0
X20.7 M03 S1000
X8.2 M03 S0
G1 X-4.2 Y17.2 M03 S0
X20.8 M03 S0
X22.4 M03 S1000
X29.4 M03 S0
X37.6 M03 S1000
X50.1 M03 S0
G1 X62.4 Y17.3 M03 S0
X37.5 M03 S0
X29.3 M03 S1000
X22.4 M03 S0
X20.9 M03 S1000
X8.4 M03 S0
G1 X-4 Y17.4 M03 S0
X21 M03 S0
X22.4 M03 S1000
X29.2 M03 S0
X37.4 M03 S1000
X49.9 M03 S0
G1 X62.2 Y17.5 M03 S0
X37.3 M03 S0
X29.1 M03 S1000
X22.4 M03 S0
X21.1 M03 S1000
X8.6 M03 S0
G1 X-3.8 Y17.6 M03 S0
X21.2 M03 S0
X22.5 M03 S1000
X29 M03 S0
X37.2 M03 S1000
X49.7 M03 S0
G1 X62 Y17.7 M03 S0
X37.1 M03 S0
X28.9 M03 S1000
X22.6 M03 S0
X21.3 M03 S1000
X8.8 M03 S0
G1 X-3.6 Y17.8 M03 S0
X21.4 M03 S0
X22.6 M03 S1000
X28.8 M03 S0
X36.8 M03 S1000
X49.3 M03 S0
G1 X61.7 Y17.9 M03 S0
X36.8 M03 S0
X28.7 M03 S1000
X22.6 M03 S0
X21.5 M03 S1000
X9 M03 S0
G1 X-3.4 Y18 M03 S0
X21.6 M03 S0
X22.6 M03 S1000
X28.6 M03 S0
X36.6 M03 S1000
X49.1 M03 S0
G1 X61.5 Y18.1 M03 S0
X36.6 M03 S0
X28.5 M03 S1000
X22.6 M03 S0
X21.7 M03 S1000
X9.2 M03 S0
G1 X-3.2 Y18.2 M03 S0
X21.8 M03 S0
X22.6 M03 S1000
X28.4 M03 S0
X36.4 M03 S1000
X48.9 M03 S0
G1 X61.3 Y18.3 M03 S0
X36.4 M03 S0
X28.3 M03 S1000
X22.6 M03 S0
X21.9 M03 S1000
X9.4 M03 S0
G1 X-3 Y18.4 M03 S0
X22 M03 S0
X22.8 M03 S1000
X28.2 M03 S0
X36 M03 S1000
X48.5 M03 S0
G1 X60.9 Y18.5 M03 S0
X36 M03 S0
X28.1 M03 S1000
X22.8 M03 S0
X22.1 M03 S1000
X9.6 M03 S0
G1 X-2.8 Y18.6 M03 S0
X22.2 M03 S0
X22.8 M03 S1000
X28 M03 S0
X35.8 M03 S1000
X48.3 M03 S0
G1 X60.7 Y18.7 M03 S0
X35.8 M03 S0
X27.9 M03 S1000
X22.8 M03 S0
X22.3 M03 S1000
X9.8 M03 S0
G1 X-2.6 Y18.8 M03 S0
X22.4 M03 S0
X22.6 M03 S1000
X27.8 M03 S0
X35.4 M03 S1000
X47.9 M03 S0
G1 X60.3 Y18.9 M03 S0
X35.4 M03 S0
X27.7 M03 S1000
X22.6 M03 S0
X22.5 M03 S1000
X10 M03 S0
G1 X2.6 Y19 M03 S0
X27.6 M03 S0
X35.1 M03 S1000
X47.6 M03 S0
G1 X59.9 Y19.1 M03 S0
X35 M03 S0
X27.5 M03 S1000
X15 M03 S0
G1 X2.4 Y19.2 M03 S0
X27.4 M03 S0
X34.9 M03 S1000
X47.4 M03 S0
G1 X59.7 Y19.3 M03 S0
X34.8 M03 S0
X27.3 M03 S1000
X14.8 M03 S0
G1 X2.2 Y19.4 M03 S0
X27.2 M03 S0
X34.5 M03 S1000
X47 M03 S0
G1 X59.3 Y19.5 M03 S0
X34.4 M03 S0
X27.2 M03 S1000
X14.7 M03 S0
G1 X2.2 Y19.6 M03 S0
X27.2 M03 S0
X34.1 M03 S1000
X46.6 M03 S0
G1 X58.7 Y19.7 M03 S0
X33.8 M03 S0
X27.1 M03 S1000
X14.6 M03 S0
G1 X2 Y19.8 M03 S0
X27 M03 S0
X33.7 M03 S1000
X46.2 M03 S0
G1 X58.3 Y19.9 M03 S0
X33.4 M03 S0
X26.9 M03 S1000
X14.4 M03 S0
G1 X1.8 Y20 M03 S0
X26.8 M03 S0
X33.3 M03 S1000
X45.8 M03 S0
G1 X57.9 Y20.1 M03 S0
X33 M03 S0
X26.7 M03 S1000
X14.2 M03 S0
G1 X1.6 Y20.2 M03 S0
X26.6 M03 S0
X32.9 M03 S1000
X45.4 M03 S0
G1 X57.3 Y20.3 M03 S0
X32.4 M03 S0
X26.5 M03 S1000
X14 M03 S0
G1 X1.4 Y20.4 M03 S0
X26.4 M03 S0
X32.4 M03 S1000
X44.9 M03 S0
G1 X56.9 Y20.5 M03 S0
X32 M03 S0
X26.4 M03 S1000
X13.9 M03 S0
G1 X1.4 Y20.6 M03 S0
X26.4 M03 S0
X32 M03 S1000
X44.5 M03 S0
G1 X56.3 Y20.7 M03 S0
X31.4 M03 S0
X26.3 M03 S1000
X13.8 M03 S0
G1 X1.2 Y20.8 M03 S0
X26.2 M03 S0
X31.4 M03 S1000
X43.9 M03 S0
G1 X55.8 Y20.9 M03 S0
X30.9 M03 S0
X26.1 M03 S1000
X13.6 M03 S0
G1 X1 Y21 M03 S0
X26 M03 S0
X30.8 M03 S1000
X43.3 M03 S0
G1 X55.2 Y21.1 M03 S0
X30.3 M03 S0
X25.9 M03 S1000
X13.4 M03 S0
G1 X0.9 Y21.2 M03 S0
X25.9 M03 S0
X30.2 M03 S1000
X42.7 M03 S0
G1 X54.4 Y21.3 M03 S0
X29.5 M03 S0
X25.9 M03 S1000
X13.4 M03 S0
G1 X0.8 Y21.4 M03 S0
X25.8 M03 S0
X29.4 M03 S1000
X41.9 M03 S0
G1 X53.4 Y21.5 M03 S0
X28.5 M03 S0
X25.7 M03 S1000
X13.2 M03 S0
G1 X0.7 Y21.6 M03 S0
X25.7 M03 S0
X28.5 M03 S1000
X41 M03 S0
G1 X52.3 Y21.7 M03 S0
X27.4 M03 S0
X25.9 M03 S1000
X13.4 M03 S0
G1 X1 Y21.8 M03 S0
X26 M03 S0
X26.1 M03 S1000
X27.1 M03 S0
X27.3 M03 S1000
X39.8 M03 S0
G1 X50.7 Y22.4 M03 S0
X25.8 M03 S0
X25.7 M03 S1000
X23.5 M03 S0
X23.4 M03 S1000
X10.9 M03 S0
G1 X-1.6 Y22.5 M03 S0
X23.4 M03 S0
X23.6 M03 S1000
X25.7 M03 S0
X25.9 M03 S1000
X38.4 M03 S0
G1 X52.6 Y22.6 M03 S0
X27.7 M03 S0
X25.5 M03 S1000
X23.7 M03 S0
X21.7 M03 S1000
X9.2 M03 S0
G1 X-3.4 Y22.7 M03 S0
X21.6 M03 S0
X23.8 M03 S1000
X25.5 M03 S0
X27.8 M03 S1000
X40.3 M03 S0
G1 X53.8 Y22.8 M03 S0
X28.9 M03 S0
X25.5 M03 S1000
X23.8 M03 S0
X20.5 M03 S1000
X8 M03 S0
G1 X-4.5 Y22.9 M03 S0
X20.5 M03 S0
X23.7 M03 S1000
X25.5 M03 S0
X28.9 M03 S1000
X41.4 M03 S0
G1 X54.6 Y23 M03 S0
X29.7 M03 S0
X25.7 M03 S1000
X23.6 M03 S0
X19.8 M03 S1000
X7.3 M03 S0
G1 X-5.3 Y23.1 M03 S0
X19.7 M03 S0
X23.6 M03 S1000
X25.7 M03 S0
X29.7 M03 S1000
X42.2 M03 S0
G1 X55.3 Y23.2 M03 S0
X30.4 M03 S0
X25.7 M03 S1000
X23.6 M03 S0
X19 M03 S1000
X6.5 M03 S0
G1 X-6.1 Y23.3 M03 S0
X18.9 M03 S0
X23.5 M03 S1000
X25.7 M03 S0
X30.5 M03 S1000
X43 M03 S0
G1 X55.9 Y23.4 M03 S0
X31 M03 S0
X25.9 M03 S1000
X23.4 M03 S0
X18.4 M03 S1000
X5.9 M03 S0
G1 X-6.6 Y23.5 M03 S0
X18.4 M03 S0
X23.3 M03 S1000
X25.9 M03 S0
X31.1 M03 S1000
X43.6 M03 S0
G1 X56.5 Y23.6 M03 S0
X31.6 M03 S0
X26 M03 S1000
X24.7 M03 S0
X24.5 M03 S1000
X23.2 M03 S0
X17.8 M03 S1000
X5.3 M03 S0
G1 X-7.2 Y23.7 M03 S0
X17.8 M03 S0
X23.2 M03 S1000
X24.5 M03 S0
X24.8 M03 S1000
X26.1 M03 S0
X31.6 M03 S1000
X44.1 M03 S0
G1 X57.1 Y23.8 M03 S0
X32.2 M03 S0
X26.2 M03 S1000
X24.9 M03 S0
X24.3 M03 S1000
X23.2 M03 S0
X17.3 M03 S1000
X4.8 M03 S0
G1 X-7.8 Y23.9 M03 S0
X17.2 M03 S0
X23.1 M03 S1000
X24.3 M03 S0
X24.9 M03 S1000
X26.3 M03 S0
X32.2 M03 S1000
X44.7 M03 S0
G1 X57.5 Y24 M03 S0
X32.6 M03 S0
X26.3 M03 S1000
X25.1 M03 S0
X24.3 M03 S1000
X23 M03 S0
X16.9 M03 S1000
X4.4 M03 S0
G1 X-8.2 Y24.1 M03 S0
X16.8 M03 S0
X22.9 M03 S1000
X24.3 M03 S0
X25.1 M03 S1000
X26.3 M03 S0
X32.6 M03 S1000
X45.1 M03 S0
G1 X57.8 Y24.2 M03 S0
X32.9 M03 S0
X26.4 M03 S1000
X25.1 M03 S0
X24.1 M03 S1000
X22.8 M03 S0
X16.5 M03 S1000
X4 M03 S0
G1 X-8.6 Y24.3 M03 S0
X16.4 M03 S0
X22.7 M03 S1000
X24.1 M03 S0
X25.2 M03 S1000
X26.6 M03 S0
X33 M03 S1000
X45.5 M03 S0
G1 X58.4 Y24.4 M03 S0
X33.5 M03 S0
X26.6 M03 S1000
X25.3 M03 S0
X24.1 M03 S1000
X22.6 M03 S0
X15.9 M03 S1000
X3.4 M03 S0
G1 X-9.4 Y24.5 M03 S0
X15.6 M03 S0
X22.6 M03 S1000
X24 M03 S0
X25.3 M03 S1000
X26.8 M03 S0
X33.6 M03 S1000
X33.7 M03 S0
X33.8 M03 S1000
X46.3 M03 S0
G1 X58.8 Y24.6 M03 S0
X33.9 M03 S0
X26.8 M03 S1000
X25.3 M03 S0
X24 M03 S1000
X22.6 M03 S0
X15.5 M03 S1000
X3 M03 S0
G1 X-9.6 Y24.7 M03 S0
X15.4 M03 S0
X22.5 M03 S1000
X24 M03 S0
X25.3 M03 S1000
X26.8 M03 S0
X34 M03 S1000
X46.5 M03 S0
G1 X59 Y24.8 M03 S0
X34.1 M03 S0
X26.8 M03 S1000
X25.3 M03 S0
X23.9 M03 S1000
X22.4 M03 S0
X15.3 M03 S1000
X2.8 M03 S0
G1 X-10 Y24.9 M03 S0
X15 M03 S0
X22.3 M03 S1000
X23.8 M03 S0
X25.4 M03 S1000
X27 M03 S0
X34.4 M03 S1000
X46.9 M03 S0
G1 X59.4 Y25 M03 S0
X34.5 M03 S0
X27 M03 S1000
X25.5 M03 S0
X23.8 M03 S1000
X22.2 M03 S0
X14.9 M03 S1000
X2.4 M03 S0
G1 X-10.4 Y25.1 M03 S0
X14.6 M03 S0
X22.1 M03 S1000
X23.8 M03 S0
X25.5 M03 S1000
X27.2 M03 S0
X34.8 M03 S1000
X47.3 M03 S0
G1 X59.8 Y25.2 M03 S0
X34.9 M03 S0
X27.2 M03 S1000
X25.5 M03 S0
X23.8 M03 S1000
X22 M03 S0
X14.6 M03 S1000
X2.1 M03 S0
G1 X-10.8 Y25.3 M03 S0
X14.2 M03 S0
X21.9 M03 S1000
X23.8 M03 S0
X25.6 M03 S1000
X27.4 M03 S0
X35.2 M03 S1000
X47.7 M03 S0
G1 X60.2 Y25.4 M03 S0
X35.3 M03 S0
X27.4 M03 S1000
X25.7 M03 S0
X23.7 M03 S1000
X21.8 M03 S0
X14.2 M03 S1000
X1.7 M03 S0
G1 X-11 Y25.5 M03 S0
X14 M03 S0
X21.7 M03 S1000
X23.6 M03 S0
X25.7 M03 S1000
X27.6 M03 S0
X35.4 M03 S1000
X47.9 M03 S0
G1 X60.4 Y25.6 M03 S0
X35.5 M03 S0
X27.6 M03 S1000
X25.7 M03 S0
X23.6 M03 S1000
X21.6 M03 S0
X14 M03 S1000
X1.5 M03 S0
G1 X-11.4 Y25.7 M03 S0
X13.6 M03 S0
X21.5 M03 S1000
X23.6 M03 S0
X25.7 M03 S1000
X27.8 M03 S0
X35.8 M03 S1000
X48.3 M03 S0
G1 X60.7 Y25.8 M03 S0
X35.8 M03 S0
X27.8 M03 S1000
X25.7 M03 S0
X23.5 M03 S1000
X21.4 M03 S0
X13.6 M03 S1000
X1.1 M03 S0
G1 X-11.8 Y25.9 M03 S0
X13.2 M03 S0
X21.3 M03 S1000
X23.4 M03 S0
X25.8 M03 S1000
X28 M03 S0
X36.2 M03 S1000
X48.7 M03 S0
G1 X61.1 Y26 M03 S0
X36.2 M03 S0
X28 M03 S1000
X25.9 M03 S0
X23.4 M03 S1000
X21.3 M03 S0
X13.2 M03 S1000
X0.7 M03 S0
G1 X-12 Y26.1 M03 S0
X13 M03 S0
X21.3 M03 S1000
X23.4 M03 S0
X25.9 M03 S1000
X28.2 M03 S0
X36.4 M03 S1000
X48.9 M03 S0
G1 X61.3 Y26.2 M03 S0
X36.4 M03 S0
X28.2 M03 S1000
X25.9 M03 S0
X23.4 M03 S1000
X21.2 M03 S0
X13 M03 S1000
X0.5 M03 S0
G1 X-12.1 Y26.3 M03 S0
X12.9 M03 S0
X21.1 M03 S1000
X23.4 M03 S0
X26 M03 S1000
X28.4 M03 S0
X36.6 M03 S1000
X49.1 M03 S0
G1 X61.5 Y26.4 M03 S0
X36.6 M03 S0
X28.4 M03 S1000
X26.1 M03 S0
X23.3 M03 S1000
X21 M03 S0
X12.8 M03 S1000
X0.3 M03 S0
G1 X-12.5 Y26.5 M03 S0
X12.5 M03 S0
X20.9 M03 S1000
X23.2 M03 S0
X26 M03 S1000
X28.6 M03 S0
X37 M03 S1000
X49.5 M03 S0
G1 X61.9 Y26.6 M03 S0
X37 M03 S0
X28.7 M03 S1000
X26 M03 S0
X23.2 M03 S1000
X20.8 M03 S0
X12.4 M03 S1000
X-0.1 M03 S0
G1 X-12.7 Y26.7 M03 S0
X12.3 M03 S0
X20.7 M03 S1000
X23.2 M03 S0
X26 M03 S1000
X28.7 M03 S0
X37.2 M03 S1000
X49.7 M03 S0
G1 X62.2 Y26.8 M03 S0
X37.3 M03 S0
X28.9 M03 S1000
X26 M03 S0
X23.2 M03 S1000
X20.4 M03 S0
X12.2 M03 S1000
X-0.3 M03 S0
G1 X-12.9 Y26.9 M03 S0
X12.1 M03 S0
X20.3 M03 S1000
X23.2 M03 S0
X26 M03 S1000
X28.9 M03 S0
X37.4 M03 S1000
X49.9 M03 S0
G1 X62.6 Y27 M03 S0
X37.7 M03 S0
X29.1 M03 S1000
X26.2 M03 S0
X23.1 M03 S1000
X20.2 M03 S0
X11.8 M03 S1000
X-0.7 M03 S0
G1 X-13.3 Y27.1 M03 S0
X11.7 M03 S0
X20.1 M03 S1000
X23 M03 S0
X26.2 M03 S1000
X29.1 M03 S0
X37.7 M03 S1000
X50.2 M03 S0
G1 X62.8 Y27.2 M03 S0
X37.9 M03 S0
X29.3 M03 S1000
X26.2 M03 S0
X23 M03 S1000
X20 M03 S0
X11.6 M03 S1000
X-0.9 M03 S0
G1 X-13.5 Y27.3 M03 S0
X11.5 M03 S0
X19.9 M03 S1000
X23 M03 S0
X26.2 M03 S1000
X29.3 M03 S0
X37.9 M03 S1000
X50.4 M03 S0
G1 X63 Y27.4 M03 S0
X38.1 M03 S0
X29.5 M03 S1000
X26.2 M03 S0
X23 M03 S1000
X19.8 M03 S0
X11.4 M03 S1000
X-1.1 M03 S0
G1 X-13.7 Y27.5 M03 S0
X11.3 M03 S0
X19.7 M03 S1000
X23 M03 S0
X26.2 M03 S1000
X29.5 M03 S0
X38.1 M03 S1000
X50.6 M03 S0
G1 X63.2 Y27.6 M03 S0
X38.3 M03 S0
X29.7 M03 S1000
X26.4 M03 S0
X23 M03 S1000
X19.6 M03 S0
X11.2 M03 S1000
X-1.3 M03 S0
G1 X-13.9 Y27.7 M03 S0
X11.1 M03 S0
X19.5 M03 S1000
X23 M03 S0
X26.4 M03 S1000
X29.7 M03 S0
X38.3 M03 S1000
X50.8 M03 S0
G1 X63.4 Y27.8 M03 S0
X38.5 M03 S0
X29.9 M03 S1000
X26.4 M03 S0
X22.8 M03 S1000
X19.4 M03 S0
X11 M03 S1000
X-1.5 M03 S0
G1 X-14.1 Y27.9 M03 S0
X10.9 M03 S0
X19.3 M03 S1000
X22.8 M03 S0
X26.4 M03 S1000
X29.9 M03 S0
X38.5 M03 S1000
X51 M03 S0
G1 X63.6 Y28 M03 S0
X38.7 M03 S0
X30.3 M03 S1000
X26.4 M03 S0
X22.8 M03 S1000
X19 M03 S0
X10.8 M03 S1000
X-1.7 M03 S0
G1 X-14.3 Y28.1 M03 S0
X10.7 M03 S0
X18.9 M03 S1000
X22.8 M03 S0
X26.4 M03 S1000
X30.3 M03 S0
X38.7 M03 S1000
X51.2 M03 S0
G1 X63.8 Y28.2 M03 S0
X38.9 M03 S0
X30.5 M03 S1000
X26.4 M03 S0
X22.8 M03 S1000
X18.8 M03 S0
X10.6 M03 S1000
X-1.9 M03 S0
G1 X-14.5 Y28.3 M03 S0
X10.5 M03 S0
X18.7 M03 S1000
X22.8 M03 S0
X26.5 M03 S1000
X30.5 M03 S0
X38.9 M03 S1000
X51.4 M03 S0
G1 X64 Y28.4 M03 S0
X39.1 M03 S0
X30.6 M03 S1000
X26.6 M03 S0
X22.8 M03 S1000
X18.6 M03 S0
X10.4 M03 S1000
X-2.1 M03 S0
G1 X-14.7 Y28.5 M03 S0
X10.3 M03 S0
X18.5 M03 S1000
X22.8 M03 S0
X26.6 M03 S1000
X30.7 M03 S0
X39.1 M03 S1000
X51.6 M03 S0
G1 X64.2 Y28.6 M03 S0
X39.3 M03 S0
X31 M03 S1000
X26.6 M03 S0
X22.6 M03 S1000
X18.2 M03 S0
X10.2 M03 S1000
X-2.3 M03 S0
G1 X-14.9 Y28.7 M03 S0
X10.1 M03 S0
X18.1 M03 S1000
X22.6 M03 S0
X26.6 M03 S1000
X31.1 M03 S0
X39.3 M03 S1000
X51.8 M03 S0
G1 X64.4 Y28.8 M03 S0
X39.5 M03 S0
X31.2 M03 S1000
X26.6 M03 S0
X22.6 M03 S1000
X18 M03 S0
X10 M03 S1000
X-2.5 M03 S0
G1 X-15.1 Y28.9 M03 S0
X9.9 M03 S0
X17.9 M03 S1000
X22.6 M03 S0
X26.6 M03 S1000
X31.5 M03 S0
X39.5 M03 S1000
X52 M03 S0
G1 X64.5 Y29 M03 S0
X39.6 M03 S0
X31.6 M03 S1000
X26.6 M03 S0
X22.6 M03 S1000
X17.8 M03 S0
X9.8 M03 S1000
X-2.7 M03 S0
G1 X-15.3 Y29.1 M03 S0
X9.7 M03 S0
X17.5 M03 S1000
X22.6 M03 S0
X26.6 M03 S1000
X31.7 M03 S0
X39.7 M03 S1000
X52.2 M03 S0
G1 X64.7 Y29.2 M03 S0
X39.8 M03 S0
X31.8 M03 S1000
X26.6 M03 S0
X22.6 M03 S1000
X17.4 M03 S0
X9.6 M03 S1000
X-2.9 M03 S0
G1 X-15.5 Y29.3 M03 S0
X9.5 M03 S0
X17.1 M03 S1000
X22.6 M03 S0
X26.7 M03 S1000
X32.1 M03 S0
X40 M03 S1000
X52.5 M03 S0
G1 X64.9 Y29.4 M03 S0
X40 M03 S0
X32.2 M03 S1000
X26.8 M03 S0
X22.6 M03 S1000
X17 M03 S0
X9.4 M03 S1000
X-3.1 M03 S0
G1 X-15.7 Y29.5 M03 S0
X9.3 M03 S0
X16.9 M03 S1000
X22.5 M03 S0
X26.8 M03 S1000
X32.3 M03 S0
X40.2 M03 S1000
X52.7 M03 S0
G1 X65.1 Y29.6 M03 S0
X40.2 M03 S0
X32.4 M03 S1000
X26.8 M03 S0
X22.4 M03 S1000
X16.8 M03 S0
X9.2 M03 S1000
X-3.3 M03 S0
G1 X-15.9 Y29.7 M03 S0
X9.1 M03 S0
X16.5 M03 S1000
X22.4 M03 S0
X26.8 M03 S1000
X32.7 M03 S0
X40.4 M03 S1000
X52.9 M03 S0
G1 X65.3 Y29.8 M03 S0
X40.4 M03 S0
X32.8 M03 S1000
X26.8 M03 S0
X22.4 M03 S1000
X16.4 M03 S0
X9 M03 S1000
X-3.5 M03 S0
G1 X-16.1 Y29.9 M03 S0
X8.9 M03 S0
X16.1 M03 S1000
X22.4 M03 S0
X26.8 M03 S1000
X33.1 M03 S0
X40.6 M03 S1000
X53.1 M03 S0
G1 X65.5 Y30 M03 S0
X40.6 M03 S0
X33.2 M03 S1000
X26.8 M03 S0
X22.4 M03 S1000
X16.1 M03 S0
X8.8 M03 S1000
X-3.7 M03 S0
G1 X-16.2 Y30.1 M03 S0
X8.8 M03 S0
X15.7 M03 S1000
X22.4 M03 S0
X26.8 M03 S1000
X33.5 M03 S0
X40.6 M03 S1000
X53.1 M03 S0
G1 X65.5 Y30.2 M03 S0
X40.6 M03 S0
X33.6 M03 S1000
X26.8 M03 S0
X22.4 M03 S1000
X15.7 M03 S0
X8.8 M03 S1000
X-3.7 M03 S0
G1 X-16.3 Y30.3 M03 S0
X8.7 M03 S0
X15.3 M03 S1000
X22.4 M03 S0
X26.8 M03 S1000
X33.9 M03 S0
X40.8 M03 S1000
X53.3 M03 S0
G1 X65.7 Y30.4 M03 S0
X40.8 M03 S0
X34 M03 S1000
X26.8 M03 S0
X22.4 M03 S1000
X15.3 M03 S0
X8.6 M03 S1000
X-3.9 M03 S0
G1 X-16.5 Y30.5 M03 S0
X8.5 M03 S0
X14.9 M03 S1000
X22.4 M03 S0
X26.8 M03 S1000
X34.3 M03 S0
X41 M03 S1000
X53.5 M03 S0
G1 X65.9 Y30.6 M03 S0
X41 M03 S0
X34.3 M03 S1000
X26.8 M03 S0
X22.4 M03 S1000
X14.9 M03 S0
X8.4 M03 S1000
X-4.1 M03 S0
G1 X-16.7 Y30.7 M03 S0
X8.3 M03 S0
X14.6 M03 S1000
X22.4 M03 S0
X27 M03 S1000
X34.7 M03 S0
X41.2 M03 S1000
X53.7 M03 S0
G1 X66.1 Y30.8 M03 S0
X41.2 M03 S0
X34.7 M03 S1000
X27 M03 S0
X22.4 M03 S1000
X14.5 M03 S0
X8.2 M03 S1000
X-4.3 M03 S0
G1 X-16.9 Y30.9 M03 S0
X8.1 M03 S0
X14.2 M03 S1000
X22.4 M03 S0
X27 M03 S1000
X35.3 M03 S0
X41.4 M03 S1000
X53.9 M03 S0
G1 X66.3 Y31 M03 S0
X41.4 M03 S0
X35.3 M03 S1000
X27 M03 S0
X22.4 M03 S1000
X14.1 M03 S0
X8.1 M03 S1000
X-4.4 M03 S0
G1 X-16.9 Y31.1 M03 S0
X8.1 M03 S0
X13.6 M03 S1000
X22.2 M03 S0
X27 M03 S1000
X35.6 M03 S0
X41.4 M03 S1000
X53.9 M03 S0
G1 X66.3 Y31.2 M03 S0
X41.4 M03 S0
X36.1 M03 S1000
X27 M03 S0
X22.2 M03 S1000
X13.1 M03 S0
X8 M03 S1000
X-4.5 M03 S0
G1 X-17.1 Y31.3 M03 S0
X7.9 M03 S0
X13 M03 S1000
X22.2 M03 S0
X27 M03 S1000
X36.2 M03 S0
X41.6 M03 S1000
X54.1 M03 S0
G1 X66.6 Y31.4 M03 S0
X41.7 M03 S0
X36.7 M03 S1000
X27 M03 S0
X22.2 M03 S1000
X12.5 M03 S0
X7.8 M03 S1000
X-4.7 M03 S0
G1 X-17.3 Y31.5 M03 S0
X7.7 M03 S0
X12.4 M03 S1000
X22.2 M03 S0
X27 M03 S1000
X36.8 M03 S0
X41.8 M03 S1000
X54.3 M03 S0
G1 X66.7 Y31.6 M03 S0
X41.8 M03 S0
X37.3 M03 S1000
X27 M03 S0
X22.2 M03 S1000
X11.9 M03 S0
X7.7 M03 S1000
X-4.8 M03 S0
G1 X-17.3 Y31.7 M03 S0
X7.7 M03 S0
X11.9 M03 S1000
X22.2 M03 S0
X27 M03 S1000
X37.4 M03 S0
X41.8 M03 S1000
X54.3 M03 S0
G1 X66.8 Y31.8 M03 S0
X41.9 M03 S0
X38.1 M03 S1000
X27 M03 S0
X22.2 M03 S1000
X11.1 M03 S0
X7.5 M03 S1000
X-5 M03 S0
G1 X-17.5 Y31.9 M03 S0
X7.5 M03 S0
X11.1 M03 S1000
X22.2 M03 S0
X27 M03 S1000
X38.1 M03 S0
X42 M03 S1000
X54.5 M03 S0
G1 X67 Y32 M03 S0
X42.1 M03 S0
X39.1 M03 S1000
X27 M03 S0
X22.2 M03 S1000
X10.2 M03 S0
X7.3 M03 S1000
X-5.2 M03 S0
G1 X-17.7 Y32.1 M03 S0
X7.3 M03 S0
X10.1 M03 S1000
X22.2 M03 S0
X27 M03 S1000
X39.1 M03 S0
X42.1 M03 S1000
X54.6 M03 S0
G1 X66.9 Y32.2 M03 S0
X42 M03 S0
X40.4 M03 S1000
X27 M03 S0
X22.2 M03 S1000
X9 M03 S0
X7.4 M03 S1000
X-5.1 M03 S0
G1 X-17.5 Y32.3 M03 S0
X7.5 M03 S0
X9 M03 S1000
X22.2 M03 S0
X27 M03 S1000
X40.5 M03 S0
X41.9 M03 S1000
X54.4 M03 S0
G1 X51.9 Y32.4 M03 S0
X27 M03 S0
X22.2 M03 S1000
X9.7 M03 S0
G1 X-2.8 Y32.5 M03 S0
X22.2 M03 S0
X27 M03 S1000
X39.5 M03 S0
G1 X51.9 Y32.6 M03 S0
X27 M03 S0
X22.2 M03 S1000
X9.7 M03 S0
G1 X-2.8 Y32.7 M03 S0
X22.2 M03 S0
X27 M03 S1000
X39.5 M03 S0
G1 X51.9 Y32.8 M03 S0
X27 M03 S0
X22.2 M03 S1000
X9.7 M03 S0
G1 X-2.8 Y32.9 M03 S0
X22.2 M03 S0
X27 M03 S1000
X39.5 M03 S0
G1 X51.9 Y33 M03 S0
X27 M03 S0
X22.2 M03 S1000
X9.7 M03 S0
G1 X-2.8 Y33.1 M03 S0
X22.2 M03 S0
X27 M03 S1000
X39.5 M03 S0
G1 X51.9 Y33.2 M03 S0
X27 M03 S0
X22.2 M03 S1000
X9.7 M03 S0
G1 X-2.8 Y33.3 M03 S0
X22.2 M03 S0
X27 M03 S1000
X39.5 M03 S0
G1 X51.9 Y33.4 M03 S0
X27 M03 S0
X22.2 M03 S1000
X9.7 M03 S0
G1 X-2.8 Y33.5 M03 S0
X22.2 M03 S0
X27 M03 S1000
X39.5 M03 S0
G1 X51.9 Y33.6 M03 S0
X27 M03 S0
X22.2 M03 S1000
X9.7 M03 S0
G1 X-2.8 Y33.7 M03 S0
X22.2 M03 S0
X27 M03 S1000
X39.5 M03 S0
G1 X51.9 Y33.8 M03 S0
X27 M03 S0
X22.2 M03 S1000
X9.7 M03 S0
G1 X-2.8 Y33.9 M03 S0
X22.2 M03 S0
X27 M03 S1000
X39.5 M03 S0
G1 X51.9 Y34 M03 S0
X27 M03 S0
X22.2 M03 S1000
X9.7 M03 S0
G1 X-2.8 Y34.1 M03 S0
X22.2 M03 S0
X27 M03 S1000
X39.5 M03 S0
G1 X51.9 Y34.2 M03 S0
X27 M03 S0
X22.2 M03 S1000
X9.7 M03 S0
G1 X-2.8 Y34.3 M03 S0
X22.2 M03 S0
X27 M03 S1000
X39.5 M03 S0
G1 X51.9 Y34.4 M03 S0
X27 M03 S0
X22.2 M03 S1000
X9.7 M03 S0
G1 X-2.6 Y34.5 M03 S0
X22.4 M03 S0
X27 M03 S1000
X39.5 M03 S0
G1 X51.9 Y34.6 M03 S0
X27 M03 S0
X22.4 M03 S1000
X9.9 M03 S0
G1 X-2.6 Y34.7 M03 S0
X22.4 M03 S0
X27 M03 S1000
X39.5 M03 S0
G1 X51.9 Y34.8 M03 S0
X27 M03 S0
X22.4 M03 S1000
X9.9 M03 S0
G1 X-2.6 Y34.9 M03 S0
X22.4 M03 S0
X27 M03 S1000
X39.5 M03 S0
G1 X51.9 Y35 M03 S0
X27 M03 S0
X22.4 M03 S1000
X9.9 M03 S0
G1 X-2.6 Y35.1 M03 S0
X22.4 M03 S0
X26.8 M03 S1000
X39.3 M03 S0
G1 X51.7 Y35.2 M03 S0
X26.8 M03 S0
X22.4 M03 S1000
X9.9 M03 S0
G1 X-2.6 Y35.3 M03 S0
X22.4 M03 S0
X26.8 M03 S1000
X39.3 M03 S0
G1 X51.7 Y35.4 M03 S0
X26.8 M03 S0
X22.4 M03 S1000
X9.9 M03 S0
G1 X-2.6 Y35.5 M03 S0
X22.4 M03 S0
X26.8 M03 S1000
X39.3 M03 S0
G1 X51.7 Y35.6 M03 S0
X26.8 M03 S0
X22.4 M03 S1000
X9.9 M03 S0
G1 X-2.6 Y35.7 M03 S0
X22.4 M03 S0
X26.8 M03 S1000
X39.3 M03 S0
G1 X51.7 Y35.8 M03 S0
X26.8 M03 S0
X22.4 M03 S1000
X9.9 M03 S0
G1 X-2.6 Y35.9 M03 S0
X22.4 M03 S0
X26.8 M03 S1000
X39.3 M03 S0
G1 X51.7 Y36 M03 S0
X26.8 M03 S0
X22.4 M03 S1000
X9.9 M03 S0
G1 X-2.6 Y36.1 M03 S0
X22.4 M03 S0
X26.8 M03 S1000
X39.3 M03 S0
G1 X51.7 Y36.2 M03 S0
X26.8 M03 S0
X22.6 M03 S1000
X10.1 M03 S0
G1 X-2.4 Y36.3 M03 S0
X22.6 M03 S0
X26.8 M03 S1000
X39.3 M03 S0
G1 X51.6 Y36.4 M03 S0
X26.7 M03 S0
X22.6 M03 S1000
X10.1 M03 S0
G1 X-2.4 Y36.5 M03 S0
X22.6 M03 S0
X26.6 M03 S1000
X39.1 M03 S0
G1 X51.5 Y36.6 M03 S0
X26.6 M03 S0
X22.6 M03 S1000
X10.1 M03 S0
G1 X-2.4 Y36.7 M03 S0
X22.6 M03 S0
X26.6 M03 S1000
X39.1 M03 S0
G1 X51.5 Y36.8 M03 S0
X26.6 M03 S0
X22.6 M03 S1000
X10.1 M03 S0
G1 X-2.4 Y36.9 M03 S0
X22.6 M03 S0
X26.6 M03 S1000
X39.1 M03 S0
G1 X51.5 Y37 M03 S0
X26.6 M03 S0
X22.6 M03 S1000
X10.1 M03 S0
G1 X-2.4 Y37.1 M03 S0
X22.6 M03 S0
X26.6 M03 S1000
X39.1 M03 S0
G1 X51.5 Y37.2 M03 S0
X26.6 M03 S0
X22.8 M03 S1000
X10.3 M03 S0
G1 X-2.2 Y37.3 M03 S0
X22.8 M03 S0
X26.6 M03 S1000
X39.1 M03 S0
G1 X51.3 Y37.4 M03 S0
X26.4 M03 S0
X22.8 M03 S1000
X10.3 M03 S0
G1 X-2.2 Y37.5 M03 S0
X22.8 M03 S0
X26.4 M03 S1000
X38.9 M03 S0
G1 X51.3 Y37.6 M03 S0
X26.4 M03 S0
X22.8 M03 S1000
X10.3 M03 S0
G1 X-2.2 Y37.7 M03 S0
X22.8 M03 S0
X26.4 M03 S1000
X38.9 M03 S0
G1 X51.3 Y37.8 M03 S0
X26.4 M03 S0
X22.8 M03 S1000
X10.3 M03 S0
G1 X-2.1 Y37.9 M03 S0
X22.9 M03 S0
X26.4 M03 S1000
X38.9 M03 S0
G1 X51.3 Y38 M03 S0
X26.4 M03 S0
X23 M03 S1000
X10.5 M03 S0
G1 X-2 Y38.1 M03 S0
X23 M03 S0
X26.3 M03 S1000
X38.8 M03 S0
G1 X51.1 Y38.2 M03 S0
X26.2 M03 S0
X23 M03 S1000
X10.5 M03 S0
G1 X-2 Y38.3 M03 S0
X23 M03 S0
X26.2 M03 S1000
X38.7 M03 S0
G1 X51.1 Y38.4 M03 S0
X26.2 M03 S0
X23 M03 S1000
X10.5 M03 S0
G1 X-2 Y38.5 M03 S0
X23 M03 S0
X26.2 M03 S1000
X38.7 M03 S0
G1 X51.1 Y38.6 M03 S0
X26.2 M03 S0
X23 M03 S1000
X10.5 M03 S0
G1 X-1.9 Y38.7 M03 S0
X23.1 M03 S0
X26.1 M03 S1000
X38.6 M03 S0
G1 X50.9 Y38.8 M03 S0
X26 M03 S0
X23.2 M03 S1000
X10.7 M03 S0
G1 X-1.8 Y38.9 M03 S0
X23.2 M03 S0
X26 M03 S1000
X38.5 M03 S0
G1 X50.9 Y39 M03 S0
X26 M03 S0
X23.2 M03 S1000
X10.7 M03 S0
G1 X-1.8 Y39.1 M03 S0
X23.2 M03 S0
X26.1 M03 S1000
X38.6 M03 S0
G1 X50.9 Y39.2 M03 S0
X26 M03 S0
X23.2 M03 S1000
X10.7 M03 S0
G1 X-1.6 Y39.3 M03 S0
X23.4 M03 S0
X25.9 M03 S1000
X38.4 M03 S0
G1 X50.7 Y39.4 M03 S0
X25.8 M03 S0
X23.4 M03 S1000
X10.9 M03 S0
G1 X-1.6 Y39.5 M03 S0
X23.4 M03 S0
