( Generated by VirTriad   )
( Pic 2 GCode for Grbl    )
( Start Point : LL        )
( Frame Mode  : Abs.      )
( Image Width : 50.0   mm )
(               500    px )
( Image Height: 62.7   mm )
(               627    px )
( X Maximum   : 75.0   mm )
( Y Maximum   : 62.7   mm )
( X Minimum   : -25.0  mm )
( Y Minimum   : 0.0    mm )
( X Overshoot : 25.0   mm )
( Laser Max   : 1000      )
( Feed Rate   : 2500      )
( Pixel Width : 0.1    mm )
( Resolution  : 0.1    mm )
( Image Name  : /vagrant/tests/pajara-boriqua.jpg )
G21
G90
F2500
M05
M03 S0
G01 X-25.0 Y0.0 M03 S0
X0.0 M03 S0
X0.1 M03 S1000
X0.2 M03 S0
X0.3 M03 S1000
X0.4 M03 S0
X0.6 M03 S1000
X0.7 M03 S0
X0.8 M03 S1000
X0.9 M03 S0
X1.1 M03 S1000
X1.2 M03 S0
X1.4 M03 S1000
X1.5 M03 S0
X1.6 M03 S1000
X1.7 M03 S0
X1.9 M03 S1000
X2.0 M03 S0
X2.1 M03 S1000
X2.2 M03 S0
X2.4 M03 S1000
X2.5 M03 S0
X2.6 M03 S1000
X2.7 M03 S0
X2.8 M03 S1000
X2.9 M03 S0
X3.0 M03 S1000
X3.1 M03 S0
X3.2 M03 S1000
X3.3 M03 S0
X3.4 M03 S1000
X3.5 M03 S0
X3.6 M03 S1000
X3.7 M03 S0
X3.8 M03 S1000
X3.9 M03 S0
X4.0 M03 S1000
X4.1 M03 S0
X4.2 M03 S1000
X4.3 M03 S0
X4.4 M03 S1000
X4.5 M03 S0
X4.6 M03 S1000
X4.7 M03 S0
X4.8 M03 S1000
X4.9 M03 S0
X5.0 M03 S1000
X5.1 M03 S0
X5.2 M03 S1000
X5.3 M03 S0
X5.4 M03 S1000
X5.5 M03 S0
X5.6 M03 S1000
X5.7 M03 S0
X5.8 M03 S1000
X5.9 M03 S0
X6.0 M03 S1000
X6.1 M03 S0
X6.2 M03 S1000
X6.3 M03 S0
X6.4 M03 S1000
X6.5 M03 S0
X6.6 M03 S1000
X6.7 M03 S0
X6.8 M03 S1000
X6.9 M03 S0
X7.0 M03 S1000
X7.1 M03 S0
X7.2 M03 S1000
X7.3 M03 S0
X7.4 M03 S1000
X7.5 M03 S0
X7.6 M03 S1000
X7.7 M03 S0
X7.8 M03 S1000
X7.9 M03 S0
X8.0 M03 S1000
X8.1 M03 S0
X8.2 M03 S1000
X8.3 M03 S0
X8.4 M03 S1000
X8.5 M03 S0
X8.6 M03 S1000
X8.7 M03 S0
X8.8 M03 S1000
X8.9 M03 S0
X9.0 M03 S1000
X9.1 M03 S0
X9.2 M03 S1000
X9.3 M03 S0
X9.4 M03 S1000
X9.5 M03 S0
X9.6 M03 S1000
X9.7 M03 S0
X9.8 M03 S1000
X9.9 M03 S0
X10.0 M03 S1000
X10.1 M03 S0
X10.2 M03 S1000
X10.3 M03 S0
X10.4 M03 S1000
X10.5 M03 S0
X10.6 M03 S1000
X10.7 M03 S0
X10.8 M03 S1000
X10.9 M03 S0
X11.0 M03 S1000
X11.1 M03 S0
X11.2 M03 S1000
X11.3 M03 S0
X11.4 M03 S1000
X11.5 M03 S0
X11.6 M03 S1000
X11.7 M03 S0
X11.8 M03 S1000
X11.9 M03 S0
X12.0 M03 S1000
X12.1 M03 S0
X12.2 M03 S1000
X12.3 M03 S0
X12.4 M03 S1000
X12.5 M03 S0
X12.6 M03 S1000
X12.7 M03 S0
X12.8 M03 S1000
X12.9 M03 S0
X13.0 M03 S1000
X13.1 M03 S0
X13.2 M03 S1000
X13.3 M03 S0
X13.4 M03 S1000
X13.5 M03 S0
X13.6 M03 S1000
X13.7 M03 S0
X13.8 M03 S1000
X13.9 M03 S0
X14.0 M03 S1000
X14.1 M03 S0
X14.2 M03 S1000
X14.3 M03 S0
X14.5 M03 S1000
X14.6 M03 S0
X14.7 M03 S1000
X14.8 M03 S0
X15.0 M03 S1000
X15.1 M03 S0
X15.3 M03 S1000
X15.4 M03 S0
X15.6 M03 S1000
X15.7 M03 S0
X15.9 M03 S1000
X16.0 M03 S0
X16.2 M03 S1000
X16.3 M03 S0
X16.5 M03 S1000
X16.6 M03 S0
X16.8 M03 S1000
X16.9 M03 S0
X17.1 M03 S1000
X17.2 M03 S0
X17.4 M03 S1000
X17.5 M03 S0
X17.7 M03 S1000
X17.8 M03 S0
X18.0 M03 S1000
X18.1 M03 S0
X18.3 M03 S1000
X18.4 M03 S0
X18.6 M03 S1000
X18.7 M03 S0
X19.0 M03 S1000
X19.1 M03 S0
X19.4 M03 S1000
X19.5 M03 S0
X19.8 M03 S1000
X19.9 M03 S0
X20.2 M03 S1000
X20.3 M03 S0
X20.6 M03 S1000
X20.7 M03 S0
X21.0 M03 S1000
X21.1 M03 S0
X21.4 M03 S1000
X21.5 M03 S0
X21.8 M03 S1000
X21.9 M03 S0
X22.2 M03 S1000
X22.3 M03 S0
X22.6 M03 S1000
X22.7 M03 S0
X23.0 M03 S1000
X23.1 M03 S0
X23.4 M03 S1000
X23.5 M03 S0
X23.8 M03 S1000
X23.9 M03 S0
X24.2 M03 S1000
X24.3 M03 S0
X24.6 M03 S1000
X24.7 M03 S0
X25.0 M03 S1000
X25.1 M03 S0
X25.4 M03 S1000
X25.5 M03 S0
X25.8 M03 S1000
X25.9 M03 S0
X26.2 M03 S1000
X26.3 M03 S0
X26.5 M03 S1000
X26.6 M03 S0
X26.8 M03 S1000
X26.9 M03 S0
X27.1 M03 S1000
X27.2 M03 S0
X27.4 M03 S1000
X27.5 M03 S0
X27.7 M03 S1000
X27.8 M03 S0
X27.9 M03 S1000
X28.0 M03 S0
X28.1 M03 S1000
X28.2 M03 S0
X28.3 M03 S1000
X28.4 M03 S0
X28.5 M03 S1000
X28.6 M03 S0
X28.7 M03 S1000
X28.8 M03 S0
X28.9 M03 S1000
X29.0 M03 S0
X29.1 M03 S1000
X29.2 M03 S0
X29.3 M03 S1000
X29.4 M03 S0
X29.5 M03 S1000
X29.6 M03 S0
X29.7 M03 S1000
X29.8 M03 S0
X29.9 M03 S1000
X30.0 M03 S0
X30.1 M03 S1000
X30.2 M03 S0
X30.3 M03 S1000
X30.4 M03 S0
X30.5 M03 S1000
X30.6 M03 S0
X30.7 M03 S1000
X30.8 M03 S0
X30.9 M03 S1000
X31.0 M03 S0
X31.1 M03 S1000
X31.2 M03 S0
X31.3 M03 S1000
X31.4 M03 S0
X31.5 M03 S1000
X31.6 M03 S0
X31.7 M03 S1000
X31.8 M03 S0
X31.9 M03 S1000
X32.0 M03 S0
X32.1 M03 S1000
X32.3 M03 S0
X32.4 M03 S1000
X32.5 M03 S0
X32.6 M03 S1000
X32.8 M03 S0
X32.9 M03 S1000
X33.1 M03 S0
X33.2 M03 S1000
X33.4 M03 S0
X33.5 M03 S1000
X33.7 M03 S0
X33.8 M03 S1000
X34.0 M03 S0
X34.1 M03 S1000
X34.3 M03 S0
X34.4 M03 S1000
X34.6 M03 S0
X34.7 M03 S1000
X34.9 M03 S0
X35.0 M03 S1000
X35.2 M03 S0
X35.3 M03 S1000
X35.5 M03 S0
X35.6 M03 S1000
X35.8 M03 S0
X35.9 M03 S1000
X36.1 M03 S0
X36.2 M03 S1000
X36.5 M03 S0
X36.6 M03 S1000
X36.9 M03 S0
X37.0 M03 S1000
X37.3 M03 S0
X37.4 M03 S1000
X37.8 M03 S0
X37.9 M03 S1000
X38.4 M03 S0
X38.5 M03 S1000
X39.0 M03 S0
X39.1 M03 S1000
X39.5 M03 S0
X39.6 M03 S1000
X39.9 M03 S0
X40.0 M03 S1000
X40.3 M03 S0
X40.4 M03 S1000
X40.7 M03 S0
X40.8 M03 S1000
X41.2 M03 S0
X41.3 M03 S1000
X53.8 M03 S0
G01 X74.8 Y0.1 M03 S0
X49.9 M03 S0
X49.8 M03 S1000
X49.7 M03 S0
X49.6 M03 S1000
X49.5 M03 S0
X49.4 M03 S1000
X49.3 M03 S0
X49.2 M03 S1000
X49.1 M03 S0
X49.0 M03 S1000
X48.9 M03 S0
X48.8 M03 S1000
X48.7 M03 S0
X48.6 M03 S1000
X48.5 M03 S0
X48.4 M03 S1000
X48.3 M03 S0
X48.2 M03 S1000
X48.1 M03 S0
X48.0 M03 S1000
X47.9 M03 S0
X47.8 M03 S1000
X47.7 M03 S0
X47.6 M03 S1000
X47.5 M03 S0
X47.4 M03 S1000
X47.3 M03 S0
X47.2 M03 S1000
X47.1 M03 S0
X47.0 M03 S1000
X46.9 M03 S0
X46.8 M03 S1000
X46.7 M03 S0
X46.6 M03 S1000
X46.5 M03 S0
X46.4 M03 S1000
X46.3 M03 S0
X46.2 M03 S1000
X46.1 M03 S0
X46.0 M03 S1000
X45.9 M03 S0
X45.8 M03 S1000
X45.7 M03 S0
X45.6 M03 S1000
X45.5 M03 S0
X45.4 M03 S1000
X45.3 M03 S0
X45.2 M03 S1000
X45.1 M03 S0
X45.0 M03 S1000
X44.9 M03 S0
X44.8 M03 S1000
X44.7 M03 S0
X44.6 M03 S1000
X44.5 M03 S0
X44.4 M03 S1000
X44.3 M03 S0
X44.2 M03 S1000
X44.1 M03 S0
X44.0 M03 S1000
X43.9 M03 S0
X43.8 M03 S1000
X43.7 M03 S0
X43.6 M03 S1000
X43.5 M03 S0
X43.4 M03 S1000
X43.3 M03 S0
X43.2 M03 S1000
X43.1 M03 S0
X43.0 M03 S1000
X42.9 M03 S0
X42.8 M03 S1000
X42.7 M03 S0
X42.6 M03 S1000
X42.5 M03 S0
X42.4 M03 S1000
X42.3 M03 S0
X42.2 M03 S1000
X42.1 M03 S0
X42.0 M03 S1000
X41.9 M03 S0
X41.8 M03 S1000
X41.7 M03 S0
X41.6 M03 S1000
X41.5 M03 S0
X41.4 M03 S1000
X41.1 M03 S0
X41.0 M03 S1000
X40.9 M03 S0
X40.8 M03 S1000
X40.6 M03 S0
X40.5 M03 S1000
X40.3 M03 S0
X40.2 M03 S1000
X40.1 M03 S0
X40.0 M03 S1000
X39.8 M03 S0
X39.7 M03 S1000
X39.5 M03 S0
X39.4 M03 S1000
X39.3 M03 S0
X39.2 M03 S1000
X38.9 M03 S0
X38.8 M03 S1000
X38.7 M03 S0
X38.6 M03 S1000
X38.3 M03 S0
X38.2 M03 S1000
X38.1 M03 S0
X38.0 M03 S1000
X37.8 M03 S0
X37.7 M03 S1000
X37.6 M03 S0
X37.5 M03 S1000
X37.3 M03 S0
X37.2 M03 S1000
X37.1 M03 S0
X37.0 M03 S1000
X36.8 M03 S0
X36.7 M03 S1000
X36.5 M03 S0
X36.4 M03 S1000
X36.3 M03 S0
X36.2 M03 S1000
X36.0 M03 S0
X35.9 M03 S1000
X35.7 M03 S0
X35.6 M03 S1000
X35.4 M03 S0
X35.3 M03 S1000
X35.1 M03 S0
X35.0 M03 S1000
X34.8 M03 S0
X34.7 M03 S1000
X34.5 M03 S0
X34.4 M03 S1000
X34.2 M03 S0
X34.1 M03 S1000
X33.9 M03 S0
X33.8 M03 S1000
X33.6 M03 S0
X33.5 M03 S1000
X33.3 M03 S0
X33.2 M03 S1000
X33.1 M03 S0
X33.0 M03 S1000
X32.9 M03 S0
X32.8 M03 S1000
X32.7 M03 S0
X32.6 M03 S1000
X32.4 M03 S0
X32.3 M03 S1000
X32.2 M03 S0
X32.1 M03 S1000
X31.9 M03 S0
X31.8 M03 S1000
X31.6 M03 S0
X31.5 M03 S1000
X31.3 M03 S0
X31.2 M03 S1000
X31.0 M03 S0
X30.9 M03 S1000
X30.7 M03 S0
X30.6 M03 S1000
X30.4 M03 S0
X30.3 M03 S1000
X30.2 M03 S0
X30.1 M03 S1000
X30.0 M03 S0
X29.9 M03 S1000
X29.8 M03 S0
X29.7 M03 S1000
X29.6 M03 S0
X29.5 M03 S1000
X29.4 M03 S0
X29.3 M03 S1000
X29.2 M03 S0
X29.1 M03 S1000
X29.0 M03 S0
X28.9 M03 S1000
X28.8 M03 S0
X28.7 M03 S1000
X28.6 M03 S0
X28.4 M03 S1000
X28.3 M03 S0
X28.1 M03 S1000
X28.0 M03 S0
X27.8 M03 S1000
X27.7 M03 S0
X27.6 M03 S1000
X27.5 M03 S0
X27.3 M03 S1000
X27.2 M03 S0
X27.1 M03 S1000
X27.0 M03 S0
X26.8 M03 S1000
X26.7 M03 S0
X26.5 M03 S1000
X26.4 M03 S0
X26.2 M03 S1000
X26.1 M03 S0
X26.0 M03 S1000
X25.9 M03 S0
X25.7 M03 S1000
X25.6 M03 S0
X25.4 M03 S1000
X25.3 M03 S0
X25.2 M03 S1000
X25.1 M03 S0
X24.9 M03 S1000
X24.8 M03 S0
X24.6 M03 S1000
X24.5 M03 S0
X24.4 M03 S1000
X24.3 M03 S0
X24.1 M03 S1000
X24.0 M03 S0
X23.8 M03 S1000
X23.7 M03 S0
X23.6 M03 S1000
X23.5 M03 S0
X23.3 M03 S1000
X23.2 M03 S0
X23.0 M03 S1000
X22.9 M03 S0
X22.8 M03 S1000
X22.7 M03 S0
X22.5 M03 S1000
X22.4 M03 S0
X22.2 M03 S1000
X22.1 M03 S0
X22.0 M03 S1000
X21.9 M03 S0
X21.7 M03 S1000
X21.6 M03 S0
X21.4 M03 S1000
X21.3 M03 S0
X21.2 M03 S1000
X21.1 M03 S0
X20.9 M03 S1000
X20.8 M03 S0
X20.6 M03 S1000
X20.5 M03 S0
X20.4 M03 S1000
X20.3 M03 S0
X20.1 M03 S1000
X20.0 M03 S0
X19.8 M03 S1000
X19.7 M03 S0
X19.6 M03 S1000
X19.5 M03 S0
X19.3 M03 S1000
X19.2 M03 S0
X19.0 M03 S1000
X18.9 M03 S0
X18.8 M03 S1000
X18.7 M03 S0
X18.5 M03 S1000
X18.4 M03 S0
X18.2 M03 S1000
X18.1 M03 S0
X17.9 M03 S1000
X17.8 M03 S0
X17.6 M03 S1000
X17.5 M03 S0
X17.3 M03 S1000
X17.2 M03 S0
X17.0 M03 S1000
X16.9 M03 S0
X16.7 M03 S1000
X16.6 M03 S0
X16.4 M03 S1000
X16.3 M03 S0
X16.1 M03 S1000
X16.0 M03 S0
X15.8 M03 S1000
X15.7 M03 S0
X15.5 M03 S1000
X15.4 M03 S0
X15.3 M03 S1000
X15.2 M03 S0
X15.1 M03 S1000
X15.0 M03 S0
X14.9 M03 S1000
X14.8 M03 S0
X14.6 M03 S1000
X14.5 M03 S0
X14.4 M03 S1000
X14.3 M03 S0
X14.1 M03 S1000
X14.0 M03 S0
X13.8 M03 S1000
X13.7 M03 S0
X13.5 M03 S1000
X13.4 M03 S0
X13.2 M03 S1000
X13.1 M03 S0
X12.9 M03 S1000
X12.8 M03 S0
X12.6 M03 S1000
X12.5 M03 S0
X12.3 M03 S1000
X12.2 M03 S0
X12.0 M03 S1000
X11.9 M03 S0
X11.8 M03 S1000
X11.7 M03 S0
X11.6 M03 S1000
X11.5 M03 S0
X11.4 M03 S1000
X11.3 M03 S0
X11.2 M03 S1000
X11.1 M03 S0
X11.0 M03 S1000
X10.9 M03 S0
X10.8 M03 S1000
X10.7 M03 S0
X10.6 M03 S1000
X10.5 M03 S0
X10.4 M03 S1000
X10.3 M03 S0
X10.2 M03 S1000
X10.1 M03 S0
X10.0 M03 S1000
X9.9 M03 S0
X9.8 M03 S1000
X9.7 M03 S0
X9.6 M03 S1000
X9.5 M03 S0
X9.4 M03 S1000
X9.3 M03 S0
X9.2 M03 S1000
X9.1 M03 S0
X9.0 M03 S1000
X8.9 M03 S0
X8.8 M03 S1000
X8.7 M03 S0
X8.6 M03 S1000
X8.5 M03 S0
X8.4 M03 S1000
X8.3 M03 S0
X8.2 M03 S1000
X8.1 M03 S0
X8.0 M03 S1000
X7.9 M03 S0
X7.8 M03 S1000
X7.7 M03 S0
X7.6 M03 S1000
X7.5 M03 S0
X7.4 M03 S1000
X7.3 M03 S0
X7.2 M03 S1000
X7.1 M03 S0
X7.0 M03 S1000
X6.9 M03 S0
X6.8 M03 S1000
X6.7 M03 S0
X6.6 M03 S1000
X6.5 M03 S0
X6.4 M03 S1000
X6.3 M03 S0
X6.2 M03 S1000
X6.1 M03 S0
X6.0 M03 S1000
X5.9 M03 S0
X5.8 M03 S1000
X5.7 M03 S0
X5.6 M03 S1000
X5.5 M03 S0
X5.4 M03 S1000
X5.3 M03 S0
X5.2 M03 S1000
X5.1 M03 S0
X5.0 M03 S1000
X4.9 M03 S0
X4.7 M03 S1000
X4.6 M03 S0
X4.4 M03 S1000
X4.3 M03 S0
X4.2 M03 S1000
X4.1 M03 S0
X3.9 M03 S1000
X3.8 M03 S0
X3.6 M03 S1000
X3.5 M03 S0
X3.3 M03 S1000
X3.2 M03 S0
X3.0 M03 S1000
X2.9 M03 S0
X2.6 M03 S1000
X2.5 M03 S0
X2.3 M03 S1000
X2.2 M03 S0
X2.0 M03 S1000
X1.9 M03 S0
X1.8 M03 S1000
X1.7 M03 S0
X1.5 M03 S1000
X1.4 M03 S0
X1.3 M03 S1000
X1.2 M03 S0
X1.0 M03 S1000
X0.9 M03 S0
X0.7 M03 S1000
X0.6 M03 S0
X0.5 M03 S1000
X0.4 M03 S0
X0.2 M03 S1000
X0.1 M03 S0
X0.0 M03 S1000
X-12.5 M03 S0
G01 X-25.0 Y0.2 M03 S0
X0.0 M03 S0
X0.1 M03 S1000
X0.2 M03 S0
X0.3 M03 S1000
X0.4 M03 S0
X0.5 M03 S1000
X0.6 M03 S0
X0.7 M03 S1000
X0.8 M03 S0
X1.0 M03 S1000
X1.1 M03 S0
X1.2 M03 S1000
X1.3 M03 S0
X1.5 M03 S1000
X1.6 M03 S0
X1.7 M03 S1000
X1.8 M03 S0
X2.0 M03 S1000
X2.1 M03 S0
X2.2 M03 S1000
X2.3 M03 S0
X2.4 M03 S1000
X2.5 M03 S0
X2.6 M03 S1000
X2.7 M03 S0
X2.8 M03 S1000
X2.9 M03 S0
X3.0 M03 S1000
X3.1 M03 S0
X3.3 M03 S1000
X3.4 M03 S0
X3.5 M03 S1000
X3.6 M03 S0
X3.7 M03 S1000
X3.8 M03 S0
X3.9 M03 S1000
X4.0 M03 S0
X4.1 M03 S1000
X4.2 M03 S0
X4.4 M03 S1000
X4.5 M03 S0
X4.6 M03 S1000
X4.7 M03 S0
X4.8 M03 S1000
X4.9 M03 S0
X5.0 M03 S1000
X5.1 M03 S0
X5.3 M03 S1000
X5.4 M03 S0
X5.6 M03 S1000
X5.7 M03 S0
X5.9 M03 S1000
X6.0 M03 S0
X6.2 M03 S1000
X6.3 M03 S0
X6.4 M03 S1000
X6.5 M03 S0
X6.6 M03 S1000
X6.7 M03 S0
X6.8 M03 S1000
X6.9 M03 S0
X7.0 M03 S1000
X7.1 M03 S0
X7.2 M03 S1000
X7.3 M03 S0
X7.4 M03 S1000
X7.5 M03 S0
X7.6 M03 S1000
X7.7 M03 S0
X7.8 M03 S1000
X7.9 M03 S0
X8.0 M03 S1000
X8.1 M03 S0
X8.2 M03 S1000
X8.3 M03 S0
X8.4 M03 S1000
X8.5 M03 S0
X8.6 M03 S1000
X8.7 M03 S0
X8.8 M03 S1000
X8.9 M03 S0
X9.0 M03 S1000
X9.1 M03 S0
X9.2 M03 S1000
X9.3 M03 S0
X9.4 M03 S1000
X9.5 M03 S0
X9.6 M03 S1000
X9.7 M03 S0
X9.8 M03 S1000
X9.9 M03 S0
X10.0 M03 S1000
X10.1 M03 S0
X10.2 M03 S1000
X10.3 M03 S0
X10.4 M03 S1000
X10.5 M03 S0
X10.6 M03 S1000
X10.7 M03 S0
X10.8 M03 S1000
X10.9 M03 S0
X11.0 M03 S1000
X11.1 M03 S0
X11.2 M03 S1000
X11.3 M03 S0
X11.5 M03 S1000
X11.6 M03 S0
X11.8 M03 S1000
X11.9 M03 S0
X12.0 M03 S1000
X12.1 M03 S0
X12.2 M03 S1000
X12.3 M03 S0
X12.4 M03 S1000
X12.5 M03 S0
X12.6 M03 S1000
X12.7 M03 S0
X12.8 M03 S1000
X12.9 M03 S0
X13.0 M03 S1000
X13.1 M03 S0
X13.2 M03 S1000
X13.3 M03 S0
X13.5 M03 S1000
X13.6 M03 S0
X13.8 M03 S1000
X13.9 M03 S0
X14.1 M03 S1000
X14.2 M03 S0
X14.3 M03 S1000
X14.4 M03 S0
X14.6 M03 S1000
X14.7 M03 S0
X14.8 M03 S1000
X14.9 M03 S0
X15.1 M03 S1000
X15.2 M03 S0
X15.4 M03 S1000
X15.5 M03 S0
X15.6 M03 S1000
X15.7 M03 S0
X15.8 M03 S1000
X15.9 M03 S0
X16.0 M03 S1000
X16.1 M03 S0
X16.2 M03 S1000
X16.3 M03 S0
X16.4 M03 S1000
X16.5 M03 S0
X16.6 M03 S1000
X16.7 M03 S0
X16.8 M03 S1000
X16.9 M03 S0
X17.0 M03 S1000
X17.1 M03 S0
X17.3 M03 S1000
X17.4 M03 S0
X17.6 M03 S1000
X17.7 M03 S0
X17.9 M03 S1000
X18.0 M03 S0
X18.2 M03 S1000
X18.3 M03 S0
X18.5 M03 S1000
X18.6 M03 S0
X19.0 M03 S1000
X19.1 M03 S0
X19.3 M03 S1000
X19.4 M03 S0
X19.8 M03 S1000
X19.9 M03 S0
X20.1 M03 S1000
X20.2 M03 S0
X20.6 M03 S1000
X20.7 M03 S0
X20.9 M03 S1000
X21.0 M03 S0
X21.4 M03 S1000
X21.5 M03 S0
X21.7 M03 S1000
X21.8 M03 S0
X22.2 M03 S1000
X22.3 M03 S0
X22.5 M03 S1000
X22.6 M03 S0
X23.0 M03 S1000
X23.1 M03 S0
X23.3 M03 S1000
X23.4 M03 S0
X23.8 M03 S1000
X23.9 M03 S0
X24.1 M03 S1000
X24.2 M03 S0
X24.6 M03 S1000
X24.7 M03 S0
X24.9 M03 S1000
X25.0 M03 S0
X25.4 M03 S1000
X25.5 M03 S0
X25.7 M03 S1000
X25.8 M03 S0
X26.0 M03 S1000
X26.1 M03 S0
X26.3 M03 S1000
X26.4 M03 S0
X26.6 M03 S1000
X26.7 M03 S0
X26.9 M03 S1000
X27.0 M03 S0
X27.3 M03 S1000
X27.4 M03 S0
X27.5 M03 S1000
X27.6 M03 S0
X27.8 M03 S1000
X27.9 M03 S0
X28.1 M03 S1000
X28.2 M03 S0
X28.3 M03 S1000
X28.4 M03 S0
X28.5 M03 S1000
X28.6 M03 S0
X28.7 M03 S1000
X28.8 M03 S0
X29.0 M03 S1000
X29.1 M03 S0
X29.2 M03 S1000
X29.3 M03 S0
X29.4 M03 S1000
X29.5 M03 S0
X29.6 M03 S1000
X29.7 M03 S0
X29.8 M03 S1000
X29.9 M03 S0
X30.0 M03 S1000
X30.2 M03 S0
X30.3 M03 S1000
X30.4 M03 S0
X30.5 M03 S1000
X30.6 M03 S0
X30.7 M03 S1000
X30.8 M03 S0
X30.9 M03 S1000
X31.0 M03 S0
X31.1 M03 S1000
X31.2 M03 S0
X31.3 M03 S1000
X31.4 M03 S0
X31.5 M03 S1000
X31.6 M03 S0
X31.7 M03 S1000
X31.9 M03 S0
X32.0 M03 S1000
X32.1 M03 S0
X32.2 M03 S1000
X32.4 M03 S0
X32.5 M03 S1000
X32.6 M03 S0
X32.7 M03 S1000
X32.9 M03 S0
X33.0 M03 S1000
X33.2 M03 S0
X33.3 M03 S1000
X33.4 M03 S0
X33.5 M03 S1000
X33.6 M03 S0
X33.7 M03 S1000
X33.8 M03 S0
X33.9 M03 S1000
X34.0 M03 S0
X34.1 M03 S1000
X34.2 M03 S0
X34.3 M03 S1000
X34.5 M03 S0
X34.6 M03 S1000
X34.7 M03 S0
X34.8 M03 S1000
X34.9 M03 S0
X35.0 M03 S1000
X35.1 M03 S0
X35.2 M03 S1000
X35.4 M03 S0
X35.5 M03 S1000
X35.7 M03 S0
X35.8 M03 S1000
X36.0 M03 S0
X36.1 M03 S1000
X36.5 M03 S0
X36.6 M03 S1000
X36.8 M03 S0
X36.9 M03 S1000
X37.3 M03 S0
X37.4 M03 S1000
X37.8 M03 S0
X37.9 M03 S1000
X38.3 M03 S0
X38.4 M03 S1000
X38.5 M03 S0
X38.6 M03 S1000
X38.9 M03 S0
X39.0 M03 S1000
X39.1 M03 S0
X39.2 M03 S1000
X39.5 M03 S0
X39.6 M03 S1000
X39.8 M03 S0
X39.9 M03 S1000
X40.3 M03 S0
X40.4 M03 S1000
X40.6 M03 S0
X40.7 M03 S1000
X41.0 M03 S0
X41.1 M03 S1000
X41.2 M03 S0
X41.3 M03 S1000
X41.5 M03 S0
X41.6 M03 S1000
X41.8 M03 S0
X41.9 M03 S1000
X42.1 M03 S0
X42.2 M03 S1000
X42.5 M03 S0
X42.6 M03 S1000
X49.1 M03 S0
X49.2 M03 S1000
X49.5 M03 S0
X49.6 M03 S1000
X49.9 M03 S0
X50.0 M03 S1000
X62.5 M03 S0
G01 X74.8 Y0.3 M03 S0
X49.9 M03 S0
X49.8 M03 S1000
X49.7 M03 S0
X49.6 M03 S1000
X49.4 M03 S0
X49.3 M03 S1000
X49.0 M03 S0
X48.9 M03 S1000
X48.8 M03 S0
X48.7 M03 S1000
X48.6 M03 S0
X48.5 M03 S1000
X48.4 M03 S0
X48.3 M03 S1000
X48.2 M03 S0
X48.1 M03 S1000
X48.0 M03 S0
X47.9 M03 S1000
X47.8 M03 S0
X47.7 M03 S1000
X47.6 M03 S0
X47.5 M03 S1000
X47.4 M03 S0
X47.3 M03 S1000
X47.2 M03 S0
X47.1 M03 S1000
X47.0 M03 S0
X46.9 M03 S1000
X46.8 M03 S0
X46.7 M03 S1000
X46.6 M03 S0
X46.5 M03 S1000
X46.4 M03 S0
X46.3 M03 S1000
X46.2 M03 S0
X46.1 M03 S1000
X46.0 M03 S0
X45.9 M03 S1000
X45.8 M03 S0
X45.7 M03 S1000
X45.6 M03 S0
X45.5 M03 S1000
X45.4 M03 S0
X45.3 M03 S1000
X45.2 M03 S0
X45.1 M03 S1000
X45.0 M03 S0
X44.9 M03 S1000
X44.8 M03 S0
X44.7 M03 S1000
X44.6 M03 S0
X44.5 M03 S1000
X44.4 M03 S0
X44.3 M03 S1000
X44.2 M03 S0
X44.1 M03 S1000
X44.0 M03 S0
X43.9 M03 S1000
X43.8 M03 S0
X43.7 M03 S1000
X43.6 M03 S0
X43.5 M03 S1000
X43.4 M03 S0
X43.3 M03 S1000
X43.2 M03 S0
X43.1 M03 S1000
X43.0 M03 S0
X42.9 M03 S1000
X42.8 M03 S0
X42.7 M03 S1000
X42.4 M03 S0
X42.3 M03 S1000
X42.0 M03 S0
X41.9 M03 S1000
X41.7 M03 S0
X41.6 M03 S1000
X41.4 M03 S0
X41.3 M03 S1000
X40.9 M03 S0
X40.8 M03 S1000
X40.6 M03 S0
X40.5 M03 S1000
X40.3 M03 S0
X40.2 M03 S1000
X40.1 M03 S0
X40.0 M03 S1000
X39.8 M03 S0
X39.7 M03 S1000
X39.5 M03 S0
X39.4 M03 S1000
X39.3 M03 S0
X39.2 M03 S1000
X38.9 M03 S0
X38.8 M03 S1000
X38.7 M03 S0
X38.6 M03 S1000
X38.2 M03 S0
X38.1 M03 S1000
X38.0 M03 S0
X37.9 M03 S1000
X37.7 M03 S0
X37.6 M03 S1000
X37.5 M03 S0
X37.4 M03 S1000
X37.2 M03 S0
X37.1 M03 S1000
X37.0 M03 S0
X36.9 M03 S1000
X36.7 M03 S0
X36.6 M03 S1000
X36.4 M03 S0
X36.3 M03 S1000
X36.2 M03 S0
X36.1 M03 S1000
X35.9 M03 S0
X35.8 M03 S1000
X35.6 M03 S0
X35.5 M03 S1000
X35.3 M03 S0
X35.2 M03 S1000
X34.8 M03 S0
X34.7 M03 S1000
X34.5 M03 S0
X34.4 M03 S1000
X34.3 M03 S0
X34.2 M03 S1000
X34.0 M03 S0
X33.9 M03 S1000
X33.7 M03 S0
X33.6 M03 S1000
X33.4 M03 S0
X33.3 M03 S1000
X33.1 M03 S0
X33.0 M03 S1000
X32.8 M03 S0
X32.7 M03 S1000
X32.5 M03 S0
X32.4 M03 S1000
X32.3 M03 S0
X32.2 M03 S1000
X32.1 M03 S0
X32.0 M03 S1000
X31.9 M03 S0
X31.8 M03 S1000
X31.7 M03 S0
X31.6 M03 S1000
X31.4 M03 S0
X31.3 M03 S1000
X31.2 M03 S0
X31.1 M03 S1000
X31.0 M03 S0
X30.9 M03 S1000
X30.8 M03 S0
X30.7 M03 S1000
X30.6 M03 S0
X30.5 M03 S1000
X30.4 M03 S0
X30.3 M03 S1000
X30.2 M03 S0
X30.1 M03 S1000
X30.0 M03 S0
X29.9 M03 S1000
X29.8 M03 S0
X29.7 M03 S1000
X29.6 M03 S0
X29.5 M03 S1000
X29.4 M03 S0
X29.3 M03 S1000
X29.2 M03 S0
X29.1 M03 S1000
X29.0 M03 S0
X28.9 M03 S1000
X28.8 M03 S0
X28.7 M03 S1000
X28.6 M03 S0
X28.5 M03 S1000
X28.4 M03 S0
X28.3 M03 S1000
X28.2 M03 S0
X28.1 M03 S1000
X28.0 M03 S0
X27.9 M03 S1000
X27.8 M03 S0
X27.7 M03 S1000
X27.6 M03 S0
X27.5 M03 S1000
X27.4 M03 S0
X27.3 M03 S1000
X27.2 M03 S0
X27.1 M03 S1000
X27.0 M03 S0
X26.8 M03 S1000
X26.7 M03 S0
X26.5 M03 S1000
X26.4 M03 S0
X26.2 M03 S1000
X26.1 M03 S0
X25.9 M03 S1000
X25.8 M03 S0
X25.6 M03 S1000
X25.5 M03 S0
X25.3 M03 S1000
X25.2 M03 S0
X25.1 M03 S1000
X25.0 M03 S0
X24.8 M03 S1000
X24.7 M03 S0
X24.5 M03 S1000
X24.4 M03 S0
X24.3 M03 S1000
X24.2 M03 S0
X24.0 M03 S1000
X23.9 M03 S0
X23.7 M03 S1000
X23.6 M03 S0
X23.5 M03 S1000
X23.4 M03 S0
X23.2 M03 S1000
X23.1 M03 S0
X22.9 M03 S1000
X22.8 M03 S0
X22.7 M03 S1000
X22.6 M03 S0
X22.4 M03 S1000
X22.3 M03 S0
X22.1 M03 S1000
X22.0 M03 S0
X21.9 M03 S1000
X21.8 M03 S0
X21.6 M03 S1000
X21.5 M03 S0
X21.3 M03 S1000
X21.2 M03 S0
X21.1 M03 S1000
X21.0 M03 S0
X20.8 M03 S1000
X20.7 M03 S0
X20.5 M03 S1000
X20.4 M03 S0
X20.3 M03 S1000
X20.2 M03 S0
X20.0 M03 S1000
X19.9 M03 S0
X19.7 M03 S1000
X19.6 M03 S0
X19.5 M03 S1000
X19.4 M03 S0
X19.2 M03 S1000
X19.1 M03 S0
X18.9 M03 S1000
X18.8 M03 S0
X18.7 M03 S1000
X18.6 M03 S0
X18.4 M03 S1000
X18.3 M03 S0
X18.1 M03 S1000
X18.0 M03 S0
X17.8 M03 S1000
X17.7 M03 S0
X17.6 M03 S1000
X17.5 M03 S0
X17.4 M03 S1000
X17.3 M03 S0
X17.2 M03 S1000
X17.1 M03 S0
X16.8 M03 S1000
X16.7 M03 S0
X16.5 M03 S1000
X16.4 M03 S0
X16.2 M03 S1000
X16.1 M03 S0
X15.9 M03 S1000
X15.8 M03 S0
X15.6 M03 S1000
X15.5 M03 S0
X15.3 M03 S1000
X15.2 M03 S0
X15.0 M03 S1000
X14.9 M03 S0
X14.7 M03 S1000
X14.6 M03 S0
X14.5 M03 S1000
X14.4 M03 S0
X14.2 M03 S1000
X14.1 M03 S0
X14.0 M03 S1000
X13.9 M03 S0
X13.8 M03 S1000
X13.7 M03 S0
X13.6 M03 S1000
X13.5 M03 S0
X13.4 M03 S1000
X13.3 M03 S0
X13.2 M03 S1000
X13.1 M03 S0
X12.9 M03 S1000
X12.8 M03 S0
X12.7 M03 S1000
X12.6 M03 S0
X12.4 M03 S1000
X12.3 M03 S0
X12.2 M03 S1000
X12.1 M03 S0
X11.9 M03 S1000
X11.8 M03 S0
X11.7 M03 S1000
X11.6 M03 S0
X11.5 M03 S1000
X11.4 M03 S0
X11.3 M03 S1000
X11.2 M03 S0
X11.0 M03 S1000
X10.9 M03 S0
X10.7 M03 S1000
X10.6 M03 S0
X10.4 M03 S1000
X10.3 M03 S0
X10.1 M03 S1000
X10.0 M03 S0
X9.8 M03 S1000
X9.7 M03 S0
X9.6 M03 S1000
X9.5 M03 S0
X9.4 M03 S1000
X9.3 M03 S0
X9.2 M03 S1000
X9.1 M03 S0
X9.0 M03 S1000
X8.9 M03 S0
X8.8 M03 S1000
X8.7 M03 S0
X8.6 M03 S1000
X8.5 M03 S0
X8.4 M03 S1000
X8.3 M03 S0
X8.2 M03 S1000
X8.1 M03 S0
X8.0 M03 S1000
X7.9 M03 S0
X7.8 M03 S1000
X7.7 M03 S0
X7.6 M03 S1000
X7.5 M03 S0
X7.4 M03 S1000
X7.3 M03 S0
X7.2 M03 S1000
X7.1 M03 S0
X7.0 M03 S1000
X6.9 M03 S0
X6.7 M03 S1000
X6.6 M03 S0
X6.4 M03 S1000
X6.3 M03 S0
X6.2 M03 S1000
X6.1 M03 S0
X6.0 M03 S1000
X5.9 M03 S0
X5.8 M03 S1000
X5.7 M03 S0
X5.6 M03 S1000
X5.5 M03 S0
X5.4 M03 S1000
X5.3 M03 S0
X5.2 M03 S1000
X5.1 M03 S0
X4.9 M03 S1000
X4.8 M03 S0
X4.7 M03 S1000
X4.6 M03 S0
X4.5 M03 S1000
X4.4 M03 S0
X4.3 M03 S1000
X4.2 M03 S0
X4.1 M03 S1000
X4.0 M03 S0
X3.9 M03 S1000
X3.8 M03 S0
X3.7 M03 S1000
X3.6 M03 S0
X3.4 M03 S1000
X3.3 M03 S0
X3.2 M03 S1000
X3.1 M03 S0
X3.0 M03 S1000
X2.9 M03 S0
X2.7 M03 S1000
X2.6 M03 S0
X2.4 M03 S1000
X2.3 M03 S0
X2.1 M03 S1000
X2.0 M03 S0
X1.9 M03 S1000
X1.8 M03 S0
X1.6 M03 S1000
X1.5 M03 S0
X1.4 M03 S1000
X1.3 M03 S0
X1.1 M03 S1000
X1.0 M03 S0
X0.9 M03 S1000
X0.8 M03 S0
X0.5 M03 S1000
X0.4 M03 S0
X0.2 M03 S1000
X0.1 M03 S0
X0.0 M03 S1000
X-12.5 M03 S0
G01 X-25.0 Y0.4 M03 S0
X0.0 M03 S0
X0.1 M03 S1000
X0.2 M03 S0
X0.3 M03 S1000
X0.4 M03 S0
X0.5 M03 S1000
X0.6 M03 S0
X0.7 M03 S1000
X0.8 M03 S0
X0.9 M03 S1000
X1.0 M03 S0
X1.1 M03 S1000
X1.2 M03 S0
X1.3 M03 S1000
X1.4 M03 S0
X1.6 M03 S1000
X1.7 M03 S0
X1.8 M03 S1000
X1.9 M03 S0
X2.1 M03 S1000
X2.2 M03 S0
X2.4 M03 S1000
X2.5 M03 S0
X2.7 M03 S1000
X2.8 M03 S0
X3.0 M03 S1000
X3.1 M03 S0
X3.3 M03 S1000
X3.4 M03 S0
X3.5 M03 S1000
X3.6 M03 S0
X3.8 M03 S1000
X3.9 M03 S0
X4.1 M03 S1000
X4.2 M03 S0
X4.3 M03 S1000
X4.4 M03 S0
X4.5 M03 S1000
X4.6 M03 S0
X4.8 M03 S1000
X4.9 M03 S0
X5.0 M03 S1000
X5.1 M03 S0
X5.2 M03 S1000
X5.3 M03 S0
X5.4 M03 S1000
X5.5 M03 S0
X5.6 M03 S1000
X5.7 M03 S0
X5.8 M03 S1000
X5.9 M03 S0
X6.0 M03 S1000
X6.1 M03 S0
X6.2 M03 S1000
X6.3 M03 S0
X6.4 M03 S1000
X6.5 M03 S0
X6.6 M03 S1000
X6.7 M03 S0
X6.8 M03 S1000
X6.9 M03 S0
X7.0 M03 S1000
X7.1 M03 S0
X7.2 M03 S1000
X7.3 M03 S0
X7.4 M03 S1000
X7.5 M03 S0
X7.6 M03 S1000
X7.7 M03 S0
X7.8 M03 S1000
X7.9 M03 S0
X8.0 M03 S1000
X8.1 M03 S0
X8.2 M03 S1000
X8.3 M03 S0
X8.4 M03 S1000
X8.5 M03 S0
X8.6 M03 S1000
X8.7 M03 S0
X8.8 M03 S1000
X8.9 M03 S0
X9.1 M03 S1000
X9.2 M03 S0
X9.4 M03 S1000
X9.5 M03 S0
X9.7 M03 S1000
X9.8 M03 S0
X9.9 M03 S1000
X10.0 M03 S0
X10.1 M03 S1000
X10.2 M03 S0
X10.3 M03 S1000
X10.4 M03 S0
X10.5 M03 S1000
X10.6 M03 S0
X10.7 M03 S1000
X10.8 M03 S0
X10.9 M03 S1000
X11.0 M03 S0
X11.1 M03 S1000
X11.2 M03 S0
X11.3 M03 S1000
X11.4 M03 S0
X11.5 M03 S1000
X11.6 M03 S0
X11.7 M03 S1000
X11.8 M03 S0
X11.9 M03 S1000
X12.0 M03 S0
X12.1 M03 S1000
X12.2 M03 S0
X12.4 M03 S1000
X12.5 M03 S0
X12.6 M03 S1000
X12.7 M03 S0
X12.9 M03 S1000
X13.0 M03 S0
X13.1 M03 S1000
X13.2 M03 S0
X13.3 M03 S1000
X13.4 M03 S0
X13.6 M03 S1000
X13.7 M03 S0
X13.8 M03 S1000
X13.9 M03 S0
X14.0 M03 S1000
X14.1 M03 S0
X14.2 M03 S1000
X14.3 M03 S0
X14.4 M03 S1000
X14.5 M03 S0
X14.7 M03 S1000
X14.8 M03 S0
X15.0 M03 S1000
X15.1 M03 S0
X15.2 M03 S1000
X15.3 M03 S0
X15.4 M03 S1000
X15.5 M03 S0
X15.6 M03 S1000
X15.7 M03 S0
X15.9 M03 S1000
X16.0 M03 S0
X16.2 M03 S1000
X16.3 M03 S0
X16.5 M03 S1000
X16.6 M03 S0
X16.8 M03 S1000
X16.9 M03 S0
X17.0 M03 S1000
X17.1 M03 S0
X17.3 M03 S1000
X17.4 M03 S0
X17.8 M03 S1000
X17.9 M03 S0
X18.1 M03 S1000
X18.2 M03 S0
X18.4 M03 S1000
X18.5 M03 S0
X18.7 M03 S1000
X18.8 M03 S0
X18.9 M03 S1000
X19.0 M03 S0
X19.2 M03 S1000
X19.3 M03 S0
X19.5 M03 S1000
X19.6 M03 S0
X19.7 M03 S1000
X19.8 M03 S0
X20.0 M03 S1000
X20.1 M03 S0
X20.3 M03 S1000
X20.4 M03 S0
X20.5 M03 S1000
X20.6 M03 S0
X20.8 M03 S1000
X20.9 M03 S0
X21.1 M03 S1000
X21.2 M03 S0
X21.3 M03 S1000
X21.4 M03 S0
X21.6 M03 S1000
X21.7 M03 S0
X21.9 M03 S1000
X22.0 M03 S0
X22.1 M03 S1000
X22.2 M03 S0
X22.4 M03 S1000
X22.5 M03 S0
X22.7 M03 S1000
X22.8 M03 S0
X22.9 M03 S1000
X23.0 M03 S0
X23.2 M03 S1000
X23.3 M03 S0
X23.6 M03 S1000
X23.7 M03 S0
X24.0 M03 S1000
X24.1 M03 S0
X24.3 M03 S1000
X24.4 M03 S0
X24.6 M03 S1000
X24.7 M03 S0
X24.9 M03 S1000
X25.0 M03 S0
X25.3 M03 S1000
X25.4 M03 S0
X25.6 M03 S1000
X25.7 M03 S0
X25.9 M03 S1000
X26.0 M03 S0
X26.2 M03 S1000
X26.3 M03 S0
X26.5 M03 S1000
X26.6 M03 S0
X26.8 M03 S1000
X26.9 M03 S0
X27.0 M03 S1000
X27.1 M03 S0
X27.3 M03 S1000
X27.4 M03 S0
X27.7 M03 S1000
X27.8 M03 S0
X28.0 M03 S1000
X28.1 M03 S0
X28.3 M03 S1000
X28.4 M03 S0
X28.6 M03 S1000
X28.7 M03 S0
X28.8 M03 S1000
X28.9 M03 S0
X29.0 M03 S1000
X29.1 M03 S0
X29.2 M03 S1000
X29.3 M03 S0
X29.4 M03 S1000
X29.5 M03 S0
X29.6 M03 S1000
X29.7 M03 S0
X29.8 M03 S1000
X29.9 M03 S0
X30.0 M03 S1000
X30.1 M03 S0
X30.2 M03 S1000
X30.3 M03 S0
X30.4 M03 S1000
X30.6 M03 S0
X30.7 M03 S1000
X30.8 M03 S0
X30.9 M03 S1000
X31.1 M03 S0
X31.2 M03 S1000
X31.4 M03 S0
X31.5 M03 S1000
X31.6 M03 S0
X31.7 M03 S1000
X31.8 M03 S0
X31.9 M03 S1000
X32.1 M03 S0
X32.2 M03 S1000
X32.3 M03 S0
X32.4 M03 S1000
X32.5 M03 S0
X32.6 M03 S1000
X32.7 M03 S0
X32.8 M03 S1000
X32.9 M03 S0
X33.0 M03 S1000
X33.1 M03 S0
X33.2 M03 S1000
X33.4 M03 S0
X33.5 M03 S1000
X33.7 M03 S0
X33.8 M03 S1000
X34.0 M03 S0
X34.1 M03 S1000
X34.3 M03 S0
X34.4 M03 S1000
X34.5 M03 S0
X34.6 M03 S1000
X34.8 M03 S0
X34.9 M03 S1000
X35.0 M03 S0
X35.1 M03 S1000
X35.2 M03 S0
X35.3 M03 S1000
X35.4 M03 S0
X35.5 M03 S1000
X35.6 M03 S0
X35.7 M03 S1000
X35.9 M03 S0
X36.0 M03 S1000
X36.2 M03 S0
X36.3 M03 S1000
X36.4 M03 S0
X36.5 M03 S1000
X36.7 M03 S0
X36.8 M03 S1000
X37.0 M03 S0
X37.1 M03 S1000
X37.3 M03 S0
X37.4 M03 S1000
X37.7 M03 S0
X37.8 M03 S1000
X38.2 M03 S0
X38.3 M03 S1000
X38.4 M03 S0
X38.5 M03 S1000
X38.9 M03 S0
X39.0 M03 S1000
X39.5 M03 S0
X39.6 M03 S1000
X39.9 M03 S0
X40.0 M03 S1000
X40.3 M03 S0
X40.4 M03 S1000
X40.6 M03 S0
X40.7 M03 S1000
X40.9 M03 S0
X41.0 M03 S1000
X41.1 M03 S0
X41.2 M03 S1000
X41.4 M03 S0
X41.5 M03 S1000
X41.7 M03 S0
X41.8 M03 S1000
X42.1 M03 S0
X42.2 M03 S1000
X42.4 M03 S0
X42.5 M03 S1000
X42.6 M03 S0
X42.7 M03 S1000
X43.0 M03 S0
X43.1 M03 S1000
X43.4 M03 S0
X43.5 M03 S1000
X43.8 M03 S0
X43.9 M03 S1000
X44.2 M03 S0
X44.3 M03 S1000
X44.8 M03 S0
X44.9 M03 S1000
X48.8 M03 S0
X48.9 M03 S1000
X49.1 M03 S0
X49.2 M03 S1000
X49.4 M03 S0
X49.5 M03 S1000
X62.0 M03 S0
G01 X74.8 Y0.5 M03 S0
X49.9 M03 S0
X49.8 M03 S1000
X49.7 M03 S0
X49.6 M03 S1000
X49.4 M03 S0
X49.3 M03 S1000
X49.1 M03 S0
X49.0 M03 S1000
X48.7 M03 S0
X48.6 M03 S1000
X48.5 M03 S0
X48.4 M03 S1000
X48.3 M03 S0
X48.2 M03 S1000
X48.1 M03 S0
X48.0 M03 S1000
X47.9 M03 S0
X47.8 M03 S1000
X47.7 M03 S0
X47.6 M03 S1000
X47.5 M03 S0
X47.4 M03 S1000
X47.3 M03 S0
X47.2 M03 S1000
X47.1 M03 S0
X47.0 M03 S1000
X46.9 M03 S0
X46.8 M03 S1000
X46.7 M03 S0
X46.6 M03 S1000
X46.5 M03 S0
X46.4 M03 S1000
X46.3 M03 S0
X46.2 M03 S1000
X46.1 M03 S0
X46.0 M03 S1000
X45.9 M03 S0
X45.8 M03 S1000
X45.7 M03 S0
X45.6 M03 S1000
X45.5 M03 S0
X45.4 M03 S1000
X45.3 M03 S0
X45.2 M03 S1000
X45.1 M03 S0
X45.0 M03 S1000
X44.7 M03 S0
X44.6 M03 S1000
X44.5 M03 S0
X44.4 M03 S1000
X44.1 M03 S0
X44.0 M03 S1000
X43.7 M03 S0
X43.6 M03 S1000
X43.3 M03 S0
X43.2 M03 S1000
X42.9 M03 S0
X42.8 M03 S1000
X42.3 M03 S0
X42.2 M03 S1000
X42.0 M03 S0
X41.9 M03 S1000
X41.6 M03 S0
X41.5 M03 S1000
X41.3 M03 S0
X41.2 M03 S1000
X41.1 M03 S0
X41.0 M03 S1000
X40.8 M03 S0
X40.7 M03 S1000
X40.5 M03 S0
X40.4 M03 S1000
X40.2 M03 S0
X40.1 M03 S1000
X39.9 M03 S0
X39.8 M03 S1000
X39.7 M03 S0
X39.6 M03 S1000
X39.4 M03 S0
X39.3 M03 S1000
X39.2 M03 S0
X39.1 M03 S1000
X38.9 M03 S0
X38.8 M03 S1000
X38.7 M03 S0
X38.6 M03 S1000
X38.4 M03 S0
X38.3 M03 S1000
X38.1 M03 S0
X38.0 M03 S1000
X37.9 M03 S0
X37.8 M03 S1000
X37.6 M03 S0
X37.5 M03 S1000
X37.2 M03 S0
X37.1 M03 S1000
X36.9 M03 S0
X36.8 M03 S1000
X36.6 M03 S0
X36.5 M03 S1000
X36.1 M03 S0
X36.0 M03 S1000
X35.8 M03 S0
X35.7 M03 S1000
X35.6 M03 S0
X35.5 M03 S1000
X35.2 M03 S0
X35.1 M03 S1000
X35.0 M03 S0
X34.9 M03 S1000
X34.7 M03 S0
X34.6 M03 S1000
X34.5 M03 S0
X34.4 M03 S1000
X34.2 M03 S0
X34.1 M03 S1000
X34.0 M03 S0
X33.9 M03 S1000
X33.8 M03 S0
X33.7 M03 S1000
X33.6 M03 S0
X33.5 M03 S1000
X33.4 M03 S0
X33.3 M03 S1000
X33.2 M03 S0
X33.1 M03 S1000
X32.9 M03 S0
X32.8 M03 S1000
X32.7 M03 S0
X32.6 M03 S1000
X32.4 M03 S0
X32.3 M03 S1000
X32.1 M03 S0
X32.0 M03 S1000
X31.9 M03 S0
X31.8 M03 S1000
X31.6 M03 S0
X31.5 M03 S1000
X31.4 M03 S0
X31.3 M03 S1000
X31.2 M03 S0
X31.1 M03 S1000
X31.0 M03 S0
X30.9 M03 S1000
X30.7 M03 S0
X30.6 M03 S1000
X30.5 M03 S0
X30.4 M03 S1000
X30.3 M03 S0
X30.2 M03 S1000
X30.1 M03 S0
X30.0 M03 S1000
X29.9 M03 S0
X29.8 M03 S1000
X29.7 M03 S0
X29.6 M03 S1000
X29.5 M03 S0
X29.4 M03 S1000
X29.3 M03 S0
X29.2 M03 S1000
X29.1 M03 S0
X29.0 M03 S1000
X28.9 M03 S0
X28.7 M03 S1000
X28.6 M03 S0
X28.5 M03 S1000
X28.4 M03 S0
X28.3 M03 S1000
X28.2 M03 S0
X28.1 M03 S1000
X28.0 M03 S0
X27.9 M03 S1000
X27.8 M03 S0
X27.7 M03 S1000
X27.6 M03 S0
X27.5 M03 S1000
X27.4 M03 S0
X27.2 M03 S1000
X27.1 M03 S0
X27.0 M03 S1000
X26.9 M03 S0
X26.7 M03 S1000
X26.6 M03 S0
X26.5 M03 S1000
X26.4 M03 S0
X26.2 M03 S1000
X26.1 M03 S0
X25.9 M03 S1000
X25.8 M03 S0
X25.6 M03 S1000
X25.5 M03 S0
X25.3 M03 S1000
X25.2 M03 S0
X25.1 M03 S1000
X25.0 M03 S0
X24.8 M03 S1000
X24.7 M03 S0
X24.5 M03 S1000
X24.4 M03 S0
X24.2 M03 S1000
X24.1 M03 S0
X23.9 M03 S1000
X23.8 M03 S0
X23.6 M03 S1000
X23.5 M03 S0
X23.4 M03 S1000
X23.3 M03 S0
X23.1 M03 S1000
X23.0 M03 S0
X22.6 M03 S1000
X22.5 M03 S0
X22.3 M03 S1000
X22.2 M03 S0
X21.8 M03 S1000
X21.7 M03 S0
X21.5 M03 S1000
X21.4 M03 S0
X21.0 M03 S1000
X20.9 M03 S0
X20.7 M03 S1000
X20.6 M03 S0
X20.2 M03 S1000
X20.1 M03 S0
X19.9 M03 S1000
X19.8 M03 S0
X19.4 M03 S1000
X19.3 M03 S0
X19.1 M03 S1000
X19.0 M03 S0
X18.6 M03 S1000
X18.5 M03 S0
X18.3 M03 S1000
X18.2 M03 S0
X18.1 M03 S1000
X18.0 M03 S0
X17.9 M03 S1000
X17.8 M03 S0
X17.7 M03 S1000
X17.6 M03 S0
X17.5 M03 S1000
X17.4 M03 S0
X17.2 M03 S1000
X17.1 M03 S0
X17.0 M03 S1000
X16.9 M03 S0
X16.7 M03 S1000
X16.6 M03 S0
X16.4 M03 S1000
X16.3 M03 S0
X16.1 M03 S1000
X16.0 M03 S0
X15.8 M03 S1000
X15.7 M03 S0
X15.4 M03 S1000
X15.3 M03 S0
X15.1 M03 S1000
X15.0 M03 S0
X14.9 M03 S1000
X14.8 M03 S0
X14.6 M03 S1000
X14.5 M03 S0
X14.4 M03 S1000
X14.3 M03 S0
X14.0 M03 S1000
X13.9 M03 S0
X13.7 M03 S1000
X13.6 M03 S0
X13.5 M03 S1000
X13.4 M03 S0
X13.3 M03 S1000
X13.2 M03 S0
X13.0 M03 S1000
X12.9 M03 S0
X12.8 M03 S1000
X12.7 M03 S0
X12.5 M03 S1000
X12.4 M03 S0
X12.3 M03 S1000
X12.2 M03 S0
X12.1 M03 S1000
X12.0 M03 S0
X11.9 M03 S1000
X11.8 M03 S0
X11.6 M03 S1000
X11.5 M03 S0
X11.3 M03 S1000
X11.2 M03 S0
X11.1 M03 S1000
X11.0 M03 S0
X10.9 M03 S1000
X10.8 M03 S0
X10.7 M03 S1000
X10.6 M03 S0
X10.5 M03 S1000
X10.4 M03 S0
X10.3 M03 S1000
X10.2 M03 S0
X10.1 M03 S1000
X10.0 M03 S0
X9.9 M03 S1000
X9.8 M03 S0
X9.7 M03 S1000
X9.6 M03 S0
X9.5 M03 S1000
X9.4 M03 S0
X9.3 M03 S1000
X9.2 M03 S0
X9.1 M03 S1000
X9.0 M03 S0
X8.9 M03 S1000
X8.8 M03 S0
X8.6 M03 S1000
X8.5 M03 S0
X8.4 M03 S1000
X8.3 M03 S0
X8.2 M03 S1000
X8.1 M03 S0
X8.0 M03 S1000
X7.9 M03 S0
X7.8 M03 S1000
X7.7 M03 S0
X7.5 M03 S1000
X7.4 M03 S0
X7.2 M03 S1000
X7.1 M03 S0
X6.9 M03 S1000
X6.8 M03 S0
X6.7 M03 S1000
X6.6 M03 S0
X6.5 M03 S1000
X6.4 M03 S0
X6.3 M03 S1000
X6.2 M03 S0
X6.0 M03 S1000
X5.9 M03 S0
X5.7 M03 S1000
X5.6 M03 S0
X5.4 M03 S1000
X5.3 M03 S0
X5.1 M03 S1000
X5.0 M03 S0
X4.9 M03 S1000
X4.8 M03 S0
X4.7 M03 S1000
X4.6 M03 S0
X4.4 M03 S1000
X4.3 M03 S0
X4.1 M03 S1000
X4.0 M03 S0
X3.9 M03 S1000
X3.8 M03 S0
X3.7 M03 S1000
X3.6 M03 S0
X3.4 M03 S1000
X3.3 M03 S0
X3.2 M03 S1000
X3.1 M03 S0
X2.9 M03 S1000
X2.8 M03 S0
X2.7 M03 S1000
X2.6 M03 S0
X2.5 M03 S1000
X2.4 M03 S0
X2.3 M03 S1000
X2.2 M03 S0
X2.0 M03 S1000
X1.9 M03 S0
X1.8 M03 S1000
X1.7 M03 S0
X1.5 M03 S1000
X1.4 M03 S0
X1.3 M03 S1000
X1.2 M03 S0
X1.0 M03 S1000
X0.9 M03 S0
X0.7 M03 S1000
X0.6 M03 S0
X0.5 M03 S1000
X0.4 M03 S0
X0.2 M03 S1000
X0.1 M03 S0
X0.0 M03 S1000
X-12.5 M03 S0
G01 X-24.9 Y0.6 M03 S0
X0.1 M03 S0
X0.2 M03 S1000
X0.3 M03 S0
X0.5 M03 S1000
X0.6 M03 S0
X0.7 M03 S1000
X0.8 M03 S0
X1.0 M03 S1000
X1.1 M03 S0
X1.3 M03 S1000
X1.4 M03 S0
X1.5 M03 S1000
X1.6 M03 S0
X1.8 M03 S1000
X1.9 M03 S0
X2.0 M03 S1000
X2.1 M03 S0
X2.2 M03 S1000
X2.3 M03 S0
X2.5 M03 S1000
X2.6 M03 S0
X2.8 M03 S1000
X2.9 M03 S0
X3.0 M03 S1000
X3.1 M03 S0
X3.2 M03 S1000
X3.3 M03 S0
X3.4 M03 S1000
X3.5 M03 S0
X3.6 M03 S1000
X3.7 M03 S0
X3.9 M03 S1000
X4.0 M03 S0
X4.1 M03 S1000
X4.2 M03 S0
X4.3 M03 S1000
X4.4 M03 S0
X4.5 M03 S1000
X4.6 M03 S0
X4.7 M03 S1000
X4.8 M03 S0
X4.9 M03 S1000
X5.0 M03 S0
X5.1 M03 S1000
X5.2 M03 S0
X5.3 M03 S1000
X5.4 M03 S0
X5.5 M03 S1000
X5.6 M03 S0
X5.7 M03 S1000
X5.8 M03 S0
X5.9 M03 S1000
X6.0 M03 S0
X6.1 M03 S1000
X6.2 M03 S0
X6.3 M03 S1000
X6.4 M03 S0
X6.6 M03 S1000
X6.7 M03 S0
X6.9 M03 S1000
X7.0 M03 S0
X7.1 M03 S1000
X7.2 M03 S0
X7.3 M03 S1000
X7.4 M03 S0
X7.5 M03 S1000
X7.6 M03 S0
X7.7 M03 S1000
X7.8 M03 S0
X8.0 M03 S1000
X8.1 M03 S0
X8.3 M03 S1000
X8.4 M03 S0
X8.6 M03 S1000
X8.7 M03 S0
X8.8 M03 S1000
X8.9 M03 S0
X9.0 M03 S1000
X9.1 M03 S0
X9.2 M03 S1000
X9.3 M03 S0
X9.4 M03 S1000
X9.5 M03 S0
X9.6 M03 S1000
X9.7 M03 S0
X9.8 M03 S1000
X9.9 M03 S0
X10.0 M03 S1000
X10.1 M03 S0
X10.3 M03 S1000
X10.4 M03 S0
X10.6 M03 S1000
X10.7 M03 S0
X10.9 M03 S1000
X11.0 M03 S0
X11.2 M03 S1000
X11.3 M03 S0
X11.4 M03 S1000
X11.5 M03 S0
X11.6 M03 S1000
X11.7 M03 S0
X11.8 M03 S1000
X11.9 M03 S0
X12.1 M03 S1000
X12.2 M03 S0
X12.3 M03 S1000
X12.4 M03 S0
X12.5 M03 S1000
X12.6 M03 S0
X12.7 M03 S1000
X12.8 M03 S0
X12.9 M03 S1000
X13.0 M03 S0
X13.1 M03 S1000
X13.2 M03 S0
X13.4 M03 S1000
X13.5 M03 S0
X13.7 M03 S1000
X13.8 M03 S0
X14.0 M03 S1000
X14.1 M03 S0
X14.2 M03 S1000
X14.3 M03 S0
X14.6 M03 S1000
X14.7 M03 S0
X14.8 M03 S1000
X14.9 M03 S0
X15.1 M03 S1000
X15.2 M03 S0
X15.4 M03 S1000
X15.5 M03 S0
X15.6 M03 S1000
X15.7 M03 S0
X15.8 M03 S1000
X15.9 M03 S0
X16.0 M03 S1000
X16.1 M03 S0
X16.2 M03 S1000
X16.3 M03 S0
X16.4 M03 S1000
X16.5 M03 S0
X16.6 M03 S1000
X16.7 M03 S0
X16.8 M03 S1000
X16.9 M03 S0
X17.2 M03 S1000
X17.3 M03 S0
X17.5 M03 S1000
X17.6 M03 S0
X17.9 M03 S1000
X18.0 M03 S0
X18.3 M03 S1000
X18.4 M03 S0
X18.6 M03 S1000
X18.7 M03 S0
X18.8 M03 S1000
X18.9 M03 S0
X19.1 M03 S1000
X19.2 M03 S0
X19.4 M03 S1000
X19.5 M03 S0
X19.6 M03 S1000
X19.7 M03 S0
X19.9 M03 S1000
X20.0 M03 S0
X20.2 M03 S1000
X20.3 M03 S0
X20.4 M03 S1000
X20.5 M03 S0
X20.7 M03 S1000
X20.8 M03 S0
X21.0 M03 S1000
X21.1 M03 S0
X21.2 M03 S1000
X21.3 M03 S0
X21.5 M03 S1000
X21.6 M03 S0
X21.8 M03 S1000
X21.9 M03 S0
X22.0 M03 S1000
X22.1 M03 S0
X22.3 M03 S1000
X22.4 M03 S0
X22.6 M03 S1000
X22.7 M03 S0
X22.8 M03 S1000
X22.9 M03 S0
X23.1 M03 S1000
X23.2 M03 S0
X23.6 M03 S1000
X23.7 M03 S0
X23.9 M03 S1000
X24.0 M03 S0
X24.2 M03 S1000
X24.3 M03 S0
X24.5 M03 S1000
X24.6 M03 S0
X24.8 M03 S1000
X24.9 M03 S0
X25.3 M03 S1000
X25.4 M03 S0
X25.6 M03 S1000
X25.7 M03 S0
X25.9 M03 S1000
X26.0 M03 S0
X26.2 M03 S1000
X26.3 M03 S0
X26.6 M03 S1000
X26.7 M03 S0
X26.8 M03 S1000
X26.9 M03 S0
X27.2 M03 S1000
X27.3 M03 S0
X27.4 M03 S1000
X27.5 M03 S0
X27.6 M03 S1000
X27.7 M03 S0
X27.9 M03 S1000
X28.0 M03 S0
X28.1 M03 S1000
X28.2 M03 S0
X28.4 M03 S1000
X28.5 M03 S0
X28.7 M03 S1000
X28.8 M03 S0
X28.9 M03 S1000
X29.0 M03 S0
X29.2 M03 S1000
X29.3 M03 S0
X29.4 M03 S1000
X29.5 M03 S0
X29.6 M03 S1000
X29.7 M03 S0
X29.8 M03 S1000
X29.9 M03 S0
X30.0 M03 S1000
X30.1 M03 S0
X30.2 M03 S1000
X30.4 M03 S0
X30.5 M03 S1000
X30.7 M03 S0
X30.8 M03 S1000
X30.9 M03 S0
X31.0 M03 S1000
X31.1 M03 S0
X31.2 M03 S1000
X31.3 M03 S0
X31.4 M03 S1000
X31.6 M03 S0
X31.7 M03 S1000
X31.8 M03 S0
X31.9 M03 S1000
X32.1 M03 S0
X32.2 M03 S1000
X32.4 M03 S0
X32.5 M03 S1000
X32.7 M03 S0
X32.8 M03 S1000
X32.9 M03 S0
X33.0 M03 S1000
X33.2 M03 S0
X33.3 M03 S1000
X33.5 M03 S0
X33.6 M03 S1000
X33.8 M03 S0
X33.9 M03 S1000
X34.1 M03 S0
X34.2 M03 S1000
X34.3 M03 S0
X34.4 M03 S1000
X34.7 M03 S0
X34.8 M03 S1000
X35.0 M03 S0
X35.1 M03 S1000
X35.3 M03 S0
X35.4 M03 S1000
X35.8 M03 S0
X35.9 M03 S1000
X36.1 M03 S0
X36.2 M03 S1000
X36.3 M03 S0
X36.4 M03 S1000
X36.6 M03 S0
X36.7 M03 S1000
X36.9 M03 S0
X37.0 M03 S1000
X37.2 M03 S0
X37.3 M03 S1000
X37.4 M03 S0
X37.5 M03 S1000
X37.6 M03 S0
X37.7 M03 S1000
X38.1 M03 S0
X38.2 M03 S1000
X38.4 M03 S0
X38.5 M03 S1000
X38.9 M03 S0
X39.0 M03 S1000
X39.2 M03 S0
X39.3 M03 S1000
X39.5 M03 S0
X39.6 M03 S1000
X39.9 M03 S0
X40.0 M03 S1000
X40.2 M03 S0
X40.3 M03 S1000
X40.5 M03 S0
X40.6 M03 S1000
X40.8 M03 S0
X40.9 M03 S1000
X41.3 M03 S0
X41.4 M03 S1000
X41.6 M03 S0
X41.7 M03 S1000
X41.8 M03 S0
X41.9 M03 S1000
X42.1 M03 S0
X42.2 M03 S1000
X42.4 M03 S0
X42.5 M03 S1000
X42.6 M03 S0
X42.7 M03 S1000
X42.9 M03 S0
X43.0 M03 S1000
X43.1 M03 S0
X43.2 M03 S1000
X43.4 M03 S0
X43.5 M03 S1000
X43.7 M03 S0
X43.8 M03 S1000
X43.9 M03 S0
X44.0 M03 S1000
X44.2 M03 S0
X44.3 M03 S1000
X44.7 M03 S0
X44.8 M03 S1000
X48.3 M03 S0
X48.4 M03 S1000
X48.7 M03 S0
X48.8 M03 S1000
X48.9 M03 S0
X49.0 M03 S1000
X49.2 M03 S0
X49.3 M03 S1000
X49.5 M03 S0
X49.6 M03 S1000
X49.9 M03 S0
X50.0 M03 S1000
X62.5 M03 S0
G01 X74.8 Y0.7 M03 S0
X49.9 M03 S0
X49.8 M03 S1000
X49.7 M03 S0
X49.6 M03 S1000
X49.2 M03 S0
X49.1 M03 S1000
X48.6 M03 S0
X48.5 M03 S1000
X48.2 M03 S0
X48.1 M03 S1000
X48.0 M03 S0
X47.9 M03 S1000
X47.8 M03 S0
X47.7 M03 S1000
X47.6 M03 S0
X47.5 M03 S1000
X47.4 M03 S0
X47.3 M03 S1000
X47.2 M03 S0
X47.1 M03 S1000
X47.0 M03 S0
X46.9 M03 S1000
X46.8 M03 S0
X46.7 M03 S1000
X46.6 M03 S0
X46.5 M03 S1000
X46.4 M03 S0
X46.3 M03 S1000
X46.2 M03 S0
X46.1 M03 S1000
X46.0 M03 S0
X45.9 M03 S1000
X45.8 M03 S0
X45.7 M03 S1000
X45.6 M03 S0
X45.5 M03 S1000
X45.4 M03 S0
X45.3 M03 S1000
X45.2 M03 S0
X45.1 M03 S1000
X45.0 M03 S0
X44.9 M03 S1000
X44.7 M03 S0
X44.6 M03 S1000
X44.5 M03 S0
X44.4 M03 S1000
X44.2 M03 S0
X44.1 M03 S1000
X43.7 M03 S0
X43.6 M03 S1000
X43.4 M03 S0
X43.3 M03 S1000
X42.8 M03 S0
X42.7 M03 S1000
X42.4 M03 S0
X42.3 M03 S1000
X42.0 M03 S0
X41.9 M03 S1000
X41.5 M03 S0
X41.4 M03 S1000
X41.2 M03 S0
X41.1 M03 S1000
X41.0 M03 S0
X40.9 M03 S1000
X40.7 M03 S0
X40.6 M03 S1000
X40.4 M03 S0
X40.3 M03 S1000
X40.1 M03 S0
X40.0 M03 S1000
X39.8 M03 S0
X39.7 M03 S1000
X39.4 M03 S0
X39.3 M03 S1000
X39.1 M03 S0
X39.0 M03 S1000
X38.8 M03 S0
X38.7 M03 S1000
X38.6 M03 S0
X38.5 M03 S1000
X38.3 M03 S0
X38.2 M03 S1000
X38.0 M03 S0
X37.9 M03 S1000
X37.8 M03 S0
X37.7 M03 S1000
X37.2 M03 S0
X37.1 M03 S1000
X36.9 M03 S0
X36.8 M03 S1000
X36.6 M03 S0
X36.5 M03 S1000
X36.4 M03 S0
X36.3 M03 S1000
X36.1 M03 S0
X36.0 M03 S1000
X35.9 M03 S0
X35.8 M03 S1000
X35.7 M03 S0
X35.6 M03 S1000
X35.5 M03 S0
X35.4 M03 S1000
X35.3 M03 S0
X35.2 M03 S1000
X35.0 M03 S0
X34.9 M03 S1000
X34.8 M03 S0
X34.7 M03 S1000
X34.6 M03 S0
X34.5 M03 S1000
X34.3 M03 S0
X34.2 M03 S1000
X34.0 M03 S0
X33.9 M03 S1000
X33.7 M03 S0
X33.6 M03 S1000
X33.4 M03 S0
X33.3 M03 S1000
X33.1 M03 S0
X33.0 M03 S1000
X32.9 M03 S0
X32.8 M03 S1000
X32.6 M03 S0
X32.5 M03 S1000
X32.4 M03 S0
X32.3 M03 S1000
X32.2 M03 S0
X32.1 M03 S1000
X32.0 M03 S0
X31.9 M03 S1000
X31.8 M03 S0
X31.7 M03 S1000
X31.6 M03 S0
X31.5 M03 S1000
X31.4 M03 S0
X31.3 M03 S1000
X31.1 M03 S0
X31.0 M03 S1000
X30.9 M03 S0
X30.8 M03 S1000
X30.7 M03 S0
X30.6 M03 S1000
X30.5 M03 S0
X30.4 M03 S1000
X30.3 M03 S0
X30.2 M03 S1000
X30.1 M03 S0
X30.0 M03 S1000
X29.9 M03 S0
X29.8 M03 S1000
X29.7 M03 S0
X29.6 M03 S1000
X29.5 M03 S0
X29.4 M03 S1000
X29.3 M03 S0
X29.2 M03 S1000
X29.1 M03 S0
X29.0 M03 S1000
X28.9 M03 S0
X28.8 M03 S1000
X28.7 M03 S0
X28.6 M03 S1000
X28.5 M03 S0
X28.4 M03 S1000
X28.3 M03 S0
X28.2 M03 S1000
X28.1 M03 S0
X27.9 M03 S1000
X27.8 M03 S0
X27.7 M03 S1000
X27.6 M03 S0
X27.4 M03 S1000
X27.3 M03 S0
X27.2 M03 S1000
X27.1 M03 S0
X27.0 M03 S1000
X26.9 M03 S0
X26.6 M03 S1000
X26.5 M03 S0
X26.4 M03 S1000
X26.3 M03 S0
X26.1 M03 S1000
X26.0 M03 S0
X25.8 M03 S1000
X25.7 M03 S0
X25.5 M03 S1000
X25.4 M03 S0
X25.2 M03 S1000
X25.1 M03 S0
X25.0 M03 S1000
X24.9 M03 S0
X24.7 M03 S1000
X24.6 M03 S0
X24.4 M03 S1000
X24.3 M03 S0
X24.1 M03 S1000
X24.0 M03 S0
X23.8 M03 S1000
X23.7 M03 S0
X23.6 M03 S1000
X23.5 M03 S0
X23.4 M03 S1000
X23.3 M03 S0
X23.1 M03 S1000
X23.0 M03 S0
X22.8 M03 S1000
X22.7 M03 S0
X22.5 M03 S1000
X22.4 M03 S0
X22.2 M03 S1000
X22.1 M03 S0
X22.0 M03 S1000
X21.9 M03 S0
X21.7 M03 S1000
X21.6 M03 S0
X21.4 M03 S1000
X21.3 M03 S0
X21.2 M03 S1000
X21.1 M03 S0
X20.9 M03 S1000
X20.8 M03 S0
X20.6 M03 S1000
X20.5 M03 S0
X20.2 M03 S1000
X20.1 M03 S0
X19.9 M03 S1000
X19.8 M03 S0
X19.7 M03 S1000
X19.6 M03 S0
X19.4 M03 S1000
X19.3 M03 S0
X19.2 M03 S1000
X19.1 M03 S0
X19.0 M03 S1000
X18.9 M03 S0
X18.7 M03 S1000
X18.6 M03 S0
X18.5 M03 S1000
X18.4 M03 S0
X18.2 M03 S1000
X18.1 M03 S0
X17.9 M03 S1000
X17.8 M03 S0
X17.7 M03 S1000
X17.6 M03 S0
X17.4 M03 S1000
X17.3 M03 S0
X17.2 M03 S1000
X17.1 M03 S0
X17.0 M03 S1000
X16.9 M03 S0
X16.8 M03 S1000
X16.7 M03 S0
X16.5 M03 S1000
X16.4 M03 S0
X16.2 M03 S1000
X16.1 M03 S0
X15.8 M03 S1000
X15.7 M03 S0
X15.5 M03 S1000
X15.4 M03 S0
X15.3 M03 S1000
X15.2 M03 S0
X15.0 M03 S1000
X14.9 M03 S0
X14.8 M03 S1000
X14.7 M03 S0
X14.6 M03 S1000
X14.5 M03 S0
X14.4 M03 S1000
X14.3 M03 S0
X14.2 M03 S1000
X14.1 M03 S0
X14.0 M03 S1000
X13.9 M03 S0
X13.8 M03 S1000
X13.7 M03 S0
X13.6 M03 S1000
X13.5 M03 S0
X13.3 M03 S1000
X13.2 M03 S0
X13.1 M03 S1000
X13.0 M03 S0
X12.8 M03 S1000
X12.7 M03 S0
X12.6 M03 S1000
X12.5 M03 S0
X12.3 M03 S1000
X12.2 M03 S0
X12.0 M03 S1000
X11.9 M03 S0
X11.8 M03 S1000
X11.7 M03 S0
X11.6 M03 S1000
X11.5 M03 S0
X11.4 M03 S1000
X11.3 M03 S0
X11.2 M03 S1000
X11.1 M03 S0
X11.0 M03 S1000
X10.9 M03 S0
X10.8 M03 S1000
X10.7 M03 S0
X10.6 M03 S1000
X10.5 M03 S0
X10.4 M03 S1000
X10.3 M03 S0
X10.2 M03 S1000
X10.1 M03 S0
X10.0 M03 S1000
X9.9 M03 S0
X9.7 M03 S1000
X9.6 M03 S0
X9.5 M03 S1000
X9.4 M03 S0
X9.3 M03 S1000
X9.2 M03 S0
X9.1 M03 S1000
X9.0 M03 S0
X8.9 M03 S1000
X8.8 M03 S0
X8.7 M03 S1000
X8.6 M03 S0
X8.5 M03 S1000
X8.4 M03 S0
X8.3 M03 S1000
X8.2 M03 S0
X8.1 M03 S1000
X8.0 M03 S0
X7.9 M03 S1000
X7.8 M03 S0
X7.7 M03 S1000
X7.6 M03 S0
X7.5 M03 S1000
X7.4 M03 S0
X7.3 M03 S1000
X7.2 M03 S0
X7.1 M03 S1000
X7.0 M03 S0
X6.9 M03 S1000
X6.8 M03 S0
X6.7 M03 S1000
X6.6 M03 S0
X6.5 M03 S1000
X6.4 M03 S0
X6.3 M03 S1000
X6.2 M03 S0
X6.1 M03 S1000
X6.0 M03 S0
X5.9 M03 S1000
X5.8 M03 S0
X5.7 M03 S1000
X5.6 M03 S0
X5.5 M03 S1000
X5.4 M03 S0
X5.3 M03 S1000
X5.2 M03 S0
X5.0 M03 S1000
X4.9 M03 S0
X4.7 M03 S1000
X4.6 M03 S0
X4.5 M03 S1000
X4.4 M03 S0
X4.2 M03 S1000
X4.1 M03 S0
X4.0 M03 S1000
X3.9 M03 S0
X3.8 M03 S1000
X3.7 M03 S0
X3.5 M03 S1000
X3.4 M03 S0
X3.2 M03 S1000
X3.1 M03 S0
X2.9 M03 S1000
X2.8 M03 S0
X2.7 M03 S1000
X2.6 M03 S0
X2.4 M03 S1000
X2.3 M03 S0
X2.0 M03 S1000
X1.9 M03 S0
X1.7 M03 S1000
X1.6 M03 S0
X1.5 M03 S1000
X1.4 M03 S0
X1.2 M03 S1000
X1.1 M03 S0
X1.0 M03 S1000
X0.9 M03 S0
X0.8 M03 S1000
X0.7 M03 S0
X0.5 M03 S1000
X0.4 M03 S0
X0.3 M03 S1000
X0.2 M03 S0
X0.0 M03 S1000
X-12.5 M03 S0
G01 X-24.9 Y0.8 M03 S0
X0.1 M03 S0
X0.2 M03 S1000
X0.3 M03 S0
X0.5 M03 S1000
X0.6 M03 S0
X0.8 M03 S1000
X0.9 M03 S0
X1.1 M03 S1000
X1.2 M03 S0
X1.3 M03 S1000
X1.4 M03 S0
X1.6 M03 S1000
X1.7 M03 S0
X1.8 M03 S1000
X1.9 M03 S0
X2.0 M03 S1000
X2.1 M03 S0
X2.2 M03 S1000
X2.3 M03 S0
X2.4 M03 S1000
X2.5 M03 S0
X2.6 M03 S1000
X2.7 M03 S0
X2.9 M03 S1000
X3.0 M03 S0
X3.2 M03 S1000
X3.3 M03 S0
X3.5 M03 S1000
X3.6 M03 S0
X3.7 M03 S1000
X3.8 M03 S0
X4.0 M03 S1000
X4.1 M03 S0
X4.2 M03 S1000
X4.3 M03 S0
X4.4 M03 S1000
X4.5 M03 S0
X4.7 M03 S1000
X4.8 M03 S0
X4.9 M03 S1000
X5.0 M03 S0
X5.1 M03 S1000
X5.2 M03 S0
X5.3 M03 S1000
X5.4 M03 S0
X5.6 M03 S1000
X5.7 M03 S0
X5.9 M03 S1000
X6.0 M03 S0
X6.1 M03 S1000
X6.2 M03 S0
X6.4 M03 S1000
X6.5 M03 S0
X6.6 M03 S1000
X6.7 M03 S0
X6.8 M03 S1000
X6.9 M03 S0
X7.0 M03 S1000
X7.1 M03 S0
X7.2 M03 S1000
X7.3 M03 S0
X7.4 M03 S1000
X7.5 M03 S0
X7.6 M03 S1000
X7.7 M03 S0
X7.8 M03 S1000
X7.9 M03 S0
X8.0 M03 S1000
X8.1 M03 S0
X8.2 M03 S1000
X8.3 M03 S0
X8.4 M03 S1000
X8.5 M03 S0
X8.6 M03 S1000
X8.7 M03 S0
X8.8 M03 S1000
X8.9 M03 S0
X9.0 M03 S1000
X9.1 M03 S0
X9.3 M03 S1000
X9.4 M03 S0
X9.5 M03 S1000
X9.6 M03 S0
X9.7 M03 S1000
X9.8 M03 S0
X9.9 M03 S1000
X10.0 M03 S0
X10.1 M03 S1000
X10.2 M03 S0
X10.3 M03 S1000
X10.4 M03 S0
X10.5 M03 S1000
X10.6 M03 S0
X10.7 M03 S1000
X10.8 M03 S0
X10.9 M03 S1000
X11.0 M03 S0
X11.1 M03 S1000
X11.2 M03 S0
X11.4 M03 S1000
X11.5 M03 S0
X11.7 M03 S1000
X11.8 M03 S0
X12.0 M03 S1000
X12.1 M03 S0
X12.2 M03 S1000
X12.3 M03 S0
X12.4 M03 S1000
X12.5 M03 S0
X12.7 M03 S1000
X12.8 M03 S0
X12.9 M03 S1000
X13.0 M03 S0
X13.2 M03 S1000
X13.3 M03 S0
X13.4 M03 S1000
X13.5 M03 S0
X13.6 M03 S1000
X13.7 M03 S0
X13.9 M03 S1000
X14.0 M03 S0
X14.2 M03 S1000
X14.3 M03 S0
X14.5 M03 S1000
X14.6 M03 S0
X14.9 M03 S1000
X15.0 M03 S0
X15.1 M03 S1000
X15.2 M03 S0
X15.3 M03 S1000
X15.4 M03 S0
X15.5 M03 S1000
X15.6 M03 S0
X15.8 M03 S1000
X15.9 M03 S0
X16.0 M03 S1000
X16.1 M03 S0
X16.2 M03 S1000
X16.3 M03 S0
X16.5 M03 S1000
X16.6 M03 S0
X16.9 M03 S1000
X17.0 M03 S0
X17.2 M03 S1000
X17.3 M03 S0
X17.4 M03 S1000
X17.5 M03 S0
X17.6 M03 S1000
X17.7 M03 S0
X17.9 M03 S1000
X18.0 M03 S0
X18.1 M03 S1000
X18.2 M03 S0
X18.3 M03 S1000
X18.4 M03 S0
X18.7 M03 S1000
X18.8 M03 S0
X18.9 M03 S1000
X19.0 M03 S0
X19.4 M03 S1000
X19.5 M03 S0
X19.9 M03 S1000
X20.0 M03 S0
X20.2 M03 S1000
X20.3 M03 S0
X20.4 M03 S1000
X20.5 M03 S0
X20.6 M03 S1000
X20.7 M03 S0
X20.9 M03 S1000
X21.0 M03 S0
X21.4 M03 S1000
X21.5 M03 S0
X21.7 M03 S1000
X21.8 M03 S0
X22.2 M03 S1000
X22.3 M03 S0
X22.5 M03 S1000
X22.6 M03 S0
X22.8 M03 S1000
X22.9 M03 S0
X23.1 M03 S1000
X23.2 M03 S0
X23.4 M03 S1000
X23.5 M03 S0
X23.8 M03 S1000
X23.9 M03 S0
X24.1 M03 S1000
X24.2 M03 S0
X24.4 M03 S1000
X24.5 M03 S0
X24.7 M03 S1000
X24.8 M03 S0
X25.0 M03 S1000
X25.1 M03 S0
X25.2 M03 S1000
X25.3 M03 S0
X25.5 M03 S1000
X25.6 M03 S0
X25.8 M03 S1000
X25.9 M03 S0
X26.1 M03 S1000
X26.2 M03 S0
X26.3 M03 S1000
X26.4 M03 S0
X26.6 M03 S1000
X26.7 M03 S0
X26.8 M03 S1000
X26.9 M03 S0
X27.0 M03 S1000
X27.1 M03 S0
X27.2 M03 S1000
X27.3 M03 S0
X27.4 M03 S1000
X27.5 M03 S0
X27.7 M03 S1000
X27.8 M03 S0
X27.9 M03 S1000
X28.0 M03 S0
X28.1 M03 S1000
X28.2 M03 S0
X28.3 M03 S1000
X28.4 M03 S0
X28.5 M03 S1000
X28.6 M03 S0
X28.7 M03 S1000
X28.8 M03 S0
X28.9 M03 S1000
X29.0 M03 S0
X29.1 M03 S1000
X29.2 M03 S0
X29.3 M03 S1000
X29.4 M03 S0
X29.5 M03 S1000
X29.6 M03 S0
X29.7 M03 S1000
X29.8 M03 S0
X29.9 M03 S1000
X30.1 M03 S0
X30.2 M03 S1000
X30.3 M03 S0
X30.4 M03 S1000
X30.5 M03 S0
X30.6 M03 S1000
X30.7 M03 S0
X30.8 M03 S1000
X30.9 M03 S0
X31.0 M03 S1000
X31.1 M03 S0
X31.2 M03 S1000
X31.3 M03 S0
X31.4 M03 S1000
X31.5 M03 S0
X31.6 M03 S1000
X31.8 M03 S0
X31.9 M03 S1000
X32.0 M03 S0
X32.1 M03 S1000
X32.2 M03 S0
X32.3 M03 S1000
X32.4 M03 S0
X32.5 M03 S1000
X32.6 M03 S0
X32.7 M03 S1000
X32.9 M03 S0
X33.0 M03 S1000
X33.1 M03 S0
X33.2 M03 S1000
X33.3 M03 S0
X33.4 M03 S1000
X33.5 M03 S0
X33.6 M03 S1000
X33.7 M03 S0
X33.8 M03 S1000
X34.0 M03 S0
X34.1 M03 S1000
X34.3 M03 S0
X34.4 M03 S1000
X34.5 M03 S0
X34.6 M03 S1000
X34.8 M03 S0
X34.9 M03 S1000
X35.1 M03 S0
X35.2 M03 S1000
X35.4 M03 S0
X35.5 M03 S1000
X35.7 M03 S0
X35.8 M03 S1000
X36.1 M03 S0
X36.2 M03 S1000
X36.6 M03 S0
X36.7 M03 S1000
X36.9 M03 S0
X37.0 M03 S1000
X37.3 M03 S0
X37.4 M03 S1000
X37.5 M03 S0
X37.6 M03 S1000
X38.0 M03 S0
X38.1 M03 S1000
X38.4 M03 S0
X38.5 M03 S1000
X38.8 M03 S0
X38.9 M03 S1000
X39.1 M03 S0
X39.2 M03 S1000
X39.4 M03 S0
X39.5 M03 S1000
X39.6 M03 S0
X39.7 M03 S1000
X39.9 M03 S0
X40.0 M03 S1000
X40.2 M03 S0
X40.3 M03 S1000
X40.5 M03 S0
X40.6 M03 S1000
X40.8 M03 S0
X40.9 M03 S1000
X41.1 M03 S0
X41.2 M03 S1000
X41.3 M03 S0
X41.4 M03 S1000
X41.6 M03 S0
X41.7 M03 S1000
X41.8 M03 S0
X41.9 M03 S1000
X42.1 M03 S0
X42.2 M03 S1000
X42.4 M03 S0
X42.5 M03 S1000
X42.6 M03 S0
X42.7 M03 S1000
X42.9 M03 S0
X43.0 M03 S1000
X43.1 M03 S0
X43.2 M03 S1000
X43.5 M03 S0
X43.6 M03 S1000
X43.8 M03 S0
X43.9 M03 S1000
X44.2 M03 S0
X44.3 M03 S1000
X44.8 M03 S0
X44.9 M03 S1000
X45.2 M03 S0
X45.3 M03 S1000
X45.6 M03 S0
X45.7 M03 S1000
X46.0 M03 S0
X46.1 M03 S1000
X46.4 M03 S0
X46.5 M03 S1000
X46.8 M03 S0
X46.9 M03 S1000
X47.2 M03 S0
X47.3 M03 S1000
X47.6 M03 S0
X47.7 M03 S1000
X48.0 M03 S0
X48.1 M03 S1000
X48.3 M03 S0
X48.4 M03 S1000
X48.6 M03 S0
X48.7 M03 S1000
X48.8 M03 S0
X48.9 M03 S1000
X49.0 M03 S0
X49.1 M03 S1000
X49.3 M03 S0
X49.4 M03 S1000
X49.5 M03 S0
X49.6 M03 S1000
X62.1 M03 S0
G01 X74.9 Y0.9 M03 S0
X50.0 M03 S0
X49.9 M03 S1000
X49.8 M03 S0
X49.7 M03 S1000
X49.5 M03 S0
X49.4 M03 S1000
X49.2 M03 S0
X49.1 M03 S1000
X48.6 M03 S0
X48.5 M03 S1000
X48.3 M03 S0
X48.2 M03 S1000
X47.9 M03 S0
X47.8 M03 S1000
X47.5 M03 S0
X47.4 M03 S1000
X47.1 M03 S0
X47.0 M03 S1000
X46.7 M03 S0
X46.6 M03 S1000
X46.3 M03 S0
X46.2 M03 S1000
X45.9 M03 S0
X45.8 M03 S1000
X45.5 M03 S0
X45.4 M03 S1000
X45.1 M03 S0
X45.0 M03 S1000
X44.7 M03 S0
X44.6 M03 S1000
X44.5 M03 S0
X44.4 M03 S1000
X44.2 M03 S0
X44.1 M03 S1000
X44.0 M03 S0
X43.9 M03 S1000
X43.5 M03 S0
X43.4 M03 S1000
X43.3 M03 S0
X43.2 M03 S1000
X42.9 M03 S0
X42.8 M03 S1000
X42.3 M03 S0
X42.2 M03 S1000
X42.0 M03 S0
X41.9 M03 S1000
X41.6 M03 S0
X41.5 M03 S1000
X41.3 M03 S0
X41.2 M03 S1000
X41.0 M03 S0
X40.9 M03 S1000
X40.7 M03 S0
X40.6 M03 S1000
X40.4 M03 S0
X40.3 M03 S1000
X40.1 M03 S0
X40.0 M03 S1000
X39.8 M03 S0
X39.7 M03 S1000
X39.4 M03 S0
X39.3 M03 S1000
X39.0 M03 S0
X38.9 M03 S1000
X38.7 M03 S0
X38.6 M03 S1000
X38.3 M03 S0
X38.2 M03 S1000
X38.0 M03 S0
X37.9 M03 S1000
X37.8 M03 S0
X37.7 M03 S1000
X37.5 M03 S0
X37.4 M03 S1000
X37.2 M03 S0
X37.1 M03 S1000
X36.9 M03 S0
X36.8 M03 S1000
X36.6 M03 S0
X36.5 M03 S1000
X36.4 M03 S0
X36.3 M03 S1000
X36.1 M03 S0
X36.0 M03 S1000
X35.9 M03 S0
X35.8 M03 S1000
X35.6 M03 S0
X35.5 M03 S1000
X35.3 M03 S0
X35.2 M03 S1000
X35.0 M03 S0
X34.9 M03 S1000
X34.7 M03 S0
X34.6 M03 S1000
X34.4 M03 S0
X34.3 M03 S1000
X34.2 M03 S0
X34.1 M03 S1000
X34.0 M03 S0
X33.9 M03 S1000
X33.8 M03 S0
X33.7 M03 S1000
X33.5 M03 S0
X33.4 M03 S1000
X33.2 M03 S0
X33.1 M03 S1000
X32.9 M03 S0
X32.8 M03 S1000
X32.7 M03 S0
X32.6 M03 S1000
X32.4 M03 S0
X32.3 M03 S1000
X32.0 M03 S0
X31.9 M03 S1000
X31.7 M03 S0
X31.6 M03 S1000
X31.5 M03 S0
X31.4 M03 S1000
X31.2 M03 S0
X31.1 M03 S1000
X30.9 M03 S0
X30.8 M03 S1000
X30.6 M03 S0
X30.5 M03 S1000
X30.4 M03 S0
X30.3 M03 S1000
X30.2 M03 S0
X30.1 M03 S1000
X30.0 M03 S0
X29.9 M03 S1000
X29.8 M03 S0
X29.7 M03 S1000
X29.6 M03 S0
X29.5 M03 S1000
X29.4 M03 S0
X29.3 M03 S1000
X29.2 M03 S0
X29.1 M03 S1000
X29.0 M03 S0
X28.9 M03 S1000
X28.8 M03 S0
X28.7 M03 S1000
X28.6 M03 S0
X28.5 M03 S1000
X28.4 M03 S0
X28.2 M03 S1000
X28.1 M03 S0
X27.9 M03 S1000
X27.8 M03 S0
X27.7 M03 S1000
X27.6 M03 S0
X27.5 M03 S1000
X27.4 M03 S0
X27.1 M03 S1000
X27.0 M03 S0
X26.8 M03 S1000
X26.7 M03 S0
X26.6 M03 S1000
X26.5 M03 S0
X26.4 M03 S1000
X26.3 M03 S0
X26.1 M03 S1000
X26.0 M03 S0
X25.9 M03 S1000
X25.8 M03 S0
X25.7 M03 S1000
X25.6 M03 S0
X25.4 M03 S1000
X25.3 M03 S0
X24.9 M03 S1000
X24.8 M03 S0
X24.6 M03 S1000
X24.5 M03 S0
X24.3 M03 S1000
X24.2 M03 S0
X24.0 M03 S1000
X23.9 M03 S0
X23.8 M03 S1000
X23.7 M03 S0
X23.6 M03 S1000
X23.5 M03 S0
X23.3 M03 S1000
X23.2 M03 S0
X23.0 M03 S1000
X22.9 M03 S0
X22.7 M03 S1000
X22.6 M03 S0
X22.4 M03 S1000
X22.3 M03 S0
X22.1 M03 S1000
X22.0 M03 S0
X21.9 M03 S1000
X21.8 M03 S0
X21.6 M03 S1000
X21.5 M03 S0
X21.3 M03 S1000
X21.2 M03 S0
X21.1 M03 S1000
X21.0 M03 S0
X20.8 M03 S1000
X20.7 M03 S0
X20.4 M03 S1000
X20.3 M03 S0
X20.1 M03 S1000
X20.0 M03 S0
X19.8 M03 S1000
X19.7 M03 S0
X19.6 M03 S1000
X19.5 M03 S0
X19.3 M03 S1000
X19.2 M03 S0
X19.1 M03 S1000
X19.0 M03 S0
X18.7 M03 S1000
X18.6 M03 S0
X18.5 M03 S1000
X18.4 M03 S0
X18.1 M03 S1000
X18.0 M03 S0
X17.8 M03 S1000
X17.7 M03 S0
X17.5 M03 S1000
X17.4 M03 S0
X17.1 M03 S1000
X17.0 M03 S0
X16.8 M03 S1000
X16.6 M03 S0
X16.4 M03 S1000
X16.3 M03 S0
X16.2 M03 S1000
X16.1 M03 S0
X15.9 M03 S1000
X15.8 M03 S0
X15.7 M03 S1000
X15.6 M03 S0
X15.2 M03 S1000
X15.1 M03 S0
X14.9 M03 S1000
X14.8 M03 S0
X14.7 M03 S1000
X14.6 M03 S0
X14.4 M03 S1000
X14.3 M03 S0
X14.1 M03 S1000
X14.0 M03 S0
X13.8 M03 S1000
X13.7 M03 S0
X13.6 M03 S1000
X13.5 M03 S0
X13.3 M03 S1000
X13.2 M03 S0
X13.1 M03 S1000
X13.0 M03 S0
X12.8 M03 S1000
X12.7 M03 S0
X12.6 M03 S1000
X12.5 M03 S0
X12.4 M03 S1000
X12.3 M03 S0
X12.2 M03 S1000
X12.1 M03 S0
X12.0 M03 S1000
X11.9 M03 S0
X11.8 M03 S1000
X11.7 M03 S0
X11.6 M03 S1000
X11.5 M03 S0
X11.4 M03 S1000
X11.3 M03 S0
X11.2 M03 S1000
X11.1 M03 S0
X10.9 M03 S1000
X10.8 M03 S0
X10.7 M03 S1000
X10.6 M03 S0
X10.4 M03 S1000
X10.3 M03 S0
X10.1 M03 S1000
X10.0 M03 S0
X9.9 M03 S1000
X9.8 M03 S0
X9.7 M03 S1000
X9.6 M03 S0
X9.4 M03 S1000
X9.3 M03 S0
X9.2 M03 S1000
X9.1 M03 S0
X9.0 M03 S1000
X8.9 M03 S0
X8.8 M03 S1000
X8.7 M03 S0
X8.6 M03 S1000
X8.5 M03 S0
X8.4 M03 S1000
X8.3 M03 S0
X8.1 M03 S1000
X8.0 M03 S0
X7.9 M03 S1000
X7.8 M03 S0
X7.6 M03 S1000
X7.5 M03 S0
X7.4 M03 S1000
X7.3 M03 S0
X7.1 M03 S1000
X7.0 M03 S0
X6.9 M03 S1000
X6.8 M03 S0
X6.7 M03 S1000
X6.6 M03 S0
X6.5 M03 S1000
X6.4 M03 S0
X6.3 M03 S1000
X6.2 M03 S0
X6.1 M03 S1000
X6.0 M03 S0
X5.9 M03 S1000
X5.8 M03 S0
X5.7 M03 S1000
X5.6 M03 S0
X5.5 M03 S1000
X5.4 M03 S0
X5.3 M03 S1000
X5.2 M03 S0
X5.1 M03 S1000
X5.0 M03 S0
X4.9 M03 S1000
X4.8 M03 S0
X4.7 M03 S1000
X4.6 M03 S0
X4.5 M03 S1000
X4.4 M03 S0
X4.3 M03 S1000
X4.2 M03 S0
X4.0 M03 S1000
X3.9 M03 S0
X3.8 M03 S1000
X3.7 M03 S0
X3.6 M03 S1000
X3.5 M03 S0
X3.4 M03 S1000
X3.3 M03 S0
X3.2 M03 S1000
X3.1 M03 S0
X3.0 M03 S1000
X2.9 M03 S0
X2.8 M03 S1000
X2.7 M03 S0
X2.5 M03 S1000
X2.4 M03 S0
X2.2 M03 S1000
X2.1 M03 S0
X1.8 M03 S1000
X1.7 M03 S0
X1.5 M03 S1000
X1.4 M03 S0
X1.2 M03 S1000
X1.1 M03 S0
X1.0 M03 S1000
X0.9 M03 S0
X0.8 M03 S1000
X0.7 M03 S0
X0.6 M03 S1000
X0.5 M03 S0
X0.4 M03 S1000
X0.3 M03 S0
X0.2 M03 S1000
X0.1 M03 S0
X0.0 M03 S1000
X-12.5 M03 S0
G01 X-24.9 Y1.0 M03 S0
X0.1 M03 S0
X0.3 M03 S1000
X0.4 M03 S0
X0.5 M03 S1000
X0.6 M03 S0
X0.8 M03 S1000
X0.9 M03 S0
X1.1 M03 S1000
X1.2 M03 S0
X1.3 M03 S1000
X1.4 M03 S0
X1.5 M03 S1000
X1.6 M03 S0
X1.8 M03 S1000
X1.9 M03 S0
X2.0 M03 S1000
X2.1 M03 S0
X2.2 M03 S1000
X2.3 M03 S0
X2.5 M03 S1000
X2.6 M03 S0
X2.7 M03 S1000
X2.8 M03 S0
X3.0 M03 S1000
X3.1 M03 S0
X3.3 M03 S1000
X3.4 M03 S0
X3.6 M03 S1000
X3.7 M03 S0
X3.8 M03 S1000
X3.9 M03 S0
X4.0 M03 S1000
X4.1 M03 S0
X4.2 M03 S1000
X4.3 M03 S0
X4.5 M03 S1000
X4.6 M03 S0
X4.7 M03 S1000
X4.8 M03 S0
X5.0 M03 S1000
X5.1 M03 S0
X5.3 M03 S1000
X5.4 M03 S0
X5.5 M03 S1000
X5.6 M03 S0
X5.7 M03 S1000
X5.8 M03 S0
X5.9 M03 S1000
X6.0 M03 S0
X6.2 M03 S1000
X6.3 M03 S0
X6.4 M03 S1000
X6.5 M03 S0
X6.7 M03 S1000
X6.8 M03 S0
X6.9 M03 S1000
X7.0 M03 S0
X7.1 M03 S1000
X7.2 M03 S0
X7.3 M03 S1000
X7.4 M03 S0
X7.6 M03 S1000
X7.7 M03 S0
X7.8 M03 S1000
X7.9 M03 S0
X8.1 M03 S1000
X8.2 M03 S0
X8.3 M03 S1000
X8.4 M03 S0
X8.5 M03 S1000
X8.6 M03 S0
X8.8 M03 S1000
X8.9 M03 S0
X9.1 M03 S1000
X9.2 M03 S0
X9.3 M03 S1000
X9.4 M03 S0
X9.5 M03 S1000
X9.6 M03 S0
X9.7 M03 S1000
X9.8 M03 S0
X10.0 M03 S1000
X10.1 M03 S0
X10.2 M03 S1000
X10.3 M03 S0
X10.4 M03 S1000
X10.5 M03 S0
X10.6 M03 S1000
X10.7 M03 S0
X10.9 M03 S1000
X11.0 M03 S0
X11.1 M03 S1000
X11.2 M03 S0
X11.3 M03 S1000
X11.4 M03 S0
X11.5 M03 S1000
X11.6 M03 S0
X11.8 M03 S1000
X11.9 M03 S0
X12.0 M03 S1000
X12.1 M03 S0
X12.3 M03 S1000
X12.4 M03 S0
X12.6 M03 S1000
X12.7 M03 S0
X12.8 M03 S1000
X12.9 M03 S0
X13.0 M03 S1000
X13.1 M03 S0
X13.3 M03 S1000
X13.4 M03 S0
X13.6 M03 S1000
X13.7 M03 S0
X13.8 M03 S1000
X13.9 M03 S0
X14.0 M03 S1000
X14.1 M03 S0
X14.2 M03 S1000
X14.3 M03 S0
X14.4 M03 S1000
X14.5 M03 S0
X14.6 M03 S1000
X14.7 M03 S0
X14.9 M03 S1000
X15.0 M03 S0
X15.2 M03 S1000
X15.3 M03 S0
X15.4 M03 S1000
X15.5 M03 S0
X15.6 M03 S1000
X15.7 M03 S0
X15.9 M03 S1000
X16.0 M03 S0
X16.2 M03 S1000
X16.3 M03 S0
X16.4 M03 S1000
X16.5 M03 S0
X16.8 M03 S1000
X16.9 M03 S0
X17.0 M03 S1000
X17.1 M03 S0
X17.2 M03 S1000
X17.3 M03 S0
X17.5 M03 S1000
X17.6 M03 S0
X17.8 M03 S1000
X17.9 M03 S0
X18.1 M03 S1000
X18.2 M03 S0
X18.3 M03 S1000
X18.4 M03 S0
X18.5 M03 S1000
X18.6 M03 S0
X18.7 M03 S1000
X18.8 M03 S0
X18.9 M03 S1000
X19.0 M03 S0
X19.1 M03 S1000
X19.2 M03 S0
X19.3 M03 S1000
X19.4 M03 S0
X19.5 M03 S1000
X19.6 M03 S0
X19.8 M03 S1000
X19.9 M03 S0
X20.1 M03 S1000
X20.2 M03 S0
X20.4 M03 S1000
X20.5 M03 S0
X20.6 M03 S1000
X20.7 M03 S0
X20.8 M03 S1000
X20.9 M03 S0
X21.1 M03 S1000
X21.2 M03 S0
X21.3 M03 S1000
X21.4 M03 S0
X21.6 M03 S1000
X21.7 M03 S0
X21.9 M03 S1000
X22.0 M03 S0
X22.1 M03 S1000
X22.2 M03 S0
X22.4 M03 S1000
X22.5 M03 S0
X22.7 M03 S1000
X22.8 M03 S0
X23.0 M03 S1000
X23.1 M03 S0
X23.3 M03 S1000
X23.4 M03 S0
X23.6 M03 S1000
X23.7 M03 S0
X24.0 M03 S1000
X24.1 M03 S0
X24.2 M03 S1000
X24.3 M03 S0
X24.4 M03 S1000
X24.5 M03 S0
X24.6 M03 S1000
X24.7 M03 S0
X24.9 M03 S1000
X25.0 M03 S0
X25.1 M03 S1000
X25.2 M03 S0
X25.3 M03 S1000
X25.4 M03 S0
X25.5 M03 S1000
X25.6 M03 S0
X25.9 M03 S1000
X26.0 M03 S0
X26.1 M03 S1000
X26.2 M03 S0
X26.4 M03 S1000
X26.5 M03 S0
X26.8 M03 S1000
X26.9 M03 S0
X27.1 M03 S1000
X27.2 M03 S0
X27.3 M03 S1000
X27.4 M03 S0
X27.5 M03 S1000
X27.6 M03 S0
X27.8 M03 S1000
X27.9 M03 S0
X28.0 M03 S1000
X28.1 M03 S0
X28.2 M03 S1000
X28.3 M03 S0
X28.4 M03 S1000
X28.5 M03 S0
X28.7 M03 S1000
X28.8 M03 S0
X28.9 M03 S1000
X29.0 M03 S0
X29.1 M03 S1000
X29.2 M03 S0
X29.3 M03 S1000
X29.4 M03 S0
X29.5 M03 S1000
X29.6 M03 S0
X29.7 M03 S1000
X29.8 M03 S0
X29.9 M03 S1000
X30.0 M03 S0
X30.1 M03 S1000
X30.2 M03 S0
X30.3 M03 S1000
X30.5 M03 S0
X30.6 M03 S1000
X30.7 M03 S0
X30.8 M03 S1000
X30.9 M03 S0
X31.0 M03 S1000
X31.2 M03 S0
X31.3 M03 S1000
X31.4 M03 S0
X31.5 M03 S1000
X31.7 M03 S0
X31.8 M03 S1000
X31.9 M03 S0
X32.0 M03 S1000
X32.1 M03 S0
X32.2 M03 S1000
X32.4 M03 S0
X32.5 M03 S1000
X32.7 M03 S0
X32.8 M03 S1000
X32.9 M03 S0
X33.0 M03 S1000
X33.2 M03 S0
X33.3 M03 S1000
X33.5 M03 S0
X33.6 M03 S1000
X33.8 M03 S0
X33.9 M03 S1000
X34.1 M03 S0
X34.2 M03 S1000
X34.4 M03 S0
X34.5 M03 S1000
X34.7 M03 S0
X34.8 M03 S1000
X35.0 M03 S0
X35.1 M03 S1000
X35.3 M03 S0
X35.4 M03 S1000
X35.6 M03 S0
X35.7 M03 S1000
X35.9 M03 S0
X36.0 M03 S1000
X36.2 M03 S0
X36.3 M03 S1000
X36.6 M03 S0
X36.7 M03 S1000
X36.9 M03 S0
X37.0 M03 S1000
X37.2 M03 S0
X37.3 M03 S1000
X37.5 M03 S0
X37.6 M03 S1000
X37.8 M03 S0
X37.9 M03 S1000
X38.1 M03 S0
X38.2 M03 S1000
X38.4 M03 S0
X38.5 M03 S1000
X38.7 M03 S0
X38.8 M03 S1000
X39.1 M03 S0
X39.2 M03 S1000
X39.5 M03 S0
X39.6 M03 S1000
X39.8 M03 S0
X39.9 M03 S1000
X40.1 M03 S0
X40.2 M03 S1000
X40.4 M03 S0
X40.5 M03 S1000
X40.7 M03 S0
X40.8 M03 S1000
X41.0 M03 S0
X41.1 M03 S1000
X41.3 M03 S0
X41.4 M03 S1000
X41.6 M03 S0
X41.7 M03 S1000
X41.8 M03 S0
X41.9 M03 S1000
X42.1 M03 S0
X42.2 M03 S1000
X42.4 M03 S0
X42.5 M03 S1000
X42.6 M03 S0
X42.7 M03 S1000
X42.9 M03 S0
X43.0 M03 S1000
X43.6 M03 S0
X43.7 M03 S1000
X43.8 M03 S0
X43.9 M03 S1000
X44.3 M03 S0
X44.4 M03 S1000
X44.7 M03 S0
X44.8 M03 S1000
X45.1 M03 S0
X45.2 M03 S1000
X45.5 M03 S0
X45.6 M03 S1000
X45.9 M03 S0
X46.0 M03 S1000
X46.3 M03 S0
X46.4 M03 S1000
X46.7 M03 S0
X46.8 M03 S1000
X47.1 M03 S0
X47.2 M03 S1000
X47.5 M03 S0
X47.6 M03 S1000
X47.9 M03 S0
X48.0 M03 S1000
X48.3 M03 S0
X48.4 M03 S1000
X48.7 M03 S0
X48.8 M03 S1000
X48.9 M03 S0
X49.0 M03 S1000
X49.2 M03 S0
X49.3 M03 S1000
X49.6 M03 S0
X49.7 M03 S1000
X62.2 M03 S0
G01 X74.9 Y1.1 M03 S0
X50.0 M03 S0
X49.9 M03 S1000
X49.8 M03 S0
X49.7 M03 S1000
X49.5 M03 S0
X49.4 M03 S1000
X49.2 M03 S0
X49.1 M03 S1000
X48.9 M03 S0
X48.8 M03 S1000
X48.5 M03 S0
X48.4 M03 S1000
X48.1 M03 S0
X48.0 M03 S1000
X47.8 M03 S0
X47.7 M03 S1000
X47.5 M03 S0
X47.4 M03 S1000
X47.3 M03 S0
X47.2 M03 S1000
X46.9 M03 S0
X46.8 M03 S1000
X46.5 M03 S0
X46.4 M03 S1000
X46.1 M03 S0
X46.0 M03 S1000
X45.7 M03 S0
X45.6 M03 S1000
X45.4 M03 S0
X45.3 M03 S1000
X45.1 M03 S0
X45.0 M03 S1000
X44.9 M03 S0
X44.8 M03 S1000
X44.6 M03 S0
X44.5 M03 S1000
X44.2 M03 S0
X44.1 M03 S1000
X44.0 M03 S0
X43.9 M03 S1000
X43.5 M03 S0
X43.4 M03 S1000
X43.3 M03 S0
X43.2 M03 S1000
X43.1 M03 S0
X43.0 M03 S1000
X42.8 M03 S0
X42.7 M03 S1000
X42.4 M03 S0
X42.3 M03 S1000
X42.1 M03 S0
X42.0 M03 S1000
X41.8 M03 S0
X41.7 M03 S1000
X41.5 M03 S0
X41.4 M03 S1000
X41.2 M03 S0
X41.1 M03 S1000
X40.9 M03 S0
X40.8 M03 S1000
X40.6 M03 S0
X40.5 M03 S1000
X40.3 M03 S0
X40.2 M03 S1000
X39.8 M03 S0
X39.7 M03 S1000
X39.5 M03 S0
X39.4 M03 S1000
X39.3 M03 S0
X39.2 M03 S1000
X39.0 M03 S0
X38.9 M03 S1000
X38.7 M03 S0
X38.6 M03 S1000
X38.4 M03 S0
X38.3 M03 S1000
X38.1 M03 S0
X38.0 M03 S1000
X37.8 M03 S0
X37.7 M03 S1000
X37.5 M03 S0
X37.4 M03 S1000
X37.2 M03 S0
X37.1 M03 S1000
X36.9 M03 S0
X36.8 M03 S1000
X36.6 M03 S0
X36.5 M03 S1000
X36.4 M03 S0
X36.3 M03 S1000
X36.1 M03 S0
X36.0 M03 S1000
X35.8 M03 S0
X35.7 M03 S1000
X35.5 M03 S0
X35.4 M03 S1000
X35.3 M03 S0
X35.2 M03 S1000
X35.1 M03 S0
X35.0 M03 S1000
X34.9 M03 S0
X34.8 M03 S1000
X34.6 M03 S0
X34.5 M03 S1000
X34.3 M03 S0
X34.2 M03 S1000
X34.0 M03 S0
X33.9 M03 S1000
X33.8 M03 S0
X33.7 M03 S1000
X33.6 M03 S0
X33.5 M03 S1000
X33.4 M03 S0
X33.3 M03 S1000
X33.2 M03 S0
X33.1 M03 S1000
X33.0 M03 S0
X32.9 M03 S1000
X32.7 M03 S0
X32.6 M03 S1000
X32.5 M03 S0
X32.4 M03 S1000
X32.3 M03 S0
X32.2 M03 S1000
X32.1 M03 S0
X32.0 M03 S1000
X31.8 M03 S0
X31.7 M03 S1000
X31.6 M03 S0
X31.5 M03 S1000
X31.3 M03 S0
X31.2 M03 S1000
X31.1 M03 S0
X31.0 M03 S1000
X30.8 M03 S0
X30.7 M03 S1000
X30.6 M03 S0
X30.5 M03 S1000
X30.4 M03 S0
X30.3 M03 S1000
X30.2 M03 S0
X30.1 M03 S1000
X30.0 M03 S0
X29.9 M03 S1000
X29.8 M03 S0
X29.7 M03 S1000
X29.6 M03 S0
X29.5 M03 S1000
X29.4 M03 S0
X29.3 M03 S1000
X29.2 M03 S0
X29.1 M03 S1000
X29.0 M03 S0
X28.9 M03 S1000
X28.8 M03 S0
X28.7 M03 S1000
X28.6 M03 S0
X28.5 M03 S1000
X28.4 M03 S0
X28.3 M03 S1000
X28.2 M03 S0
X28.1 M03 S1000
X28.0 M03 S0
X27.9 M03 S1000
X27.8 M03 S0
X27.7 M03 S1000
X27.6 M03 S0
X27.4 M03 S1000
X27.3 M03 S0
X27.2 M03 S1000
X27.1 M03 S0
X27.0 M03 S1000
X26.9 M03 S0
X26.8 M03 S1000
X26.7 M03 S0
X26.6 M03 S1000
X26.5 M03 S0
X26.3 M03 S1000
X26.2 M03 S0
X25.9 M03 S1000
X25.8 M03 S0
X25.7 M03 S1000
X25.6 M03 S0
X25.5 M03 S1000
X25.4 M03 S0
X25.1 M03 S1000
X25.0 M03 S0
X24.8 M03 S1000
X24.7 M03 S0
X24.4 M03 S1000
X24.3 M03 S0
X24.0 M03 S1000
X23.9 M03 S0
X23.8 M03 S1000
X23.7 M03 S0
X23.5 M03 S1000
X23.4 M03 S0
X23.2 M03 S1000
X23.1 M03 S0
X22.9 M03 S1000
X22.8 M03 S0
X22.6 M03 S1000
X22.5 M03 S0
X22.3 M03 S1000
X22.2 M03 S0
X21.8 M03 S1000
X21.7 M03 S0
X21.5 M03 S1000
X21.4 M03 S0
X21.0 M03 S1000
X20.9 M03 S0
X20.6 M03 S1000
X20.5 M03 S0
X20.3 M03 S1000
X20.2 M03 S0
X20.1 M03 S1000
X20.0 M03 S0
X19.9 M03 S1000
X19.8 M03 S0
X19.7 M03 S1000
X19.6 M03 S0
X19.4 M03 S1000
X19.3 M03 S0
X18.9 M03 S1000
X18.8 M03 S0
X18.3 M03 S1000
X18.2 M03 S0
X18.1 M03 S1000
X18.0 M03 S0
X17.9 M03 S1000
X17.8 M03 S0
X17.7 M03 S1000
X17.6 M03 S0
X17.4 M03 S1000
X17.3 M03 S0
X17.2 M03 S1000
X17.1 M03 S0
X16.9 M03 S1000
X16.8 M03 S0
X16.7 M03 S1000
X16.6 M03 S0
X16.5 M03 S1000
X16.4 M03 S0
X16.1 M03 S1000
X16.0 M03 S0
X15.8 M03 S1000
X15.7 M03 S0
X15.6 M03 S1000
X15.5 M03 S0
X15.4 M03 S1000
X15.3 M03 S0
X15.2 M03 S1000
X15.1 M03 S0
X15.0 M03 S1000
X14.9 M03 S0
X14.8 M03 S1000
X14.7 M03 S0
X14.6 M03 S1000
X14.5 M03 S0
X14.3 M03 S1000
X14.2 M03 S0
X14.0 M03 S1000
X13.9 M03 S0
X13.6 M03 S1000
X13.5 M03 S0
X13.4 M03 S1000
X13.3 M03 S0
X13.2 M03 S1000
X13.1 M03 S0
X13.0 M03 S1000
X12.9 M03 S0
X12.7 M03 S1000
X12.6 M03 S0
X12.5 M03 S1000
X12.4 M03 S0
X12.2 M03 S1000
X12.1 M03 S0
X11.9 M03 S1000
X11.8 M03 S0
X11.7 M03 S1000
X11.6 M03 S0
X11.5 M03 S1000
X11.4 M03 S0
X11.2 M03 S1000
X11.1 M03 S0
X11.0 M03 S1000
X10.9 M03 S0
X10.8 M03 S1000
X10.7 M03 S0
X10.5 M03 S1000
X10.4 M03 S0
X10.3 M03 S1000
X10.2 M03 S0
X10.1 M03 S1000
X10.0 M03 S0
X9.9 M03 S1000
X9.8 M03 S0
X9.7 M03 S1000
X9.6 M03 S0
X9.5 M03 S1000
X9.4 M03 S0
X9.3 M03 S1000
X9.2 M03 S0
X9.1 M03 S1000
X9.0 M03 S0
X8.9 M03 S1000
X8.8 M03 S0
X8.7 M03 S1000
X8.6 M03 S0
X8.5 M03 S1000
X8.4 M03 S0
X8.3 M03 S1000
X8.2 M03 S0
X8.1 M03 S1000
X8.0 M03 S0
X7.9 M03 S1000
X7.8 M03 S0
X7.7 M03 S1000
X7.6 M03 S0
X7.5 M03 S1000
X7.4 M03 S0
X7.3 M03 S1000
X7.2 M03 S0
X7.1 M03 S1000
X7.0 M03 S0
X6.8 M03 S1000
X6.7 M03 S0
X6.6 M03 S1000
X6.5 M03 S0
X6.3 M03 S1000
X6.2 M03 S0
X6.1 M03 S1000
X6.0 M03 S0
X5.9 M03 S1000
X5.8 M03 S0
X5.6 M03 S1000
X5.5 M03 S0
X5.3 M03 S1000
X5.2 M03 S0
X5.1 M03 S1000
X5.0 M03 S0
X4.9 M03 S1000
X4.8 M03 S0
X4.6 M03 S1000
X4.5 M03 S0
X4.4 M03 S1000
X4.3 M03 S0
X4.1 M03 S1000
X4.0 M03 S0
X3.8 M03 S1000
X3.7 M03 S0
X3.5 M03 S1000
X3.4 M03 S0
X3.2 M03 S1000
X3.1 M03 S0
X2.9 M03 S1000
X2.8 M03 S0
X2.6 M03 S1000
X2.5 M03 S0
X2.4 M03 S1000
X2.3 M03 S0
X2.1 M03 S1000
X2.0 M03 S0
X1.9 M03 S1000
X1.8 M03 S0
X1.7 M03 S1000
X1.6 M03 S0
X1.4 M03 S1000
X1.3 M03 S0
X1.1 M03 S1000
X1.0 M03 S0
X0.9 M03 S1000
X0.8 M03 S0
X0.7 M03 S1000
X0.6 M03 S0
X0.4 M03 S1000
X0.3 M03 S0
X0.2 M03 S1000
X0.1 M03 S0
X0.0 M03 S1000
X-12.5 M03 S0
G01 X-24.9 Y1.2 M03 S0
X0.1 M03 S0
X0.2 M03 S1000
X0.3 M03 S0
X0.4 M03 S1000
X0.5 M03 S0
X0.6 M03 S1000
X0.7 M03 S0
X0.9 M03 S1000
X1.0 M03 S0
X1.1 M03 S1000
X1.2 M03 S0
X1.4 M03 S1000
X1.5 M03 S0
X1.6 M03 S1000
X1.7 M03 S0
X1.9 M03 S1000
X2.0 M03 S0
X2.1 M03 S1000
X2.2 M03 S0
X2.3 M03 S1000
X2.4 M03 S0
X2.6 M03 S1000
X2.7 M03 S0
X2.9 M03 S1000
X3.0 M03 S0
X3.1 M03 S1000
X3.2 M03 S0
X3.3 M03 S1000
X3.4 M03 S0
X3.5 M03 S1000
X3.6 M03 S0
X3.8 M03 S1000
X3.9 M03 S0
X4.0 M03 S1000
X4.1 M03 S0
X4.2 M03 S1000
X4.3 M03 S0
X4.4 M03 S1000
X4.5 M03 S0
X4.6 M03 S1000
X4.7 M03 S0
X4.8 M03 S1000
X4.9 M03 S0
X5.0 M03 S1000
X5.1 M03 S0
X5.3 M03 S1000
X5.4 M03 S0
X5.5 M03 S1000
X5.6 M03 S0
X5.7 M03 S1000
X5.8 M03 S0
X6.0 M03 S1000
X6.1 M03 S0
X6.3 M03 S1000
X6.4 M03 S0
X6.5 M03 S1000
X6.6 M03 S0
X6.7 M03 S1000
X6.8 M03 S0
X6.9 M03 S1000
X7.0 M03 S0
X7.1 M03 S1000
X7.2 M03 S0
X7.4 M03 S1000
X7.5 M03 S0
X7.6 M03 S1000
X7.7 M03 S0
X7.9 M03 S1000
X8.0 M03 S0
X8.1 M03 S1000
X8.2 M03 S0
X8.3 M03 S1000
X8.4 M03 S0
X8.6 M03 S1000
X8.7 M03 S0
X8.8 M03 S1000
X8.9 M03 S0
X9.0 M03 S1000
X9.1 M03 S0
X9.3 M03 S1000
X9.4 M03 S0
X9.5 M03 S1000
X9.6 M03 S0
X9.8 M03 S1000
X9.9 M03 S0
X10.0 M03 S1000
X10.1 M03 S0
X10.3 M03 S1000
X10.4 M03 S0
X10.5 M03 S1000
X10.6 M03 S0
X10.7 M03 S1000
X10.8 M03 S0
X10.9 M03 S1000
X11.0 M03 S0
X11.2 M03 S1000
X11.3 M03 S0
X11.4 M03 S1000
X11.5 M03 S0
X11.7 M03 S1000
X11.8 M03 S0
X11.9 M03 S1000
X12.0 M03 S0
X12.1 M03 S1000
X12.2 M03 S0
X12.3 M03 S1000
X12.4 M03 S0
X12.5 M03 S1000
X12.6 M03 S0
X12.7 M03 S1000
X12.8 M03 S0
X13.0 M03 S1000
X13.1 M03 S0
X13.3 M03 S1000
X13.4 M03 S0
X13.6 M03 S1000
X13.7 M03 S0
X13.8 M03 S1000
X13.9 M03 S0
X14.0 M03 S1000
X14.1 M03 S0
X14.3 M03 S1000
X14.4 M03 S0
X14.6 M03 S1000
X14.7 M03 S0
X14.9 M03 S1000
X15.0 M03 S0
X15.2 M03 S1000
X15.3 M03 S0
X15.6 M03 S1000
X15.7 M03 S0
X15.8 M03 S1000
X15.9 M03 S0
X16.0 M03 S1000
X16.1 M03 S0
X16.2 M03 S1000
X16.3 M03 S0
X16.5 M03 S1000
X16.6 M03 S0
X16.7 M03 S1000
X16.8 M03 S0
X16.9 M03 S1000
X17.0 M03 S0
X17.2 M03 S1000
X17.3 M03 S0
X17.4 M03 S1000
X17.5 M03 S0
X17.6 M03 S1000
X17.7 M03 S0
X17.9 M03 S1000
X18.0 M03 S0
X18.3 M03 S1000
X18.4 M03 S0
X18.5 M03 S1000
X18.7 M03 S0
X18.9 M03 S1000
X19.0 M03 S0
X19.1 M03 S1000
X19.2 M03 S0
X19.4 M03 S1000
X19.5 M03 S0
X19.7 M03 S1000
X19.8 M03 S0
X20.1 M03 S1000
X20.2 M03 S0
X20.3 M03 S1000
X20.4 M03 S0
X20.6 M03 S1000
X20.7 M03 S0
X20.8 M03 S1000
X20.9 M03 S0
X21.1 M03 S1000
X21.2 M03 S0
X21.3 M03 S1000
X21.4 M03 S0
X21.5 M03 S1000
X21.6 M03 S0
X21.8 M03 S1000
X21.9 M03 S0
X22.0 M03 S1000
X22.1 M03 S0
X22.2 M03 S1000
X22.3 M03 S0
X22.4 M03 S1000
X22.5 M03 S0
X22.6 M03 S1000
X22.7 M03 S0
X22.9 M03 S1000
X23.0 M03 S0
X23.2 M03 S1000
X23.3 M03 S0
X23.5 M03 S1000
X23.6 M03 S0
X23.8 M03 S1000
X23.9 M03 S0
X24.0 M03 S1000
X24.1 M03 S0
X24.2 M03 S1000
X24.3 M03 S0
X24.5 M03 S1000
X24.6 M03 S0
X24.8 M03 S1000
X24.9 M03 S0
X25.1 M03 S1000
X25.2 M03 S0
X25.3 M03 S1000
X25.4 M03 S0
X25.7 M03 S1000
X25.8 M03 S0
X25.9 M03 S1000
X26.0 M03 S0
X26.1 M03 S1000
X26.2 M03 S0
X26.3 M03 S1000
X26.4 M03 S0
X26.5 M03 S1000
X26.6 M03 S0
X26.7 M03 S1000
X26.8 M03 S0
X26.9 M03 S1000
X27.0 M03 S0
X27.2 M03 S1000
X27.3 M03 S0
X27.4 M03 S1000
X27.5 M03 S0
X27.6 M03 S1000
X27.7 M03 S0
X27.8 M03 S1000
X27.9 M03 S0
X28.1 M03 S1000
X28.2 M03 S0
X28.4 M03 S1000
X28.5 M03 S0
X28.6 M03 S1000
X28.7 M03 S0
X28.8 M03 S1000
X28.9 M03 S0
X29.0 M03 S1000
X29.1 M03 S0
X29.2 M03 S1000
X29.3 M03 S0
X29.4 M03 S1000
X29.5 M03 S0
X29.6 M03 S1000
X29.7 M03 S0
X29.8 M03 S1000
X29.9 M03 S0
X30.0 M03 S1000
X30.1 M03 S0
X30.2 M03 S1000
X30.3 M03 S0
X30.4 M03 S1000
X30.5 M03 S0
X30.6 M03 S1000
X30.8 M03 S0
X30.9 M03 S1000
X31.0 M03 S0
X31.1 M03 S1000
X31.2 M03 S0
X31.3 M03 S1000
X31.4 M03 S0
X31.5 M03 S1000
X31.6 M03 S0
X31.7 M03 S1000
X31.8 M03 S0
X31.9 M03 S1000
X32.0 M03 S0
X32.1 M03 S1000
X32.3 M03 S0
X32.4 M03 S1000
X32.5 M03 S0
X32.6 M03 S1000
X32.7 M03 S0
X32.8 M03 S1000
X33.0 M03 S0
X33.1 M03 S1000
X33.3 M03 S0
X33.4 M03 S1000
X33.6 M03 S0
X33.7 M03 S1000
X34.0 M03 S0
X34.1 M03 S1000
X34.3 M03 S0
X34.4 M03 S1000
X34.5 M03 S0
X34.6 M03 S1000
X34.7 M03 S0
X34.8 M03 S1000
X35.1 M03 S0
X35.2 M03 S1000
X35.5 M03 S0
X35.6 M03 S1000
X35.8 M03 S0
X35.9 M03 S1000
X36.1 M03 S0
X36.2 M03 S1000
X36.4 M03 S0
X36.5 M03 S1000
X36.7 M03 S0
X36.8 M03 S1000
X37.0 M03 S0
X37.1 M03 S1000
X37.3 M03 S0
X37.4 M03 S1000
X37.6 M03 S0
X37.7 M03 S1000
X38.1 M03 S0
X38.2 M03 S1000
X38.4 M03 S0
X38.5 M03 S1000
X38.8 M03 S0
X38.9 M03 S1000
X39.1 M03 S0
X39.2 M03 S1000
X39.5 M03 S0
X39.6 M03 S1000
X39.9 M03 S0
X40.0 M03 S1000
X40.1 M03 S0
X40.2 M03 S1000
X40.4 M03 S0
X40.5 M03 S1000
X40.7 M03 S0
X40.8 M03 S1000
X41.0 M03 S0
X41.1 M03 S1000
X41.3 M03 S0
X41.4 M03 S1000
X41.5 M03 S0
X41.6 M03 S1000
X41.8 M03 S0
X41.9 M03 S1000
X42.1 M03 S0
X42.2 M03 S1000
X42.4 M03 S0
X42.5 M03 S1000
X42.6 M03 S0
X42.7 M03 S1000
X42.9 M03 S0
X43.0 M03 S1000
X43.3 M03 S0
X43.4 M03 S1000
X43.6 M03 S0
X43.7 M03 S1000
X43.8 M03 S0
X43.9 M03 S1000
X44.2 M03 S0
X44.3 M03 S1000
X44.4 M03 S0
X44.5 M03 S1000
X45.2 M03 S0
X45.3 M03 S1000
X45.5 M03 S0
X45.6 M03 S1000
X45.8 M03 S0
X45.9 M03 S1000
X46.1 M03 S0
X46.2 M03 S1000
X46.3 M03 S0
X46.4 M03 S1000
X46.6 M03 S0
X46.7 M03 S1000
X46.9 M03 S0
X47.0 M03 S1000
X47.1 M03 S0
X47.2 M03 S1000
X47.6 M03 S0
X47.7 M03 S1000
X47.9 M03 S0
X48.0 M03 S1000
X48.2 M03 S0
X48.3 M03 S1000
X48.5 M03 S0
X48.6 M03 S1000
X48.7 M03 S0
X48.8 M03 S1000
X49.0 M03 S0
X49.1 M03 S1000
X49.3 M03 S0
X49.4 M03 S1000
X49.5 M03 S0
X49.6 M03 S1000
X62.1 M03 S0
G01 X74.8 Y1.3 M03 S0
X49.9 M03 S0
X49.8 M03 S1000
X49.7 M03 S0
X49.6 M03 S1000
X49.0 M03 S0
X48.9 M03 S1000
X48.5 M03 S0
X48.4 M03 S1000
X48.2 M03 S0
X48.1 M03 S1000
X47.9 M03 S0
X47.8 M03 S1000
X47.6 M03 S0
X47.5 M03 S1000
X47.4 M03 S0
X47.3 M03 S1000
X46.9 M03 S0
X46.8 M03 S1000
X46.6 M03 S0
X46.5 M03 S1000
X46.1 M03 S0
X46.0 M03 S1000
X45.8 M03 S0
X45.7 M03 S1000
X45.5 M03 S0
X45.4 M03 S1000
X45.2 M03 S0
X45.1 M03 S1000
X45.0 M03 S0
X44.9 M03 S1000
X44.8 M03 S0
X44.7 M03 S1000
X44.6 M03 S0
X44.5 M03 S1000
X44.1 M03 S0
X44.0 M03 S1000
X43.8 M03 S0
X43.7 M03 S1000
X43.5 M03 S0
X43.4 M03 S1000
X43.2 M03 S0
X43.1 M03 S1000
X42.8 M03 S0
X42.7 M03 S1000
X42.3 M03 S0
X42.2 M03 S1000
X42.0 M03 S0
X41.9 M03 S1000
X41.7 M03 S0
X41.6 M03 S1000
X41.2 M03 S0
X41.1 M03 S1000
X40.9 M03 S0
X40.8 M03 S1000
X40.6 M03 S0
X40.5 M03 S1000
X40.3 M03 S0
X40.2 M03 S1000
X39.9 M03 S0
X39.8 M03 S1000
X39.7 M03 S0
X39.6 M03 S1000
X39.4 M03 S0
X39.3 M03 S1000
X39.1 M03 S0
X39.0 M03 S1000
X38.8 M03 S0
X38.7 M03 S1000
X38.6 M03 S0
X38.5 M03 S1000
X38.1 M03 S0
X38.0 M03 S1000
X37.9 M03 S0
X37.8 M03 S1000
X37.6 M03 S0
X37.5 M03 S1000
X37.2 M03 S0
X37.1 M03 S1000
X36.9 M03 S0
X36.8 M03 S1000
X36.6 M03 S0
X36.5 M03 S1000
X36.3 M03 S0
X36.2 M03 S1000
X36.0 M03 S0
X35.9 M03 S1000
X35.7 M03 S0
X35.6 M03 S1000
X35.4 M03 S0
X35.3 M03 S1000
X35.1 M03 S0
X35.0 M03 S1000
X34.9 M03 S0
X34.8 M03 S1000
X34.7 M03 S0
X34.6 M03 S1000
X34.4 M03 S0
X34.3 M03 S1000
X34.2 M03 S0
X34.1 M03 S1000
X34.0 M03 S0
X33.9 M03 S1000
X33.8 M03 S0
X33.7 M03 S1000
X33.5 M03 S0
X33.4 M03 S1000
X33.2 M03 S0
X33.1 M03 S1000
X33.0 M03 S0
X32.9 M03 S1000
X32.8 M03 S0
X32.7 M03 S1000
X32.4 M03 S0
X32.3 M03 S1000
X32.2 M03 S0
X32.1 M03 S1000
X31.9 M03 S0
X31.8 M03 S1000
X31.6 M03 S0
X31.5 M03 S1000
X31.4 M03 S0
X31.3 M03 S1000
X31.1 M03 S0
X31.0 M03 S1000
X30.9 M03 S0
X30.8 M03 S1000
X30.7 M03 S0
X30.6 M03 S1000
X30.4 M03 S0
X30.3 M03 S1000
X30.1 M03 S0
X30.0 M03 S1000
X29.9 M03 S0
X29.8 M03 S1000
X29.7 M03 S0
X29.6 M03 S1000
X29.5 M03 S0
X29.4 M03 S1000
X29.3 M03 S0
X29.2 M03 S1000
X29.1 M03 S0
X29.0 M03 S1000
X28.9 M03 S0
X28.8 M03 S1000
X28.7 M03 S0
X28.6 M03 S1000
X28.5 M03 S0
X28.4 M03 S1000
X28.3 M03 S0
X28.2 M03 S1000
X28.1 M03 S0
X28.0 M03 S1000
X27.9 M03 S0
X27.8 M03 S1000
X27.7 M03 S0
X27.6 M03 S1000
X27.5 M03 S0
X27.3 M03 S1000
X27.2 M03 S0
X27.1 M03 S1000
X27.0 M03 S0
X26.7 M03 S1000
X26.6 M03 S0
X26.4 M03 S1000
X26.3 M03 S0
X26.1 M03 S1000
X26.0 M03 S0
X25.7 M03 S1000
X25.6 M03 S0
X25.5 M03 S1000
X25.4 M03 S0
X25.2 M03 S1000
X25.1 M03 S0
X25.0 M03 S1000
X24.9 M03 S0
X24.7 M03 S1000
X24.6 M03 S0
X24.5 M03 S1000
X24.4 M03 S0
X24.2 M03 S1000
X24.1 M03 S0
X23.7 M03 S1000
X23.6 M03 S0
X23.5 M03 S1000
X23.4 M03 S0
X23.3 M03 S1000
X23.2 M03 S0
X23.1 M03 S1000
X23.0 M03 S0
X22.8 M03 S1000
X22.7 M03 S0
X22.4 M03 S1000
X22.3 M03 S0
X22.0 M03 S1000
X21.9 M03 S0
X21.7 M03 S1000
X21.6 M03 S0
X21.3 M03 S1000
X21.2 M03 S0
X21.1 M03 S1000
X21.0 M03 S0
X20.8 M03 S1000
X20.7 M03 S0
X20.5 M03 S1000
X20.4 M03 S0
X20.1 M03 S1000
X20.0 M03 S0
X19.9 M03 S1000
X19.8 M03 S0
X19.6 M03 S1000
X19.5 M03 S0
X19.3 M03 S1000
X19.2 M03 S0
X19.1 M03 S1000
X19.0 M03 S0
X18.8 M03 S1000
X18.7 M03 S0
X18.5 M03 S1000
X18.4 M03 S0
X18.3 M03 S1000
X18.2 M03 S0
X18.1 M03 S1000
X18.0 M03 S0
X17.8 M03 S1000
X17.7 M03 S0
X17.4 M03 S1000
X17.3 M03 S0
X17.1 M03 S1000
X17.0 M03 S0
X16.6 M03 S1000
X16.5 M03 S0
X16.4 M03 S1000
X16.3 M03 S0
X16.2 M03 S1000
X16.1 M03 S0
X16.0 M03 S1000
X15.9 M03 S0
X15.6 M03 S1000
X15.5 M03 S0
X15.4 M03 S1000
X15.3 M03 S0
X15.1 M03 S1000
X15.0 M03 S0
X14.8 M03 S1000
X14.7 M03 S0
X14.6 M03 S1000
X14.5 M03 S0
X14.4 M03 S1000
X14.3 M03 S0
X14.2 M03 S1000
X14.1 M03 S0
X14.0 M03 S1000
X13.9 M03 S0
X13.7 M03 S1000
X13.6 M03 S0
X13.5 M03 S1000
X13.4 M03 S0
X13.2 M03 S1000
X13.1 M03 S0
X13.0 M03 S1000
X12.9 M03 S0
X12.8 M03 S1000
X12.7 M03 S0
X12.5 M03 S1000
X12.4 M03 S0
X12.3 M03 S1000
X12.2 M03 S0
X12.1 M03 S1000
X12.0 M03 S0
X11.9 M03 S1000
X11.8 M03 S0
X11.7 M03 S1000
X11.6 M03 S0
X11.5 M03 S1000
X11.4 M03 S0
X11.3 M03 S1000
X11.2 M03 S0
X11.1 M03 S1000
X11.0 M03 S0
X10.9 M03 S1000
X10.8 M03 S0
X10.7 M03 S1000
X10.6 M03 S0
X10.4 M03 S1000
X10.3 M03 S0
X10.2 M03 S1000
X10.1 M03 S0
X9.9 M03 S1000
X9.8 M03 S0
X9.7 M03 S1000
X9.6 M03 S0
X9.4 M03 S1000
X9.3 M03 S0
X9.2 M03 S1000
X9.1 M03 S0
X9.0 M03 S1000
X8.9 M03 S0
X8.7 M03 S1000
X8.6 M03 S0
X8.5 M03 S1000
X8.4 M03 S0
X8.3 M03 S1000
X8.2 M03 S0
X8.0 M03 S1000
X7.9 M03 S0
X7.8 M03 S1000
X7.7 M03 S0
X7.5 M03 S1000
X7.4 M03 S0
X7.3 M03 S1000
X7.2 M03 S0
X7.0 M03 S1000
X6.9 M03 S0
X6.8 M03 S1000
X6.7 M03 S0
X6.6 M03 S1000
X6.5 M03 S0
X6.4 M03 S1000
X6.3 M03 S0
X6.2 M03 S1000
X6.1 M03 S0
X6.0 M03 S1000
X5.9 M03 S0
X5.8 M03 S1000
X5.7 M03 S0
X5.6 M03 S1000
X5.5 M03 S0
X5.4 M03 S1000
X5.3 M03 S0
X5.2 M03 S1000
X5.1 M03 S0
X5.0 M03 S1000
X4.9 M03 S0
X4.7 M03 S1000
X4.6 M03 S0
X4.4 M03 S1000
X4.3 M03 S0
X4.2 M03 S1000
X4.1 M03 S0
X3.9 M03 S1000
X3.8 M03 S0
X3.7 M03 S1000
X3.6 M03 S0
X3.4 M03 S1000
X3.3 M03 S0
X3.1 M03 S1000
X3.0 M03 S0
X2.9 M03 S1000
X2.8 M03 S0
X2.7 M03 S1000
X2.6 M03 S0
X2.5 M03 S1000
X2.4 M03 S0
X2.1 M03 S1000
X2.0 M03 S0
X1.8 M03 S1000
X1.7 M03 S0
X1.5 M03 S1000
X1.4 M03 S0
X1.3 M03 S1000
X1.2 M03 S0
X1.0 M03 S1000
X0.9 M03 S0
X0.8 M03 S1000
X0.7 M03 S0
X0.5 M03 S1000
X0.4 M03 S0
X0.2 M03 S1000
X0.1 M03 S0
X0.0 M03 S1000
X-12.5 M03 S0
G01 X-25.0 Y1.4 M03 S0
X0.0 M03 S0
X0.1 M03 S1000
X0.2 M03 S0
X0.3 M03 S1000
X0.4 M03 S0
X0.5 M03 S1000
X0.6 M03 S0
X0.7 M03 S1000
X0.8 M03 S0
X1.0 M03 S1000
X1.1 M03 S0
X1.2 M03 S1000
X1.3 M03 S0
X1.5 M03 S1000
X1.6 M03 S0
X1.7 M03 S1000
X1.8 M03 S0
X1.9 M03 S1000
X2.0 M03 S0
X2.1 M03 S1000
X2.2 M03 S0
X2.3 M03 S1000
X2.4 M03 S0
X2.6 M03 S1000
X2.7 M03 S0
X2.9 M03 S1000
X3.0 M03 S0
X3.1 M03 S1000
X3.2 M03 S0
X3.4 M03 S1000
X3.5 M03 S0
X3.6 M03 S1000
X3.7 M03 S0
X3.9 M03 S1000
X4.0 M03 S0
X4.1 M03 S1000
X4.2 M03 S0
X4.4 M03 S1000
X4.5 M03 S0
X4.6 M03 S1000
X4.7 M03 S0
X4.8 M03 S1000
X4.9 M03 S0
X5.1 M03 S1000
X5.2 M03 S0
X5.3 M03 S1000
X5.4 M03 S0
X5.6 M03 S1000
X5.7 M03 S0
X5.8 M03 S1000
X5.9 M03 S0
X6.0 M03 S1000
X6.1 M03 S0
X6.2 M03 S1000
X6.3 M03 S0
X6.4 M03 S1000
X6.5 M03 S0
X6.6 M03 S1000
X6.7 M03 S0
X6.9 M03 S1000
X7.0 M03 S0
X7.1 M03 S1000
X7.2 M03 S0
X7.3 M03 S1000
X7.4 M03 S0
X7.5 M03 S1000
X7.6 M03 S0
X7.7 M03 S1000
X7.8 M03 S0
X7.9 M03 S1000
X8.0 M03 S0
X8.1 M03 S1000
X8.2 M03 S0
X8.4 M03 S1000
X8.5 M03 S0
X8.7 M03 S1000
X8.8 M03 S0
X8.9 M03 S1000
X9.0 M03 S0
X9.2 M03 S1000
X9.3 M03 S0
X9.4 M03 S1000
X9.5 M03 S0
X9.6 M03 S1000
X9.7 M03 S0
X9.9 M03 S1000
X10.0 M03 S0
X10.1 M03 S1000
X10.2 M03 S0
X10.4 M03 S1000
X10.5 M03 S0
X10.6 M03 S1000
X10.7 M03 S0
X10.9 M03 S1000
X11.0 M03 S0
X11.1 M03 S1000
X11.2 M03 S0
X11.3 M03 S1000
X11.4 M03 S0
X11.5 M03 S1000
X11.6 M03 S0
X11.8 M03 S1000
X11.9 M03 S0
X12.1 M03 S1000
X12.2 M03 S0
X12.5 M03 S1000
X12.6 M03 S0
X12.8 M03 S1000
X12.9 M03 S0
X13.1 M03 S1000
X13.2 M03 S0
X13.3 M03 S1000
X13.4 M03 S0
X13.5 M03 S1000
X13.6 M03 S0
X13.7 M03 S1000
X13.8 M03 S0
X14.0 M03 S1000
X14.1 M03 S0
X14.3 M03 S1000
X14.4 M03 S0
X14.6 M03 S1000
X14.7 M03 S0
X14.8 M03 S1000
X14.9 M03 S0
X15.0 M03 S1000
X15.1 M03 S0
X15.2 M03 S1000
X15.3 M03 S0
X15.4 M03 S1000
X15.5 M03 S0
X15.6 M03 S1000
X15.7 M03 S0
X15.8 M03 S1000
X15.9 M03 S0
X16.2 M03 S1000
X16.3 M03 S0
X16.6 M03 S1000
X16.7 M03 S0
X16.8 M03 S1000
X16.9 M03 S0
X17.0 M03 S1000
X17.1 M03 S0
X17.2 M03 S1000
X17.3 M03 S0
X17.4 M03 S1000
X17.5 M03 S0
X17.6 M03 S1000
X17.7 M03 S0
X17.8 M03 S1000
X17.9 M03 S0
X18.1 M03 S1000
X18.2 M03 S0
X18.5 M03 S1000
X18.6 M03 S0
X18.8 M03 S1000
X18.9 M03 S0
X19.1 M03 S1000
X19.2 M03 S0
X19.3 M03 S1000
X19.4 M03 S0
X19.6 M03 S1000
X19.7 M03 S0
X19.9 M03 S1000
X20.0 M03 S0
X20.2 M03 S1000
X20.3 M03 S0
X20.5 M03 S1000
X20.6 M03 S0
X20.8 M03 S1000
X20.9 M03 S0
X21.3 M03 S1000
X21.4 M03 S0
X21.5 M03 S1000
X21.6 M03 S0
X21.7 M03 S1000
X21.8 M03 S0
X22.0 M03 S1000
X22.1 M03 S0
X22.2 M03 S1000
X22.3 M03 S0
X22.5 M03 S1000
X22.6 M03 S0
X22.8 M03 S1000
X22.9 M03 S0
X23.0 M03 S1000
X23.1 M03 S0
X23.5 M03 S1000
X23.6 M03 S0
X23.7 M03 S1000
X23.8 M03 S0
X23.9 M03 S1000
X24.0 M03 S0
X24.2 M03 S1000
X24.3 M03 S0
X24.5 M03 S1000
X24.6 M03 S0
X24.7 M03 S1000
X24.8 M03 S0
X24.9 M03 S1000
X25.0 M03 S0
X25.2 M03 S1000
X25.3 M03 S0
X25.4 M03 S1000
X25.5 M03 S0
X25.7 M03 S1000
X25.8 M03 S0
X25.9 M03 S1000
X26.0 M03 S0
X26.1 M03 S1000
X26.2 M03 S0
X26.4 M03 S1000
X26.5 M03 S0
X26.7 M03 S1000
X26.8 M03 S0
X26.9 M03 S1000
X27.0 M03 S0
X27.1 M03 S1000
X27.2 M03 S0
X27.3 M03 S1000
X27.4 M03 S0
X27.5 M03 S1000
X27.6 M03 S0
X27.8 M03 S1000
X27.9 M03 S0
X28.0 M03 S1000
X28.1 M03 S0
X28.2 M03 S1000
X28.3 M03 S0
X28.4 M03 S1000
X28.5 M03 S0
X28.6 M03 S1000
X28.7 M03 S0
X28.8 M03 S1000
X28.9 M03 S0
X29.1 M03 S1000
X29.2 M03 S0
X29.3 M03 S1000
X29.4 M03 S0
X29.5 M03 S1000
X29.6 M03 S0
X29.7 M03 S1000
X29.8 M03 S0
X29.9 M03 S1000
X30.0 M03 S0
X30.1 M03 S1000
X30.2 M03 S0
X30.3 M03 S1000
X30.4 M03 S0
X30.5 M03 S1000
X30.6 M03 S0
X30.7 M03 S1000
X30.8 M03 S0
X30.9 M03 S1000
X31.1 M03 S0
X31.2 M03 S1000
X31.3 M03 S0
X31.4 M03 S1000
X31.6 M03 S0
X31.7 M03 S1000
X31.9 M03 S0
X32.0 M03 S1000
X32.1 M03 S0
X32.2 M03 S1000
X32.4 M03 S0
X32.5 M03 S1000
X32.6 M03 S0
X32.7 M03 S1000
X33.0 M03 S0
X33.1 M03 S1000
X33.2 M03 S0
X33.3 M03 S1000
X33.5 M03 S0
X33.6 M03 S1000
X33.7 M03 S0
X33.8 M03 S1000
X34.0 M03 S0
X34.1 M03 S1000
X34.4 M03 S0
X34.5 M03 S1000
X34.9 M03 S0
X35.0 M03 S1000
X35.2 M03 S0
X35.3 M03 S1000
X35.4 M03 S0
X35.5 M03 S1000
X35.7 M03 S0
X35.8 M03 S1000
X36.0 M03 S0
X36.1 M03 S1000
X36.3 M03 S0
X36.4 M03 S1000
X36.6 M03 S0
X36.7 M03 S1000
X36.9 M03 S0
X37.0 M03 S1000
X37.2 M03 S0
X37.3 M03 S1000
X37.4 M03 S0
X37.5 M03 S1000
X37.7 M03 S0
X37.8 M03 S1000
X38.2 M03 S0
X38.3 M03 S1000
X38.4 M03 S0
X38.5 M03 S1000
X38.9 M03 S0
X39.0 M03 S1000
X39.4 M03 S0
X39.5 M03 S1000
X39.9 M03 S0
X40.0 M03 S1000
X40.1 M03 S0
X40.2 M03 S1000
X40.4 M03 S0
X40.5 M03 S1000
X40.7 M03 S0
X40.8 M03 S1000
X41.0 M03 S0
X41.1 M03 S1000
X41.2 M03 S0
X41.3 M03 S1000
X41.4 M03 S0
X41.5 M03 S1000
X41.7 M03 S0
X41.8 M03 S1000
X42.0 M03 S0
X42.1 M03 S1000
X42.3 M03 S0
X42.4 M03 S1000
X42.5 M03 S0
X42.6 M03 S1000
X42.8 M03 S0
X42.9 M03 S1000
X43.0 M03 S0
X43.1 M03 S1000
X43.3 M03 S0
X43.4 M03 S1000
X43.6 M03 S0
X43.7 M03 S1000
X44.1 M03 S0
X44.2 M03 S1000
X44.3 M03 S0
X44.4 M03 S1000
X44.8 M03 S0
X44.9 M03 S1000
X45.3 M03 S0
X45.4 M03 S1000
X45.8 M03 S0
X45.9 M03 S1000
X46.2 M03 S0
X46.3 M03 S1000
X46.4 M03 S0
X46.5 M03 S1000
X46.7 M03 S0
X46.8 M03 S1000
X47.0 M03 S0
X47.1 M03 S1000
X47.2 M03 S0
X47.3 M03 S1000
X47.7 M03 S0
X47.8 M03 S1000
X48.2 M03 S0
X48.3 M03 S1000
X48.6 M03 S0
X48.7 M03 S1000
X48.8 M03 S0
X48.9 M03 S1000
X49.1 M03 S0
X49.2 M03 S1000
X49.3 M03 S0
X49.4 M03 S1000
X49.5 M03 S0
X49.6 M03 S1000
X49.8 M03 S0
X49.9 M03 S1000
X62.4 M03 S0
G01 X74.9 Y1.5 M03 S0
X50.0 M03 S0
X49.9 M03 S1000
X49.7 M03 S0
X49.6 M03 S1000
X49.3 M03 S0
X49.2 M03 S1000
X49.0 M03 S0
X48.9 M03 S1000
X48.5 M03 S0
X48.4 M03 S1000
X48.2 M03 S0
X48.1 M03 S1000
X48.0 M03 S0
X47.9 M03 S1000
X47.6 M03 S0
X47.5 M03 S1000
X47.4 M03 S0
X47.3 M03 S1000
X46.7 M03 S0
X46.6 M03 S1000
X46.1 M03 S0
X46.0 M03 S1000
X45.8 M03 S0
X45.7 M03 S1000
X45.6 M03 S0
X45.5 M03 S1000
X45.2 M03 S0
X45.1 M03 S1000
X45.0 M03 S0
X44.9 M03 S1000
X44.7 M03 S0
X44.6 M03 S1000
X44.5 M03 S0
X44.4 M03 S1000
X44.1 M03 S0
X44.0 M03 S1000
X43.9 M03 S0
X43.8 M03 S1000
X43.5 M03 S0
X43.4 M03 S1000
X43.2 M03 S0
X43.1 M03 S1000
X42.6 M03 S0
X42.5 M03 S1000
X42.2 M03 S0
X42.1 M03 S1000
X41.9 M03 S0
X41.8 M03 S1000
X41.6 M03 S0
X41.5 M03 S1000
X41.4 M03 S0
X41.3 M03 S1000
X40.9 M03 S0
X40.8 M03 S1000
X40.6 M03 S0
X40.5 M03 S1000
X40.3 M03 S0
X40.2 M03 S1000
X39.9 M03 S0
X39.8 M03 S1000
X39.7 M03 S0
X39.6 M03 S1000
X39.4 M03 S0
X39.3 M03 S1000
X39.2 M03 S0
X39.1 M03 S1000
X38.9 M03 S0
X38.8 M03 S1000
X38.7 M03 S0
X38.6 M03 S1000
X38.2 M03 S0
X38.1 M03 S1000
X38.0 M03 S0
X37.9 M03 S1000
X37.6 M03 S0
X37.5 M03 S1000
X37.2 M03 S0
X37.1 M03 S1000
X36.8 M03 S0
X36.7 M03 S1000
X36.5 M03 S0
X36.4 M03 S1000
X36.2 M03 S0
X36.1 M03 S1000
X35.9 M03 S0
X35.8 M03 S1000
X35.6 M03 S0
X35.5 M03 S1000
X35.4 M03 S0
X35.3 M03 S1000
X35.1 M03 S0
X35.0 M03 S1000
X34.8 M03 S0
X34.7 M03 S1000
X34.6 M03 S0
X34.5 M03 S1000
X34.4 M03 S0
X34.3 M03 S1000
X34.2 M03 S0
X34.1 M03 S1000
X33.9 M03 S0
X33.8 M03 S1000
X33.6 M03 S0
X33.5 M03 S1000
X33.4 M03 S0
X33.3 M03 S1000
X33.0 M03 S0
X32.9 M03 S1000
X32.8 M03 S0
X32.7 M03 S1000
X32.6 M03 S0
X32.5 M03 S1000
X32.3 M03 S0
X32.2 M03 S1000
X32.1 M03 S0
X32.0 M03 S1000
X31.9 M03 S0
X31.8 M03 S1000
X31.7 M03 S0
X31.6 M03 S1000
X31.5 M03 S0
X31.4 M03 S1000
X31.3 M03 S0
X31.2 M03 S1000
X31.1 M03 S0
X31.0 M03 S1000
X30.9 M03 S0
X30.8 M03 S1000
X30.7 M03 S0
X30.6 M03 S1000
X30.5 M03 S0
X30.4 M03 S1000
X30.3 M03 S0
X30.2 M03 S1000
X30.1 M03 S0
X30.0 M03 S1000
X29.9 M03 S0
X29.8 M03 S1000
X29.7 M03 S0
X29.6 M03 S1000
X29.5 M03 S0
X29.4 M03 S1000
X29.3 M03 S0
X29.2 M03 S1000
X29.1 M03 S0
X29.0 M03 S1000
X28.9 M03 S0
X28.8 M03 S1000
X28.7 M03 S0
X28.5 M03 S1000
X28.4 M03 S0
X28.3 M03 S1000
X28.2 M03 S0
X28.0 M03 S1000
X27.9 M03 S0
X27.8 M03 S1000
X27.7 M03 S0
X27.6 M03 S1000
X27.5 M03 S0
X27.4 M03 S1000
X27.3 M03 S0
X27.1 M03 S1000
X27.0 M03 S0
X26.9 M03 S1000
X26.8 M03 S0
X26.7 M03 S1000
X26.6 M03 S0
X26.5 M03 S1000
X26.4 M03 S0
X26.3 M03 S1000
X26.2 M03 S0
X25.9 M03 S1000
X25.8 M03 S0
X25.6 M03 S1000
X25.5 M03 S0
X25.4 M03 S1000
X25.3 M03 S0
X25.1 M03 S1000
X25.0 M03 S0
X24.9 M03 S1000
X24.8 M03 S0
X24.4 M03 S1000
X24.3 M03 S0
X24.1 M03 S1000
X24.0 M03 S0
X23.9 M03 S1000
X23.8 M03 S0
X23.4 M03 S1000
X23.3 M03 S0
X23.2 M03 S1000
X23.1 M03 S0
X22.9 M03 S1000
X22.8 M03 S0
X22.7 M03 S1000
X22.6 M03 S0
X22.4 M03 S1000
X22.3 M03 S0
X22.2 M03 S1000
X22.1 M03 S0
X21.9 M03 S1000
X21.8 M03 S0
X21.5 M03 S1000
X21.4 M03 S0
X21.2 M03 S1000
X21.1 M03 S0
X21.0 M03 S1000
X20.9 M03 S0
X20.7 M03 S1000
X20.6 M03 S0
X20.4 M03 S1000
X20.3 M03 S0
X20.1 M03 S1000
X20.0 M03 S0
X19.8 M03 S1000
X19.7 M03 S0
X19.5 M03 S1000
X19.4 M03 S0
X19.0 M03 S1000
X18.9 M03 S0
X18.7 M03 S1000
X18.6 M03 S0
X18.5 M03 S1000
X18.4 M03 S0
X18.3 M03 S1000
X18.2 M03 S0
X18.1 M03 S1000
X18.0 M03 S0
X17.9 M03 S1000
X17.8 M03 S0
X17.6 M03 S1000
X17.5 M03 S0
X17.3 M03 S1000
X17.2 M03 S0
X17.0 M03 S1000
X16.9 M03 S0
X16.8 M03 S1000
X16.7 M03 S0
X16.6 M03 S1000
X16.5 M03 S0
X16.4 M03 S1000
X16.3 M03 S0
X16.2 M03 S1000
X16.1 M03 S0
X16.0 M03 S1000
X15.9 M03 S0
X15.8 M03 S1000
X15.7 M03 S0
X15.4 M03 S1000
X15.3 M03 S0
X15.1 M03 S1000
X15.0 M03 S0
X14.8 M03 S1000
X14.7 M03 S0
X14.5 M03 S1000
X14.4 M03 S0
X14.2 M03 S1000
X14.1 M03 S0
X13.9 M03 S1000
X13.8 M03 S0
X13.7 M03 S1000
X13.6 M03 S0
X13.3 M03 S1000
X13.2 M03 S0
X13.0 M03 S1000
X12.9 M03 S0
X12.8 M03 S1000
X12.7 M03 S0
X12.6 M03 S1000
X12.5 M03 S0
X12.4 M03 S1000
X12.2 M03 S0
X12.0 M03 S1000
X11.9 M03 S0
X11.8 M03 S1000
X11.7 M03 S0
X11.6 M03 S1000
X11.5 M03 S0
X11.3 M03 S1000
X11.2 M03 S0
X11.0 M03 S1000
X10.9 M03 S0
X10.8 M03 S1000
X10.7 M03 S0
X10.6 M03 S1000
X10.5 M03 S0
X10.4 M03 S1000
X10.3 M03 S0
X10.2 M03 S1000
X10.1 M03 S0
X10.0 M03 S1000
X9.9 M03 S0
X9.8 M03 S1000
X9.7 M03 S0
X9.6 M03 S1000
X9.5 M03 S0
X9.3 M03 S1000
X9.2 M03 S0
X9.1 M03 S1000
X9.0 M03 S0
X8.9 M03 S1000
X8.8 M03 S0
X8.7 M03 S1000
X8.6 M03 S0
X8.5 M03 S1000
X8.4 M03 S0
X8.3 M03 S1000
X8.2 M03 S0
X8.1 M03 S1000
X8.0 M03 S0
X7.9 M03 S1000
X7.8 M03 S0
X7.7 M03 S1000
X7.6 M03 S0
X7.5 M03 S1000
X7.4 M03 S0
X7.2 M03 S1000
X7.1 M03 S0
X7.0 M03 S1000
X6.9 M03 S0
X6.8 M03 S1000
X6.7 M03 S0
X6.6 M03 S1000
X6.5 M03 S0
X6.3 M03 S1000
X6.2 M03 S0
X6.0 M03 S1000
X5.9 M03 S0
X5.7 M03 S1000
X5.6 M03 S0
X5.5 M03 S1000
X5.4 M03 S0
X5.2 M03 S1000
X5.1 M03 S0
X5.0 M03 S1000
X4.9 M03 S0
X4.8 M03 S1000
X4.7 M03 S0
X4.5 M03 S1000
X4.4 M03 S0
X4.3 M03 S1000
X4.2 M03 S0
X4.0 M03 S1000
X3.9 M03 S0
X3.8 M03 S1000
X3.7 M03 S0
X3.5 M03 S1000
X3.4 M03 S0
X3.3 M03 S1000
X3.2 M03 S0
X2.8 M03 S1000
X2.7 M03 S0
X2.5 M03 S1000
X2.4 M03 S0
X2.2 M03 S1000
X2.1 M03 S0
X1.9 M03 S1000
X1.8 M03 S0
X1.6 M03 S1000
X1.5 M03 S0
X1.4 M03 S1000
X1.3 M03 S0
X1.1 M03 S1000
X1.0 M03 S0
X0.9 M03 S1000
X0.8 M03 S0
X0.7 M03 S1000
X0.6 M03 S0
X0.5 M03 S1000
X0.4 M03 S0
X0.3 M03 S1000
X0.2 M03 S0
X0.1 M03 S1000
X-12.4 M03 S0
G01 X-25.0 Y1.6 M03 S0
X0.0 M03 S0
X0.1 M03 S1000
X0.2 M03 S0
X0.3 M03 S1000
X0.4 M03 S0
X0.6 M03 S1000
X0.7 M03 S0
X0.8 M03 S1000
X0.9 M03 S0
X1.1 M03 S1000
X1.2 M03 S0
X1.3 M03 S1000
X1.4 M03 S0
X1.6 M03 S1000
X1.7 M03 S0
X1.8 M03 S1000
X1.9 M03 S0
X2.0 M03 S1000
X2.1 M03 S0
X2.2 M03 S1000
X2.3 M03 S0
X2.4 M03 S1000
X2.5 M03 S0
X2.6 M03 S1000
X2.7 M03 S0
X2.8 M03 S1000
X2.9 M03 S0
X3.0 M03 S1000
X3.1 M03 S0
X3.2 M03 S1000
X3.3 M03 S0
X3.5 M03 S1000
X3.6 M03 S0
X3.7 M03 S1000
X3.8 M03 S0
X4.0 M03 S1000
X4.1 M03 S0
X4.2 M03 S1000
X4.3 M03 S0
X4.5 M03 S1000
X4.6 M03 S0
X4.7 M03 S1000
X4.8 M03 S0
X5.0 M03 S1000
X5.1 M03 S0
X5.2 M03 S1000
X5.3 M03 S0
X5.4 M03 S1000
X5.5 M03 S0
X5.7 M03 S1000
X5.8 M03 S0
X6.0 M03 S1000
X6.1 M03 S0
X6.2 M03 S1000
X6.3 M03 S0
X6.4 M03 S1000
X6.5 M03 S0
X6.7 M03 S1000
X6.8 M03 S0
X7.0 M03 S1000
X7.1 M03 S0
X7.2 M03 S1000
X7.3 M03 S0
X7.4 M03 S1000
X7.5 M03 S0
X7.7 M03 S1000
X7.8 M03 S0
X8.0 M03 S1000
X8.1 M03 S0
X8.3 M03 S1000
X8.4 M03 S0
X8.5 M03 S1000
X8.6 M03 S0
X8.7 M03 S1000
X8.8 M03 S0
X9.0 M03 S1000
X9.1 M03 S0
X9.3 M03 S1000
X9.4 M03 S0
X9.5 M03 S1000
X9.6 M03 S0
X9.7 M03 S1000
X9.8 M03 S0
X9.9 M03 S1000
X10.0 M03 S0
X10.2 M03 S1000
X10.3 M03 S0
X10.4 M03 S1000
X10.5 M03 S0
X10.6 M03 S1000
X10.7 M03 S0
X10.8 M03 S1000
X10.9 M03 S0
X11.0 M03 S1000
X11.1 M03 S0
X11.2 M03 S1000
X11.3 M03 S0
X11.4 M03 S1000
X11.5 M03 S0
X11.6 M03 S1000
X11.7 M03 S0
X11.9 M03 S1000
X12.0 M03 S0
X12.1 M03 S1000
X12.2 M03 S0
X12.4 M03 S1000
X12.5 M03 S0
X12.6 M03 S1000
X12.7 M03 S0
X12.9 M03 S1000
X13.0 M03 S0
X13.1 M03 S1000
X13.2 M03 S0
X13.3 M03 S1000
X13.4 M03 S0
X13.5 M03 S1000
X13.6 M03 S0
X13.8 M03 S1000
X13.9 M03 S0
X14.0 M03 S1000
X14.1 M03 S0
X14.2 M03 S1000
X14.3 M03 S0
X14.4 M03 S1000
X14.5 M03 S0
X14.6 M03 S1000
X14.7 M03 S0
X14.8 M03 S1000
X14.9 M03 S0
X15.1 M03 S1000
X15.2 M03 S0
X15.4 M03 S1000
X15.5 M03 S0
X15.6 M03 S1000
X15.7 M03 S0
X15.9 M03 S1000
X16.0 M03 S0
X16.2 M03 S1000
X16.3 M03 S0
X16.4 M03 S1000
X16.5 M03 S0
X16.7 M03 S1000
X16.8 M03 S0
X17.0 M03 S1000
X17.1 M03 S0
X17.3 M03 S1000
X17.4 M03 S0
X17.6 M03 S1000
X17.7 M03 S0
X17.9 M03 S1000
X18.0 M03 S0
X18.3 M03 S1000
X18.4 M03 S0
X18.7 M03 S1000
X18.8 M03 S0
X18.9 M03 S1000
X19.0 M03 S0
X19.1 M03 S1000
X19.3 M03 S0
X19.5 M03 S1000
X19.6 M03 S0
X19.7 M03 S1000
X19.8 M03 S0
X19.9 M03 S1000
X20.0 M03 S0
X20.1 M03 S1000
X20.2 M03 S0
X20.3 M03 S1000
X20.4 M03 S0
X20.5 M03 S1000
X20.6 M03 S0
X20.7 M03 S1000
X20.8 M03 S0
X21.0 M03 S1000
X21.1 M03 S0
X21.2 M03 S1000
X21.3 M03 S0
X21.5 M03 S1000
X21.6 M03 S0
X21.7 M03 S1000
X21.8 M03 S0
X21.9 M03 S1000
X22.0 M03 S0
X22.4 M03 S1000
X22.5 M03 S0
X22.6 M03 S1000
X22.7 M03 S0
X22.9 M03 S1000
X23.0 M03 S0
X23.2 M03 S1000
X23.3 M03 S0
X23.4 M03 S1000
X23.5 M03 S0
X23.6 M03 S1000
X23.7 M03 S0
X23.9 M03 S1000
X24.0 M03 S0
X24.1 M03 S1000
X24.2 M03 S0
X24.4 M03 S1000
X24.5 M03 S0
X24.6 M03 S1000
X24.7 M03 S0
X25.1 M03 S1000
X25.2 M03 S0
X25.6 M03 S1000
X25.7 M03 S0
X25.8 M03 S1000
X25.9 M03 S0
X26.0 M03 S1000
X26.1 M03 S0
X26.2 M03 S1000
X26.3 M03 S0
X26.5 M03 S1000
X26.6 M03 S0
X26.8 M03 S1000
X26.9 M03 S0
X27.1 M03 S1000
X27.2 M03 S0
X27.3 M03 S1000
X27.4 M03 S0
X27.6 M03 S1000
X27.7 M03 S0
X27.8 M03 S1000
X27.9 M03 S0
X28.0 M03 S1000
X28.1 M03 S0
X28.2 M03 S1000
X28.3 M03 S0
X28.5 M03 S1000
X28.6 M03 S0
X28.7 M03 S1000
X28.8 M03 S0
X28.9 M03 S1000
X29.0 M03 S0
X29.1 M03 S1000
X29.2 M03 S0
X29.3 M03 S1000
X29.4 M03 S0
X29.5 M03 S1000
X29.6 M03 S0
X29.7 M03 S1000
X29.8 M03 S0
X29.9 M03 S1000
X30.0 M03 S0
X30.1 M03 S1000
X30.2 M03 S0
X30.3 M03 S1000
X30.4 M03 S0
X30.5 M03 S1000
X30.7 M03 S0
X30.8 M03 S1000
X30.9 M03 S0
X31.0 M03 S1000
X31.1 M03 S0
X31.2 M03 S1000
X31.4 M03 S0
X31.5 M03 S1000
X31.7 M03 S0
X31.8 M03 S1000
X31.9 M03 S0
X32.0 M03 S1000
X32.3 M03 S0
X32.4 M03 S1000
X32.5 M03 S0
X32.6 M03 S1000
X32.8 M03 S0
X32.9 M03 S1000
X33.0 M03 S0
X33.1 M03 S1000
X33.2 M03 S0
X33.3 M03 S1000
X33.6 M03 S0
X33.7 M03 S1000
X33.9 M03 S0
X34.0 M03 S1000
X34.1 M03 S0
X34.2 M03 S1000
X34.5 M03 S0
X34.6 M03 S1000
X34.8 M03 S0
X34.9 M03 S1000
X35.1 M03 S0
X35.2 M03 S1000
X35.6 M03 S0
X35.7 M03 S1000
X35.9 M03 S0
X36.0 M03 S1000
X36.2 M03 S0
X36.3 M03 S1000
X36.5 M03 S0
X36.6 M03 S1000
X36.8 M03 S0
X36.9 M03 S1000
X37.0 M03 S0
X37.1 M03 S1000
X37.3 M03 S0
X37.4 M03 S1000
X37.7 M03 S0
X37.8 M03 S1000
X38.0 M03 S0
X38.1 M03 S1000
X38.3 M03 S0
X38.4 M03 S1000
X38.5 M03 S0
X38.6 M03 S1000
X39.0 M03 S0
X39.1 M03 S1000
X39.4 M03 S0
X39.5 M03 S1000
X39.9 M03 S0
X40.0 M03 S1000
X40.1 M03 S0
X40.2 M03 S1000
X40.4 M03 S0
X40.5 M03 S1000
X40.7 M03 S0
X40.8 M03 S1000
X41.0 M03 S0
X41.1 M03 S1000
X41.2 M03 S0
X41.3 M03 S1000
X41.6 M03 S0
X41.7 M03 S1000
X41.9 M03 S0
X42.0 M03 S1000
X42.2 M03 S0
X42.3 M03 S1000
X42.4 M03 S0
X42.5 M03 S1000
X42.7 M03 S0
X42.8 M03 S1000
X42.9 M03 S0
X43.0 M03 S1000
X43.2 M03 S0
X43.3 M03 S1000
X43.5 M03 S0
X43.6 M03 S1000
X43.7 M03 S0
X43.8 M03 S1000
X44.1 M03 S0
X44.2 M03 S1000
X44.3 M03 S0
X44.4 M03 S1000
X44.7 M03 S0
X44.8 M03 S1000
X45.2 M03 S0
X45.3 M03 S1000
X45.4 M03 S0
X45.5 M03 S1000
X45.9 M03 S0
X46.0 M03 S1000
X46.2 M03 S0
X46.3 M03 S1000
X46.4 M03 S0
X46.5 M03 S1000
X46.8 M03 S0
X46.9 M03 S1000
X47.0 M03 S0
X47.1 M03 S1000
X47.2 M03 S0
X47.3 M03 S1000
X47.6 M03 S0
X47.7 M03 S1000
X47.8 M03 S0
X47.9 M03 S1000
X48.3 M03 S0
X48.4 M03 S1000
X48.6 M03 S0
X48.7 M03 S1000
X48.8 M03 S0
X48.9 M03 S1000
X49.1 M03 S0
X49.2 M03 S1000
X49.4 M03 S0
X49.5 M03 S1000
X49.7 M03 S0
X49.8 M03 S1000
X62.3 M03 S0
G01 X74.8 Y1.7 M03 S0
X49.9 M03 S0
X49.8 M03 S1000
X49.6 M03 S0
X49.5 M03 S1000
X49.4 M03 S0
X49.3 M03 S1000
X49.1 M03 S0
X49.0 M03 S1000
X48.8 M03 S0
X48.7 M03 S1000
X48.5 M03 S0
X48.4 M03 S1000
X48.2 M03 S0
X48.1 M03 S1000
X48.0 M03 S0
X47.9 M03 S1000
X47.5 M03 S0
X47.4 M03 S1000
X47.2 M03 S0
X47.1 M03 S1000
X46.8 M03 S0
X46.7 M03 S1000
X46.6 M03 S0
X46.5 M03 S1000
X46.2 M03 S0
X46.1 M03 S1000
X45.8 M03 S0
X45.7 M03 S1000
X45.6 M03 S0
X45.5 M03 S1000
X45.2 M03 S0
X45.1 M03 S1000
X45.0 M03 S0
X44.9 M03 S1000
X44.7 M03 S0
X44.6 M03 S1000
X44.5 M03 S0
X44.4 M03 S1000
X44.1 M03 S0
X44.0 M03 S1000
X43.9 M03 S0
X43.8 M03 S1000
X43.4 M03 S0
X43.3 M03 S1000
X43.1 M03 S0
X43.0 M03 S1000
X42.9 M03 S0
X42.8 M03 S1000
X42.7 M03 S0
X42.6 M03 S1000
X42.4 M03 S0
X42.3 M03 S1000
X42.1 M03 S0
X42.0 M03 S1000
X41.8 M03 S0
X41.7 M03 S1000
X41.5 M03 S0
X41.4 M03 S1000
X41.2 M03 S0
X41.1 M03 S1000
X40.9 M03 S0
X40.8 M03 S1000
X40.6 M03 S0
X40.5 M03 S1000
X40.3 M03 S0
X40.2 M03 S1000
X39.8 M03 S0
X39.7 M03 S1000
X39.6 M03 S0
X39.5 M03 S1000
X39.2 M03 S0
X39.1 M03 S1000
X38.9 M03 S0
X38.8 M03 S1000
X38.7 M03 S0
X38.6 M03 S1000
X38.3 M03 S0
X38.2 M03 S1000
X37.9 M03 S0
X37.8 M03 S1000
X37.7 M03 S0
X37.6 M03 S1000
X37.5 M03 S0
X37.4 M03 S1000
X37.2 M03 S0
X37.1 M03 S1000
X36.7 M03 S0
X36.6 M03 S1000
X36.4 M03 S0
X36.3 M03 S1000
X36.1 M03 S0
X36.0 M03 S1000
X35.8 M03 S0
X35.7 M03 S1000
X35.5 M03 S0
X35.4 M03 S1000
X35.3 M03 S0
X35.2 M03 S1000
X35.0 M03 S0
X34.9 M03 S1000
X34.7 M03 S0
X34.6 M03 S1000
X34.5 M03 S0
X34.4 M03 S1000
X34.3 M03 S0
X34.2 M03 S1000
X33.9 M03 S0
X33.8 M03 S1000
X33.7 M03 S0
X33.6 M03 S1000
X33.5 M03 S0
X33.4 M03 S1000
X33.3 M03 S0
X33.2 M03 S1000
X33.0 M03 S0
X32.9 M03 S1000
X32.7 M03 S0
X32.6 M03 S1000
X32.5 M03 S0
X32.4 M03 S1000
X32.3 M03 S0
X32.2 M03 S1000
X32.1 M03 S0
X32.0 M03 S1000
X31.8 M03 S0
X31.7 M03 S1000
X31.6 M03 S0
X31.5 M03 S1000
X31.4 M03 S0
X31.3 M03 S1000
X31.2 M03 S0
X31.1 M03 S1000
X30.9 M03 S0
X30.8 M03 S1000
X30.7 M03 S0
X30.6 M03 S1000
X30.5 M03 S0
X30.4 M03 S1000
X30.2 M03 S0
X30.1 M03 S1000
X29.9 M03 S0
X29.8 M03 S1000
X29.7 M03 S0
X29.6 M03 S1000
X29.5 M03 S0
X29.4 M03 S1000
X29.3 M03 S0
X29.2 M03 S1000
X29.1 M03 S0
X29.0 M03 S1000
X28.9 M03 S0
X28.8 M03 S1000
X28.7 M03 S0
X28.6 M03 S1000
X28.5 M03 S0
X28.4 M03 S1000
X28.3 M03 S0
X28.2 M03 S1000
X28.1 M03 S0
X28.0 M03 S1000
X27.9 M03 S0
X27.7 M03 S1000
X27.6 M03 S0
X27.5 M03 S1000
X27.4 M03 S0
X27.3 M03 S1000
X27.2 M03 S0
X27.1 M03 S1000
X27.0 M03 S0
