(Block-name: tinystar20.nc)
(Block-expand: 0)
(Block-enable: 1)
( Generated by VirTriad   )
( Pic 2 GCode for Grbl    )
( Start Point : LL        )
( Frame Mode  : Abs.      )
( Image Width : 50.0   mm )
(               500    px )
( Image Height: 50.0   mm )
(               500    px )
( X Maximum   : 50.0   mm )
( Y Maximum   : 50.0   mm )
( X Minimum   : -0.0   mm )
( Y Minimum   : 0.0    mm )
( X Overshoot : 0.0    mm )
( Laser Max   : 1000      )
( Feed Rate   : 2500      )
( Pixel Width : 0.1    mm )
( Resolution  : 0.1    mm )
( Image Name  : F:\Codez\testvm\gcode\test\tinystar20.png )
G21
G90
F2500
M05
M03 S0
G01 X23.3 Y5.1 M03 S0
X23.3 M03 S0
X24.2 M03 S1000
X24.2 M03 S0
G01 X24.3 Y5.2 M03 S0
X24.4 M03 S0
X23.1 M03 S1000
X23.1 M03 S0
G01 X22.9 Y5.3 M03 S0
X22.9 M03 S0
X24.6 M03 S1000
X24.6 M03 S0
G01 X24.6 Y5.4 M03 S0
X24.7 M03 S0
X22.8 M03 S1000
X22.8 M03 S0
G01 X22.7 Y5.5 M03 S0
X22.7 M03 S0
X24.8 M03 S1000
X24.8 M03 S0
G01 X24.7 Y5.6 M03 S0
X24.8 M03 S0
X22.7 M03 S1000
X22.7 M03 S0
G01 X22.6 Y5.7 M03 S0
X22.6 M03 S0
X24.9 M03 S1000
X24.9 M03 S0
G01 X24.8 Y5.8 M03 S0
X24.9 M03 S0
X22.6 M03 S1000
X22.6 M03 S0
G01 X22.5 Y5.9 M03 S0
X22.5 M03 S0
X25.0 M03 S1000
X25.0 M03 S0
G01 X24.9 Y6.0 M03 S0
X25.0 M03 S0
X22.5 M03 S1000
X22.5 M03 S0
G01 X22.5 Y6.1 M03 S0
X22.5 M03 S0
X25.0 M03 S1000
X25.0 M03 S0
G01 X25.0 Y6.2 M03 S0
X25.1 M03 S0
X22.4 M03 S1000
X22.4 M03 S0
G01 X22.4 Y6.3 M03 S0
X22.4 M03 S0
X25.1 M03 S1000
X25.1 M03 S0
G01 X25.0 Y6.4 M03 S0
X25.1 M03 S0
X22.4 M03 S1000
X22.4 M03 S0
G01 X22.4 Y6.5 M03 S0
X22.4 M03 S0
X25.1 M03 S1000
X25.1 M03 S0
G01 X25.0 Y6.6 M03 S0
X25.1 M03 S0
X22.4 M03 S1000
X22.4 M03 S0
G01 X22.4 Y6.7 M03 S0
X22.4 M03 S0
X25.1 M03 S1000
X25.1 M03 S0
G01 X25.0 Y6.8 M03 S0
X25.1 M03 S0
X22.4 M03 S1000
X22.4 M03 S0
G01 X22.4 Y6.9 M03 S0
X22.4 M03 S0
X25.1 M03 S1000
X25.1 M03 S0
G01 X25.0 Y7.0 M03 S0
X25.1 M03 S0
X22.4 M03 S1000
X22.4 M03 S0
G01 X22.4 Y7.1 M03 S0
X22.4 M03 S0
X25.1 M03 S1000
X25.1 M03 S0
G01 X25.0 Y7.2 M03 S0
X25.1 M03 S0
X22.4 M03 S1000
X22.4 M03 S0
G01 X22.4 Y7.3 M03 S0
X22.4 M03 S0
X25.1 M03 S1000
X25.1 M03 S0
G01 X25.0 Y7.4 M03 S0
X25.1 M03 S0
X22.4 M03 S1000
X22.4 M03 S0
G01 X22.4 Y7.5 M03 S0
X22.4 M03 S0
X25.1 M03 S1000
X25.1 M03 S0
G01 X25.0 Y7.6 M03 S0
X25.1 M03 S0
X22.4 M03 S1000
X22.4 M03 S0
G01 X22.4 Y7.7 M03 S0
X22.4 M03 S0
X25.0 M03 S1000
X25.0 M03 S0
G01 X24.9 Y7.8 M03 S0
X25.0 M03 S0
X22.4 M03 S1000
X22.4 M03 S0
G01 X22.4 Y7.9 M03 S0
X22.4 M03 S0
X25.0 M03 S1000
X25.0 M03 S0
G01 X24.9 Y8.0 M03 S0
X25.0 M03 S0
X22.4 M03 S1000
X22.4 M03 S0
G01 X22.4 Y8.1 M03 S0
X22.4 M03 S0
X25.0 M03 S1000
X25.0 M03 S0
G01 X24.9 Y8.2 M03 S0
X25.0 M03 S0
X22.4 M03 S1000
X22.4 M03 S0
G01 X22.4 Y8.3 M03 S0
X22.4 M03 S0
X25.0 M03 S1000
X25.0 M03 S0
G01 X24.9 Y8.4 M03 S0
X25.0 M03 S0
X22.4 M03 S1000
X22.4 M03 S0
G01 X22.4 Y8.5 M03 S0
X22.4 M03 S0
X25.0 M03 S1000
X25.0 M03 S0
G01 X24.9 Y8.6 M03 S0
X25.0 M03 S0
X22.4 M03 S1000
X22.4 M03 S0
G01 X22.4 Y8.7 M03 S0
X22.4 M03 S0
X25.1 M03 S1000
X25.1 M03 S0
G01 X25.0 Y8.8 M03 S0
X25.1 M03 S0
X22.4 M03 S1000
X22.4 M03 S0
G01 X22.4 Y8.9 M03 S0
X22.4 M03 S0
X25.1 M03 S1000
X25.1 M03 S0
G01 X25.0 Y9.0 M03 S0
X25.1 M03 S0
X22.5 M03 S1000
X22.5 M03 S0
G01 X22.5 Y9.1 M03 S0
X22.5 M03 S0
X25.2 M03 S1000
X25.2 M03 S0
G01 X25.1 Y9.2 M03 S0
X25.2 M03 S0
X22.5 M03 S1000
X22.5 M03 S0
G01 X22.5 Y9.3 M03 S0
X22.5 M03 S0
X25.3 M03 S1000
X25.3 M03 S0
G01 X25.2 Y9.4 M03 S0
X25.3 M03 S0
X22.5 M03 S1000
X22.5 M03 S0
G01 X22.5 Y9.5 M03 S0
X22.5 M03 S0
X25.4 M03 S1000
X25.4 M03 S0
G01 X25.4 Y9.6 M03 S0
X25.5 M03 S0
X22.5 M03 S1000
X22.5 M03 S0
G01 X22.5 Y9.7 M03 S0
X22.5 M03 S0
X25.6 M03 S1000
X25.6 M03 S0
G01 X25.6 Y9.8 M03 S0
X25.7 M03 S0
X22.5 M03 S1000
X22.5 M03 S0
G01 X22.5 Y9.9 M03 S0
X22.5 M03 S0
X25.9 M03 S1000
X25.9 M03 S0
G01 X26.1 Y10.0 M03 S0
X26.2 M03 S0
X22.6 M03 S1000
X22.6 M03 S0
G01 X22.6 Y10.1 M03 S0
X22.6 M03 S0
X26.6 M03 S1000
X26.6 M03 S0
G01 X26.7 Y10.2 M03 S0
X26.8 M03 S0
X22.6 M03 S1000
X22.6 M03 S0
G01 X22.6 Y10.3 M03 S0
X22.6 M03 S0
X26.9 M03 S1000
X26.9 M03 S0
G01 X26.9 Y10.4 M03 S0
X27.0 M03 S0
X22.6 M03 S1000
X22.6 M03 S0
G01 X22.6 Y10.5 M03 S0
X22.6 M03 S0
X27.1 M03 S1000
X27.1 M03 S0
G01 X27.1 Y10.6 M03 S0
X27.2 M03 S0
X22.6 M03 S1000
X22.6 M03 S0
G01 X22.6 Y10.7 M03 S0
X22.6 M03 S0
X27.3 M03 S1000
X27.3 M03 S0
G01 X27.2 Y10.8 M03 S0
X27.3 M03 S0
X22.6 M03 S1000
X22.6 M03 S0
G01 X22.6 Y10.9 M03 S0
X22.6 M03 S0
X27.4 M03 S1000
X27.4 M03 S0
G01 X27.3 Y11.0 M03 S0
X27.4 M03 S0
X22.6 M03 S1000
X22.6 M03 S0
G01 X22.6 Y11.1 M03 S0
X22.6 M03 S0
X27.4 M03 S1000
X27.4 M03 S0
G01 X27.3 Y11.2 M03 S0
X27.4 M03 S0
X22.6 M03 S1000
X22.6 M03 S0
G01 X22.5 Y11.3 M03 S0
X22.5 M03 S0
X27.5 M03 S1000
X27.5 M03 S0
G01 X27.4 Y11.4 M03 S0
X27.5 M03 S0
X22.5 M03 S1000
X22.5 M03 S0
G01 X22.5 Y11.5 M03 S0
X22.5 M03 S0
X27.5 M03 S1000
X27.5 M03 S0
G01 X27.4 Y11.6 M03 S0
X27.5 M03 S0
X22.4 M03 S1000
X22.4 M03 S0
G01 X22.4 Y11.7 M03 S0
X22.4 M03 S0
X27.5 M03 S1000
X27.5 M03 S0
G01 X27.4 Y11.8 M03 S0
X27.5 M03 S0
X22.3 M03 S1000
X22.3 M03 S0
G01 X22.3 Y11.9 M03 S0
X22.3 M03 S0
X27.5 M03 S1000
X27.5 M03 S0
G01 X27.4 Y12.0 M03 S0
X27.5 M03 S0
X22.2 M03 S1000
X22.2 M03 S0
G01 X22.1 Y12.1 M03 S0
X22.1 M03 S0
X27.5 M03 S1000
X27.5 M03 S0
G01 X27.4 Y12.2 M03 S0
X27.5 M03 S0
X22.0 M03 S1000
X22.0 M03 S0
G01 X21.8 Y12.3 M03 S0
X21.8 M03 S0
X27.5 M03 S1000
X27.5 M03 S0
G01 X27.4 Y12.4 M03 S0
X27.5 M03 S0
X21.6 M03 S1000
X21.6 M03 S0
G01 X21.3 Y12.5 M03 S0
X21.3 M03 S0
X27.5 M03 S1000
X27.5 M03 S0
G01 X27.4 Y12.6 M03 S0
X27.5 M03 S0
X20.9 M03 S1000
X20.9 M03 S0
G01 X20.7 Y12.7 M03 S0
X20.7 M03 S0
X27.5 M03 S1000
X27.5 M03 S0
G01 X27.4 Y12.8 M03 S0
X27.5 M03 S0
X20.6 M03 S1000
X20.6 M03 S0
G01 X20.5 Y12.9 M03 S0
X20.5 M03 S0
X27.5 M03 S1000
X27.5 M03 S0
G01 X27.4 Y13.0 M03 S0
X27.5 M03 S0
X20.4 M03 S1000
X20.4 M03 S0
G01 X20.3 Y13.1 M03 S0
X20.3 M03 S0
X27.5 M03 S1000
X27.5 M03 S0
G01 X27.4 Y13.2 M03 S0
X27.5 M03 S0
X20.2 M03 S1000
X20.2 M03 S0
G01 X20.2 Y13.3 M03 S0
X20.2 M03 S0
X27.5 M03 S1000
X27.5 M03 S0
G01 X27.4 Y13.4 M03 S0
X27.5 M03 S0
X20.1 M03 S1000
X20.1 M03 S0
G01 X20.1 Y13.5 M03 S0
X20.1 M03 S0
X27.4 M03 S1000
X27.4 M03 S0
G01 X27.3 Y13.6 M03 S0
X27.4 M03 S0
X20.1 M03 S1000
X20.1 M03 S0
G01 X20.1 Y13.7 M03 S0
X20.1 M03 S0
X27.4 M03 S1000
X27.4 M03 S0
G01 X27.3 Y13.8 M03 S0
X27.4 M03 S0
X20.0 M03 S1000
X20.0 M03 S0
G01 X20.0 Y13.9 M03 S0
X20.0 M03 S0
X27.4 M03 S1000
X27.4 M03 S0
G01 X27.3 Y14.0 M03 S0
X27.4 M03 S0
X20.0 M03 S1000
X20.0 M03 S0
G01 X20.0 Y14.1 M03 S0
X20.0 M03 S0
X27.4 M03 S1000
X27.4 M03 S0
G01 X27.3 Y14.2 M03 S0
X27.4 M03 S0
X20.0 M03 S1000
X20.0 M03 S0
G01 X20.0 Y14.3 M03 S0
X20.0 M03 S0
X27.4 M03 S1000
X27.4 M03 S0
G01 X27.3 Y14.4 M03 S0
X27.4 M03 S0
X20.0 M03 S1000
X20.0 M03 S0
G01 X20.0 Y14.5 M03 S0
X20.0 M03 S0
X27.4 M03 S1000
X27.4 M03 S0
G01 X27.3 Y14.6 M03 S0
X27.4 M03 S0
X20.0 M03 S1000
X20.0 M03 S0
G01 X20.0 Y14.7 M03 S0
X20.0 M03 S0
X27.4 M03 S1000
X27.4 M03 S0
G01 X27.3 Y14.8 M03 S0
X27.4 M03 S0
X20.0 M03 S1000
X20.0 M03 S0
G01 X20.0 Y14.9 M03 S0
X20.0 M03 S0
X27.4 M03 S1000
X27.4 M03 S0
G01 X27.3 Y15.0 M03 S0
X27.4 M03 S0
X20.1 M03 S1000
X20.1 M03 S0
G01 X20.1 Y15.1 M03 S0
X20.1 M03 S0
X27.4 M03 S1000
X27.4 M03 S0
G01 X27.3 Y15.2 M03 S0
X27.4 M03 S0
X20.1 M03 S1000
X20.1 M03 S0
G01 X20.1 Y15.3 M03 S0
X20.1 M03 S0
X27.4 M03 S1000
X27.4 M03 S0
G01 X27.3 Y15.4 M03 S0
X27.4 M03 S0
X20.1 M03 S1000
X20.1 M03 S0
G01 X20.1 Y15.5 M03 S0
X20.1 M03 S0
X27.4 M03 S1000
X27.4 M03 S0
G01 X27.3 Y15.6 M03 S0
X27.4 M03 S0
X20.1 M03 S1000
X20.1 M03 S0
G01 X20.1 Y15.7 M03 S0
X20.1 M03 S0
X27.4 M03 S1000
X27.4 M03 S0
G01 X27.3 Y15.8 M03 S0
X27.4 M03 S0
X20.1 M03 S1000
X20.1 M03 S0
G01 X20.1 Y15.9 M03 S0
X20.1 M03 S0
X27.4 M03 S1000
X27.4 M03 S0
G01 X27.3 Y16.0 M03 S0
X27.4 M03 S0
X20.1 M03 S1000
X20.1 M03 S0
G01 X20.1 Y16.1 M03 S0
X20.1 M03 S0
X27.4 M03 S1000
X27.4 M03 S0
G01 X27.3 Y16.2 M03 S0
X27.4 M03 S0
X20.1 M03 S1000
X20.1 M03 S0
G01 X20.0 Y16.3 M03 S0
X20.0 M03 S0
X27.5 M03 S1000
X27.5 M03 S0
G01 X27.4 Y16.4 M03 S0
X27.5 M03 S0
X20.0 M03 S1000
X20.0 M03 S0
G01 X20.0 Y16.5 M03 S0
X20.0 M03 S0
X27.5 M03 S1000
X27.5 M03 S0
G01 X27.5 Y16.6 M03 S0
X27.6 M03 S0
X19.9 M03 S1000
X19.9 M03 S0
G01 X19.9 Y16.7 M03 S0
X19.9 M03 S0
X27.6 M03 S1000
X27.6 M03 S0
G01 X27.6 Y16.8 M03 S0
X27.7 M03 S0
X19.8 M03 S1000
X19.8 M03 S0
G01 X19.8 Y16.9 M03 S0
X19.8 M03 S0
X27.7 M03 S1000
X27.7 M03 S0
G01 X27.7 Y17.0 M03 S0
X27.8 M03 S0
X19.7 M03 S1000
X19.7 M03 S0
G01 X19.6 Y17.1 M03 S0
X19.6 M03 S0
X27.9 M03 S1000
X27.9 M03 S0
G01 X27.9 Y17.2 M03 S0
X28.0 M03 S0
X19.5 M03 S1000
X19.5 M03 S0
G01 X19.3 Y17.3 M03 S0
X19.3 M03 S0
X28.2 M03 S1000
X28.2 M03 S0
G01 X28.3 Y17.4 M03 S0
X28.4 M03 S0
X19.1 M03 S1000
X19.1 M03 S0
G01 X18.8 Y17.5 M03 S0
X18.8 M03 S0
X28.7 M03 S1000
X28.7 M03 S0
G01 X28.9 Y17.6 M03 S0
X29.0 M03 S0
X18.5 M03 S1000
X18.5 M03 S0
G01 X18.3 Y17.7 M03 S0
X18.3 M03 S0
X29.2 M03 S1000
X29.2 M03 S0
G01 X29.3 Y17.8 M03 S0
X29.4 M03 S0
X18.1 M03 S1000
X18.1 M03 S0
G01 X18.0 Y17.9 M03 S0
X18.0 M03 S0
X29.5 M03 S1000
X29.5 M03 S0
G01 X29.5 Y18.0 M03 S0
X29.6 M03 S0
X17.9 M03 S1000
X17.9 M03 S0
G01 X17.9 Y18.1 M03 S0
X17.9 M03 S0
X29.6 M03 S1000
X29.6 M03 S0
G01 X29.6 Y18.2 M03 S0
X29.7 M03 S0
X17.8 M03 S1000
X17.8 M03 S0
G01 X17.7 Y18.3 M03 S0
X17.7 M03 S0
X29.8 M03 S1000
X29.8 M03 S0
G01 X29.7 Y18.4 M03 S0
X29.8 M03 S0
X17.7 M03 S1000
X17.7 M03 S0
G01 X17.6 Y18.5 M03 S0
X17.6 M03 S0
X29.9 M03 S1000
X29.9 M03 S0
G01 X29.8 Y18.6 M03 S0
X29.9 M03 S0
X17.6 M03 S1000
X17.6 M03 S0
G01 X17.6 Y18.7 M03 S0
X17.6 M03 S0
X29.9 M03 S1000
X29.9 M03 S0
G01 X29.9 Y18.8 M03 S0
X30.0 M03 S0
X17.5 M03 S1000
X17.5 M03 S0
G01 X17.5 Y18.9 M03 S0
X17.5 M03 S0
X30.0 M03 S1000
X30.0 M03 S0
G01 X30.0 Y19.0 M03 S0
X30.1 M03 S0
X17.4 M03 S1000
X17.4 M03 S0
G01 X17.4 Y19.1 M03 S0
X17.4 M03 S0
X30.1 M03 S1000
X30.1 M03 S0
G01 X30.1 Y19.2 M03 S0
X30.2 M03 S0
X17.3 M03 S1000
X17.3 M03 S0
G01 X17.3 Y19.3 M03 S0
X17.3 M03 S0
X30.2 M03 S1000
X30.2 M03 S0
G01 X30.2 Y19.4 M03 S0
X30.3 M03 S0
X17.2 M03 S1000
X17.2 M03 S0
G01 X17.1 Y19.5 M03 S0
X17.1 M03 S0
X30.4 M03 S1000
X30.4 M03 S0
G01 X30.4 Y19.6 M03 S0
X30.5 M03 S0
X17.0 M03 S1000
X17.0 M03 S0
G01 X16.9 Y19.7 M03 S0
X16.9 M03 S0
X30.6 M03 S1000
X30.6 M03 S0
G01 X30.6 Y19.8 M03 S0
X30.7 M03 S0
X16.8 M03 S1000
X16.8 M03 S0
G01 X3.7 Y19.9 M03 S0
X3.7 M03 S0
X4.2 M03 S1000
X16.6 M03 S0
X30.9 M03 S1000
X30.9 M03 S0
G01 X31.1 Y20.0 M03 S0
X31.2 M03 S0
X16.3 M03 S1000
X6.1 M03 S0
X3.4 M03 S1000
X3.4 M03 S0
G01 X3.2 Y20.1 M03 S0
X3.2 M03 S0
X39.0 M03 S1000
X39.0 M03 S0
G01 X39.1 Y20.2 M03 S0
X39.2 M03 S0
X3.1 M03 S1000
X3.1 M03 S0
G01 X3.0 Y20.3 M03 S0
X3.0 M03 S0
X39.4 M03 S1000
X39.4 M03 S0
G01 X39.4 Y20.4 M03 S0
X39.5 M03 S0
X2.9 M03 S1000
X2.9 M03 S0
G01 X2.8 Y20.5 M03 S0
X2.8 M03 S0
X39.6 M03 S1000
X39.6 M03 S0
G01 X39.5 Y20.6 M03 S0
X39.6 M03 S0
X2.8 M03 S1000
X2.8 M03 S0
G01 X2.7 Y20.7 M03 S0
X2.7 M03 S0
X39.7 M03 S1000
X39.7 M03 S0
G01 X39.7 Y20.8 M03 S0
X39.8 M03 S0
X2.7 M03 S1000
X2.7 M03 S0
G01 X2.7 Y20.9 M03 S0
X2.7 M03 S0
X39.8 M03 S1000
X39.8 M03 S0
G01 X39.8 Y21.0 M03 S0
X39.9 M03 S0
X2.6 M03 S1000
X2.6 M03 S0
G01 X2.6 Y21.1 M03 S0
X2.6 M03 S0
X39.9 M03 S1000
X39.9 M03 S0
G01 X39.8 Y21.2 M03 S0
X39.9 M03 S0
X2.6 M03 S1000
X2.6 M03 S0
G01 X2.6 Y21.3 M03 S0
X2.6 M03 S0
X40.0 M03 S1000
X40.0 M03 S0
G01 X39.9 Y21.4 M03 S0
X40.0 M03 S0
X2.6 M03 S1000
X2.6 M03 S0
G01 X2.7 Y21.5 M03 S0
X2.7 M03 S0
X40.1 M03 S1000
X40.1 M03 S0
G01 X40.0 Y21.6 M03 S0
X40.1 M03 S0
X2.7 M03 S1000
X2.7 M03 S0
G01 X2.7 Y21.7 M03 S0
X2.7 M03 S0
X40.2 M03 S1000
X40.2 M03 S0
G01 X40.2 Y21.8 M03 S0
X40.3 M03 S0
X2.8 M03 S1000
X2.8 M03 S0
G01 X2.8 Y21.9 M03 S0
X2.8 M03 S0
X40.4 M03 S1000
X40.4 M03 S0
G01 X40.4 Y22.0 M03 S0
X40.5 M03 S0
X2.9 M03 S1000
X2.9 M03 S0
G01 X3.0 Y22.1 M03 S0
X3.0 M03 S0
X40.6 M03 S1000
X40.6 M03 S0
G01 X40.6 Y22.2 M03 S0
X40.7 M03 S0
X3.1 M03 S1000
X3.1 M03 S0
G01 X3.2 Y22.3 M03 S0
X3.2 M03 S0
X40.9 M03 S1000
X40.9 M03 S0
G01 X41.2 Y22.4 M03 S0
X41.3 M03 S0
X3.4 M03 S1000
X3.4 M03 S0
G01 X3.7 Y22.5 M03 S0
X3.7 M03 S0
X41.6 M03 S1000
X41.6 M03 S0
G01 X41.7 Y22.6 M03 S0
X41.8 M03 S0
X4.0 M03 S1000
X4.0 M03 S0
G01 X4.2 Y22.7 M03 S0
X4.2 M03 S0
X42.0 M03 S1000
X42.0 M03 S0
G01 X42.0 Y22.8 M03 S0
X42.1 M03 S0
X4.4 M03 S1000
X4.4 M03 S0
G01 X4.5 Y22.9 M03 S0
X4.5 M03 S0
X42.2 M03 S1000
X42.2 M03 S0
G01 X42.1 Y23.0 M03 S0
X42.2 M03 S0
X4.6 M03 S1000
X4.6 M03 S0
G01 X4.7 Y23.1 M03 S0
X4.7 M03 S0
X42.3 M03 S1000
X42.3 M03 S0
G01 X42.2 Y23.2 M03 S0
X42.3 M03 S0
X4.8 M03 S1000
X4.8 M03 S0
G01 X4.9 Y23.3 M03 S0
X4.9 M03 S0
X42.4 M03 S1000
X42.4 M03 S0
G01 X42.3 Y23.4 M03 S0
X42.4 M03 S0
X4.9 M03 S1000
X4.9 M03 S0
G01 X5.0 Y23.5 M03 S0
X5.0 M03 S0
X42.4 M03 S1000
X42.4 M03 S0
G01 X42.3 Y23.6 M03 S0
X42.4 M03 S0
X5.0 M03 S1000
X5.0 M03 S0
G01 X5.1 Y23.7 M03 S0
X5.1 M03 S0
X42.4 M03 S1000
X42.4 M03 S0
G01 X42.3 Y23.8 M03 S0
X42.4 M03 S0
X5.1 M03 S1000
X5.1 M03 S0
G01 X5.1 Y23.9 M03 S0
X5.1 M03 S0
X42.4 M03 S1000
X42.4 M03 S0
G01 X42.3 Y24.0 M03 S0
X42.4 M03 S0
X5.2 M03 S1000
X5.2 M03 S0
G01 X5.2 Y24.1 M03 S0
X5.2 M03 S0
X42.4 M03 S1000
X42.4 M03 S0
G01 X42.2 Y24.2 M03 S0
X42.3 M03 S0
X5.3 M03 S1000
X5.3 M03 S0
G01 X5.4 Y24.3 M03 S0
X5.4 M03 S0
X42.3 M03 S1000
X42.3 M03 S0
G01 X42.1 Y24.4 M03 S0
X42.2 M03 S0
X5.4 M03 S1000
X5.4 M03 S0
G01 X5.5 Y24.5 M03 S0
X5.5 M03 S0
X42.2 M03 S1000
X42.2 M03 S0
G01 X42.0 Y24.6 M03 S0
X42.1 M03 S0
X5.6 M03 S1000
X5.6 M03 S0
G01 X5.8 Y24.7 M03 S0
X5.8 M03 S0
X42.0 M03 S1000
X42.0 M03 S0
G01 X41.7 Y24.8 M03 S0
X41.8 M03 S0
X6.0 M03 S1000
X6.0 M03 S0
G01 X6.3 Y24.9 M03 S0
X6.3 M03 S0
X41.6 M03 S1000
X41.6 M03 S0
G01 X41.2 Y25.0 M03 S0
X41.3 M03 S0
X6.6 M03 S1000
X6.6 M03 S0
G01 X6.8 Y25.1 M03 S0
X6.8 M03 S0
X40.9 M03 S1000
X40.9 M03 S0
G01 X40.6 Y25.2 M03 S0
X40.7 M03 S0
X6.9 M03 S1000
X6.9 M03 S0
G01 X7.0 Y25.3 M03 S0
X7.0 M03 S0
X40.6 M03 S1000
X40.6 M03 S0
G01 X40.4 Y25.4 M03 S0
X40.5 M03 S0
X7.1 M03 S1000
X7.1 M03 S0
G01 X7.2 Y25.5 M03 S0
X7.2 M03 S0
X40.4 M03 S1000
X40.4 M03 S0
G01 X40.2 Y25.6 M03 S0
X40.3 M03 S0
X7.3 M03 S1000
X7.3 M03 S0
G01 X7.3 Y25.7 M03 S0
X7.3 M03 S0
X40.2 M03 S1000
X40.2 M03 S0
G01 X40.0 Y25.8 M03 S0
X40.1 M03 S0
X7.4 M03 S1000
X7.4 M03 S0
G01 X7.4 Y25.9 M03 S0
X7.4 M03 S0
X40.1 M03 S1000
X40.1 M03 S0
G01 X39.9 Y26.0 M03 S0
X40.0 M03 S0
X7.5 M03 S1000
X7.5 M03 S0
G01 X7.5 Y26.1 M03 S0
X7.5 M03 S0
X40.0 M03 S1000
X40.0 M03 S0
G01 X39.8 Y26.2 M03 S0
X39.9 M03 S0
X7.6 M03 S1000
X7.6 M03 S0
G01 X7.6 Y26.3 M03 S0
X7.6 M03 S0
X39.9 M03 S1000
X39.9 M03 S0
G01 X39.8 Y26.4 M03 S0
X39.9 M03 S0
X7.6 M03 S1000
X7.6 M03 S0
G01 X7.7 Y26.5 M03 S0
X7.7 M03 S0
X39.8 M03 S1000
X39.8 M03 S0
G01 X39.7 Y26.6 M03 S0
X39.8 M03 S0
X7.7 M03 S1000
X7.7 M03 S0
G01 X7.8 Y26.7 M03 S0
X7.8 M03 S0
X39.7 M03 S1000
X39.7 M03 S0
G01 X39.5 Y26.8 M03 S0
X39.6 M03 S0
X7.9 M03 S1000
X7.9 M03 S0
G01 X7.9 Y26.9 M03 S0
X7.9 M03 S0
X39.6 M03 S1000
X39.6 M03 S0
G01 X39.4 Y27.0 M03 S0
X39.5 M03 S0
X8.0 M03 S1000
X8.0 M03 S0
G01 X8.1 Y27.1 M03 S0
X8.1 M03 S0
X39.4 M03 S1000
X39.4 M03 S0
G01 X39.1 Y27.2 M03 S0
X39.2 M03 S0
X8.3 M03 S1000
X8.3 M03 S0
G01 X8.5 Y27.3 M03 S0
X8.5 M03 S0
X39.0 M03 S1000
X39.0 M03 S0
G01 X38.6 Y27.4 M03 S0
X38.7 M03 S0
X8.8 M03 S1000
X8.8 M03 S0
G01 X9.1 Y27.5 M03 S0
X9.1 M03 S0
X38.4 M03 S1000
X38.4 M03 S0
G01 X38.1 Y27.6 M03 S0
X38.2 M03 S0
X9.3 M03 S1000
X9.3 M03 S0
G01 X9.4 Y27.7 M03 S0
X9.4 M03 S0
X38.1 M03 S1000
X38.1 M03 S0
G01 X37.9 Y27.8 M03 S0
X38.0 M03 S0
X9.5 M03 S1000
X9.5 M03 S0
G01 X9.6 Y27.9 M03 S0
X9.6 M03 S0
X37.9 M03 S1000
X37.9 M03 S0
G01 X37.7 Y28.0 M03 S0
X37.8 M03 S0
X9.7 M03 S1000
X9.7 M03 S0
G01 X9.8 Y28.1 M03 S0
X9.8 M03 S0
X37.7 M03 S1000
X37.7 M03 S0
G01 X37.6 Y28.2 M03 S0
X37.7 M03 S0
X9.8 M03 S1000
X9.8 M03 S0
G01 X9.9 Y28.3 M03 S0
X9.9 M03 S0
X37.6 M03 S1000
X37.6 M03 S0
G01 X37.5 Y28.4 M03 S0
X37.6 M03 S0
X9.9 M03 S1000
X9.9 M03 S0
G01 X10.0 Y28.5 M03 S0
X10.0 M03 S0
X37.5 M03 S1000
X37.5 M03 S0
G01 X37.4 Y28.6 M03 S0
X37.5 M03 S0
X10.0 M03 S1000
X10.0 M03 S0
G01 X10.1 Y28.7 M03 S0
X10.1 M03 S0
X37.4 M03 S1000
X37.4 M03 S0
G01 X37.3 Y28.8 M03 S0
X37.4 M03 S0
X10.1 M03 S1000
X10.1 M03 S0
G01 X10.1 Y28.9 M03 S0
X10.1 M03 S0
X37.4 M03 S1000
X37.4 M03 S0
G01 X37.2 Y29.0 M03 S0
X37.3 M03 S0
X10.2 M03 S1000
X10.2 M03 S0
G01 X10.2 Y29.1 M03 S0
X10.2 M03 S0
X37.3 M03 S1000
X37.3 M03 S0
G01 X37.1 Y29.2 M03 S0
X37.2 M03 S0
X10.3 M03 S1000
X10.3 M03 S0
G01 X10.4 Y29.3 M03 S0
X10.4 M03 S0
X37.1 M03 S1000
X37.1 M03 S0
G01 X37.0 Y29.4 M03 S0
X37.1 M03 S0
X10.4 M03 S1000
X10.4 M03 S0
G01 X10.5 Y29.5 M03 S0
X10.5 M03 S0
X37.0 M03 S1000
X37.0 M03 S0
G01 X36.8 Y29.6 M03 S0
X36.9 M03 S0
X10.6 M03 S1000
X10.6 M03 S0
G01 X10.8 Y29.7 M03 S0
X10.8 M03 S0
X36.7 M03 S1000
X36.7 M03 S0
G01 X36.4 Y29.8 M03 S0
X36.5 M03 S0
X11.0 M03 S1000
X11.0 M03 S0
G01 X11.3 Y29.9 M03 S0
X11.3 M03 S0
X36.2 M03 S1000
X36.2 M03 S0
G01 X35.8 Y30.0 M03 S0
X35.9 M03 S0
X11.6 M03 S1000
X11.6 M03 S0
G01 X11.8 Y30.1 M03 S0
X11.8 M03 S0
X35.7 M03 S1000
X35.7 M03 S0
G01 X35.4 Y30.2 M03 S0
X35.5 M03 S0
X12.0 M03 S1000
X12.0 M03 S0
G01 X12.1 Y30.3 M03 S0
X12.1 M03 S0
X35.4 M03 S1000
X35.4 M03 S0
G01 X35.2 Y30.4 M03 S0
X35.3 M03 S0
X12.2 M03 S1000
X12.2 M03 S0
G01 X12.3 Y30.5 M03 S0
X12.3 M03 S0
X35.2 M03 S1000
X35.2 M03 S0
G01 X35.1 Y30.6 M03 S0
X35.2 M03 S0
X12.3 M03 S1000
X12.3 M03 S0
G01 X12.4 Y30.7 M03 S0
X12.4 M03 S0
X35.1 M03 S1000
X35.1 M03 S0
G01 X35.0 Y30.8 M03 S0
X35.1 M03 S0
X12.4 M03 S1000
X12.4 M03 S0
G01 X12.5 Y30.9 M03 S0
X12.5 M03 S0
X35.0 M03 S1000
X35.0 M03 S0
G01 X34.9 Y31.0 M03 S0
X35.0 M03 S0
X12.5 M03 S1000
X12.5 M03 S0
G01 X12.5 Y31.1 M03 S0
X12.5 M03 S0
X35.0 M03 S1000
X35.0 M03 S0
G01 X34.8 Y31.2 M03 S0
X34.9 M03 S0
X12.6 M03 S1000
X12.6 M03 S0
G01 X12.6 Y31.3 M03 S0
X12.6 M03 S0
X34.9 M03 S1000
X34.9 M03 S0
G01 X34.8 Y31.4 M03 S0
X34.9 M03 S0
X12.6 M03 S1000
X12.6 M03 S0
G01 X12.6 Y31.5 M03 S0
X12.6 M03 S0
X34.9 M03 S1000
X34.9 M03 S0
G01 X34.8 Y31.6 M03 S0
X34.9 M03 S0
X12.6 M03 S1000
X12.6 M03 S0
G01 X12.6 Y31.7 M03 S0
X12.6 M03 S0
X34.9 M03 S1000
X34.9 M03 S0
G01 X34.8 Y31.8 M03 S0
X34.9 M03 S0
X12.6 M03 S1000
X12.6 M03 S0
G01 X12.6 Y31.9 M03 S0
X12.6 M03 S0
X34.9 M03 S1000
X34.9 M03 S0
G01 X34.8 Y32.0 M03 S0
X34.9 M03 S0
X12.6 M03 S1000
X12.6 M03 S0
G01 X12.6 Y32.1 M03 S0
X12.6 M03 S0
X34.9 M03 S1000
X34.9 M03 S0
G01 X34.8 Y32.2 M03 S0
X34.9 M03 S0
X12.6 M03 S1000
X12.6 M03 S0
G01 X12.6 Y32.3 M03 S0
X12.6 M03 S0
X34.9 M03 S1000
X34.9 M03 S0
G01 X34.8 Y32.4 M03 S0
X34.9 M03 S0
X12.6 M03 S1000
X12.6 M03 S0
G01 X12.6 Y32.5 M03 S0
X12.6 M03 S0
X34.9 M03 S1000
X34.9 M03 S0
G01 X34.8 Y32.6 M03 S0
X34.9 M03 S0
X12.6 M03 S1000
X12.6 M03 S0
G01 X12.6 Y32.7 M03 S0
X12.6 M03 S0
X34.9 M03 S1000
X34.9 M03 S0
G01 X34.8 Y32.8 M03 S0
X34.9 M03 S0
X12.6 M03 S1000
X12.6 M03 S0
G01 X12.6 Y32.9 M03 S0
X12.6 M03 S0
X34.9 M03 S1000
X34.9 M03 S0
G01 X34.8 Y33.0 M03 S0
X34.9 M03 S0
X12.6 M03 S1000
X12.6 M03 S0
G01 X12.6 Y33.1 M03 S0
X12.6 M03 S0
X34.9 M03 S1000
X34.9 M03 S0
G01 X34.8 Y33.2 M03 S0
X34.9 M03 S0
X12.6 M03 S1000
X12.6 M03 S0
G01 X12.6 Y33.3 M03 S0
X12.6 M03 S0
X34.9 M03 S1000
X34.9 M03 S0
G01 X34.8 Y33.4 M03 S0
X34.9 M03 S0
X12.6 M03 S1000
X12.6 M03 S0
G01 X12.6 Y33.5 M03 S0
X12.6 M03 S0
X34.9 M03 S1000
X34.9 M03 S0
G01 X34.8 Y33.6 M03 S0
X34.9 M03 S0
X12.6 M03 S1000
X12.6 M03 S0
G01 X12.6 Y33.7 M03 S0
X12.6 M03 S0
X34.9 M03 S1000
X34.9 M03 S0
G01 X34.8 Y33.8 M03 S0
X34.9 M03 S0
X12.6 M03 S1000
X12.6 M03 S0
G01 X12.6 Y33.9 M03 S0
X12.6 M03 S0
X34.9 M03 S1000
X34.9 M03 S0
G01 X34.8 Y34.0 M03 S0
X34.9 M03 S0
X12.6 M03 S1000
X12.6 M03 S0
G01 X12.6 Y34.1 M03 S0
X12.6 M03 S0
X34.9 M03 S1000
X34.9 M03 S0
G01 X34.8 Y34.2 M03 S0
X34.9 M03 S0
X12.6 M03 S1000
X12.6 M03 S0
G01 X12.6 Y34.3 M03 S0
X12.6 M03 S0
X34.9 M03 S1000
X34.9 M03 S0
G01 X34.8 Y34.4 M03 S0
X34.9 M03 S0
X12.6 M03 S1000
X12.6 M03 S0
G01 X12.6 Y34.5 M03 S0
X12.6 M03 S0
X34.9 M03 S1000
X34.9 M03 S0
G01 X34.8 Y34.6 M03 S0
X34.9 M03 S0
X12.6 M03 S1000
X12.6 M03 S0
G01 X12.6 Y34.7 M03 S0
X12.6 M03 S0
X34.9 M03 S1000
X34.9 M03 S0
G01 X34.8 Y34.8 M03 S0
X34.9 M03 S0
X12.6 M03 S1000
X12.6 M03 S0
G01 X12.6 Y34.9 M03 S0
X12.6 M03 S0
X34.9 M03 S1000
X34.9 M03 S0
G01 X34.8 Y35.0 M03 S0
X34.9 M03 S0
X12.6 M03 S1000
X12.6 M03 S0
G01 X12.6 Y35.1 M03 S0
X12.6 M03 S0
X34.9 M03 S1000
X34.9 M03 S0
G01 X34.8 Y35.2 M03 S0
X34.9 M03 S0
X12.6 M03 S1000
X12.6 M03 S0
G01 X12.6 Y35.3 M03 S0
X12.6 M03 S0
X34.9 M03 S1000
X34.9 M03 S0
G01 X34.8 Y35.4 M03 S0
X34.9 M03 S0
X12.6 M03 S1000
X12.6 M03 S0
G01 X12.6 Y35.5 M03 S0
X12.6 M03 S0
X34.9 M03 S1000
X34.9 M03 S0
G01 X34.8 Y35.6 M03 S0
X34.9 M03 S0
X12.6 M03 S1000
X12.6 M03 S0
G01 X12.6 Y35.7 M03 S0
X12.6 M03 S0
X34.9 M03 S1000
X34.9 M03 S0
G01 X34.8 Y35.8 M03 S0
X34.9 M03 S0
X12.6 M03 S1000
X12.6 M03 S0
G01 X12.6 Y35.9 M03 S0
X12.6 M03 S0
X34.9 M03 S1000
X34.9 M03 S0
G01 X34.8 Y36.0 M03 S0
X34.9 M03 S0
X12.6 M03 S1000
X12.6 M03 S0
G01 X12.6 Y36.1 M03 S0
X12.6 M03 S0
X34.9 M03 S1000
X34.9 M03 S0
G01 X34.8 Y36.2 M03 S0
X34.9 M03 S0
X12.6 M03 S1000
X12.6 M03 S0
G01 X12.6 Y36.3 M03 S0
X12.6 M03 S0
X34.9 M03 S1000
X34.9 M03 S0
G01 X34.8 Y36.4 M03 S0
X34.9 M03 S0
X12.6 M03 S1000
X12.6 M03 S0
G01 X12.6 Y36.5 M03 S0
X12.6 M03 S0
X34.9 M03 S1000
X34.9 M03 S0
G01 X34.8 Y36.6 M03 S0
X34.9 M03 S0
X12.6 M03 S1000
X12.6 M03 S0
G01 X12.6 Y36.7 M03 S0
X12.6 M03 S0
X34.9 M03 S1000
X34.9 M03 S0
G01 X34.8 Y36.8 M03 S0
X34.9 M03 S0
X12.6 M03 S1000
X12.6 M03 S0
G01 X12.6 Y36.9 M03 S0
X12.6 M03 S0
X34.9 M03 S1000
X34.9 M03 S0
G01 X34.8 Y37.0 M03 S0
X34.9 M03 S0
X12.6 M03 S1000
X12.6 M03 S0
G01 X12.6 Y37.1 M03 S0
X12.6 M03 S0
X34.9 M03 S1000
X34.9 M03 S0
G01 X34.8 Y37.2 M03 S0
X34.9 M03 S0
X12.6 M03 S1000
X12.6 M03 S0
G01 X12.6 Y37.3 M03 S0
X12.6 M03 S0
X34.9 M03 S1000
X34.9 M03 S0
G01 X34.8 Y37.4 M03 S0
X34.9 M03 S0
X12.6 M03 S1000
X12.6 M03 S0
G01 X12.6 Y37.5 M03 S0
X12.6 M03 S0
X34.9 M03 S1000
X34.9 M03 S0
G01 X34.8 Y37.6 M03 S0
X34.9 M03 S0
X12.6 M03 S1000
X12.6 M03 S0
G01 X12.6 Y37.7 M03 S0
X12.6 M03 S0
X34.9 M03 S1000
X34.9 M03 S0
G01 X34.8 Y37.8 M03 S0
X34.9 M03 S0
X12.6 M03 S1000
X12.6 M03 S0
G01 X12.6 Y37.9 M03 S0
X12.6 M03 S0
X34.9 M03 S1000
X34.9 M03 S0
G01 X34.8 Y38.0 M03 S0
X34.9 M03 S0
X12.6 M03 S1000
X12.6 M03 S0
G01 X12.6 Y38.1 M03 S0
X12.6 M03 S0
X34.9 M03 S1000
X34.9 M03 S0
G01 X34.8 Y38.2 M03 S0
X34.9 M03 S0
X12.6 M03 S1000
X12.6 M03 S0
G01 X12.6 Y38.3 M03 S0
X12.6 M03 S0
X34.9 M03 S1000
X34.9 M03 S0
G01 X34.8 Y38.4 M03 S0
X34.9 M03 S0
X12.6 M03 S1000
X12.6 M03 S0
G01 X12.6 Y38.5 M03 S0
X12.6 M03 S0
X34.9 M03 S1000
X34.9 M03 S0
G01 X34.8 Y38.6 M03 S0
X34.9 M03 S0
X12.6 M03 S1000
X12.6 M03 S0
G01 X12.6 Y38.7 M03 S0
X12.6 M03 S0
X34.9 M03 S1000
X34.9 M03 S0
G01 X34.8 Y38.8 M03 S0
X34.9 M03 S0
X12.6 M03 S1000
X12.6 M03 S0
G01 X12.6 Y38.9 M03 S0
X12.6 M03 S0
X34.9 M03 S1000
X34.9 M03 S0
G01 X34.8 Y39.0 M03 S0
X34.9 M03 S0
X12.6 M03 S1000
X12.6 M03 S0
G01 X12.6 Y39.1 M03 S0
X12.6 M03 S0
X34.9 M03 S1000
X34.9 M03 S0
G01 X34.8 Y39.2 M03 S0
X34.9 M03 S0
X12.6 M03 S1000
X12.6 M03 S0
G01 X12.6 Y39.3 M03 S0
X12.6 M03 S0
X34.9 M03 S1000
X34.9 M03 S0
G01 X34.8 Y39.4 M03 S0
X34.9 M03 S0
X12.6 M03 S1000
X12.6 M03 S0
G01 X12.6 Y39.5 M03 S0
X12.6 M03 S0
X34.9 M03 S1000
X34.9 M03 S0
G01 X34.8 Y39.6 M03 S0
X34.9 M03 S0
X12.6 M03 S1000
X12.6 M03 S0
G01 X12.6 Y39.7 M03 S0
X12.6 M03 S0
X34.9 M03 S1000
X34.9 M03 S0
G01 X34.8 Y39.8 M03 S0
X34.9 M03 S0
X12.6 M03 S1000
X12.6 M03 S0
G01 X12.6 Y39.9 M03 S0
X12.6 M03 S0
X21.2 M03 S1000
X26.3 M03 S0
X34.9 M03 S1000
X34.9 M03 S0
G01 X34.8 Y40.0 M03 S0
X34.9 M03 S0
X26.6 M03 S1000
X20.9 M03 S0
X12.6 M03 S1000
X12.6 M03 S0
G01 X12.6 Y40.1 M03 S0
X12.6 M03 S0
X20.7 M03 S1000
X26.8 M03 S0
X34.9 M03 S1000
X34.9 M03 S0
G01 X34.8 Y40.2 M03 S0
X34.9 M03 S0
X26.9 M03 S1000
X20.6 M03 S0
X12.6 M03 S1000
X12.6 M03 S0
G01 X12.6 Y40.3 M03 S0
X12.6 M03 S0
X20.5 M03 S1000
X27.0 M03 S0
X34.9 M03 S1000
X34.9 M03 S0
G01 X34.8 Y40.4 M03 S0
X34.9 M03 S0
X27.1 M03 S1000
X20.4 M03 S0
X12.6 M03 S1000
X12.6 M03 S0
G01 X12.6 Y40.5 M03 S0
X12.6 M03 S0
X20.3 M03 S1000
X27.2 M03 S0
X34.9 M03 S1000
X34.9 M03 S0
G01 X34.8 Y40.6 M03 S0
X34.9 M03 S0
X27.3 M03 S1000
X20.2 M03 S0
X12.6 M03 S1000
X12.6 M03 S0
G01 X12.6 Y40.7 M03 S0
X12.6 M03 S0
X20.2 M03 S1000
X27.3 M03 S0
X34.9 M03 S1000
X34.9 M03 S0
G01 X34.8 Y40.8 M03 S0
X34.9 M03 S0
X27.4 M03 S1000
X20.1 M03 S0
X12.6 M03 S1000
X12.6 M03 S0
G01 X12.6 Y40.9 M03 S0
X12.6 M03 S0
X20.1 M03 S1000
X27.4 M03 S0
X34.9 M03 S1000
X34.9 M03 S0
G01 X34.8 Y41.0 M03 S0
X34.9 M03 S0
X27.5 M03 S1000
X20.0 M03 S0
X12.6 M03 S1000
X12.6 M03 S0
G01 X12.6 Y41.1 M03 S0
X12.6 M03 S0
X20.0 M03 S1000
X27.5 M03 S0
X34.9 M03 S1000
X34.9 M03 S0
G01 X34.8 Y41.2 M03 S0
X34.9 M03 S0
X27.6 M03 S1000
X19.9 M03 S0
X12.6 M03 S1000
X12.6 M03 S0
G01 X12.5 Y41.3 M03 S0
X12.5 M03 S0
X19.9 M03 S1000
X27.6 M03 S0
X35.0 M03 S1000
X35.0 M03 S0
G01 X34.9 Y41.4 M03 S0
X35.0 M03 S0
X27.6 M03 S1000
X19.9 M03 S0
X12.5 M03 S1000
X12.5 M03 S0
G01 X12.5 Y41.5 M03 S0
X12.5 M03 S0
X19.8 M03 S1000
X27.7 M03 S0
X35.0 M03 S1000
X35.0 M03 S0
G01 X35.0 Y41.6 M03 S0
X35.1 M03 S0
X27.7 M03 S1000
X19.8 M03 S0
X12.4 M03 S1000
X12.4 M03 S0
G01 X12.4 Y41.7 M03 S0
X12.4 M03 S0
X19.7 M03 S1000
X27.8 M03 S0
X35.1 M03 S1000
X35.1 M03 S0
G01 X35.1 Y41.8 M03 S0
X35.2 M03 S0
X27.9 M03 S1000
X19.6 M03 S0
X12.3 M03 S1000
X12.3 M03 S0
G01 X12.2 Y41.9 M03 S0
X12.2 M03 S0
X19.6 M03 S1000
X27.9 M03 S0
X35.3 M03 S1000
X35.3 M03 S0
G01 X35.2 Y42.0 M03 S0
X35.3 M03 S0
X28.0 M03 S1000
X19.5 M03 S0
X12.2 M03 S1000
X12.2 M03 S0
G01 X12.1 Y42.1 M03 S0
X12.1 M03 S0
X19.4 M03 S1000
X28.1 M03 S0
X35.4 M03 S1000
X35.4 M03 S0
G01 X35.5 Y42.2 M03 S0
X35.6 M03 S0
X28.3 M03 S1000
X19.2 M03 S0
X11.9 M03 S1000
X11.9 M03 S0
G01 X11.8 Y42.3 M03 S0
X11.8 M03 S0
X19.0 M03 S1000
X28.5 M03 S0
X35.7 M03 S1000
X35.7 M03 S0
G01 X35.8 Y42.4 M03 S0
X35.9 M03 S0
X28.8 M03 S1000
X16.2 M03 S0
X11.6 M03 S1000
X11.6 M03 S0
G01 X11.3 Y42.5 M03 S0
X11.3 M03 S0
X15.9 M03 S1000
X29.1 M03 S0
X36.2 M03 S1000
X36.2 M03 S0
G01 X36.4 Y42.6 M03 S0
X36.5 M03 S0
X29.3 M03 S1000
X15.7 M03 S0
X11.0 M03 S1000
X11.0 M03 S0
G01 X10.8 Y42.7 M03 S0
X10.8 M03 S0
X15.6 M03 S1000
X29.4 M03 S0
X36.7 M03 S1000
X36.7 M03 S0
G01 X36.8 Y42.8 M03 S0
X36.9 M03 S0
X29.5 M03 S1000
X15.5 M03 S0
X10.6 M03 S1000
X10.6 M03 S0
G01 X10.5 Y42.9 M03 S0
X10.5 M03 S0
X15.4 M03 S1000
X29.6 M03 S0
X37.0 M03 S1000
X37.0 M03 S0
G01 X37.0 Y43.0 M03 S0
X37.1 M03 S0
X29.7 M03 S1000
X15.3 M03 S0
X10.4 M03 S1000
X10.4 M03 S0
G01 X10.3 Y43.1 M03 S0
X10.3 M03 S0
X15.2 M03 S1000
X29.8 M03 S0
X37.2 M03 S1000
X37.2 M03 S0
G01 X37.1 Y43.2 M03 S0
X37.2 M03 S0
X29.8 M03 S1000
X15.2 M03 S0
X10.3 M03 S1000
X10.3 M03 S0
G01 X10.2 Y43.3 M03 S0
X10.2 M03 S0
X15.1 M03 S1000
X29.9 M03 S0
X37.3 M03 S1000
X37.3 M03 S0
G01 X37.2 Y43.4 M03 S0
X37.3 M03 S0
X29.9 M03 S1000
X15.1 M03 S0
X10.2 M03 S1000
X10.2 M03 S0
G01 X10.1 Y43.5 M03 S0
X10.1 M03 S0
X15.0 M03 S1000
X30.0 M03 S0
X37.4 M03 S1000
X37.4 M03 S0
G01 X37.3 Y43.6 M03 S0
X37.4 M03 S0
X30.0 M03 S1000
X15.0 M03 S0
X10.1 M03 S1000
X10.1 M03 S0
G01 X10.1 Y43.7 M03 S0
X10.1 M03 S0
X14.9 M03 S1000
X30.1 M03 S0
X37.4 M03 S1000
X37.4 M03 S0
G01 X37.4 Y43.8 M03 S0
X37.5 M03 S0
X30.1 M03 S1000
X14.9 M03 S0
X10.0 M03 S1000
X10.0 M03 S0
G01 X10.0 Y43.9 M03 S0
X10.0 M03 S0
X14.9 M03 S1000
X30.1 M03 S0
X37.5 M03 S1000
X37.5 M03 S0
G01 X37.4 Y44.0 M03 S0
X37.5 M03 S0
X30.2 M03 S1000
X14.8 M03 S0
X10.0 M03 S1000
X10.0 M03 S0
G01 X10.0 Y44.1 M03 S0
X10.0 M03 S0
X14.8 M03 S1000
X30.2 M03 S0
X37.5 M03 S1000
X37.5 M03 S0
G01 X37.4 Y44.2 M03 S0
X37.5 M03 S0
X30.3 M03 S1000
X14.7 M03 S0
X10.0 M03 S1000
X10.0 M03 S0
G01 X9.9 Y44.3 M03 S0
X9.9 M03 S0
X14.6 M03 S1000
X30.4 M03 S0
X37.6 M03 S1000
X37.6 M03 S0
G01 X37.5 Y44.4 M03 S0
X37.6 M03 S0
X30.4 M03 S1000
X14.6 M03 S0
X9.9 M03 S1000
X9.9 M03 S0
G01 X9.9 Y44.5 M03 S0
X9.9 M03 S0
X14.5 M03 S1000
X30.5 M03 S0
X37.6 M03 S1000
X37.6 M03 S0
G01 X37.5 Y44.6 M03 S0
X37.6 M03 S0
X30.6 M03 S1000
X14.4 M03 S0
X9.9 M03 S1000
X9.9 M03 S0
G01 X9.9 Y44.7 M03 S0
X9.9 M03 S0
X14.2 M03 S1000
X30.8 M03 S0
X37.6 M03 S1000
X37.6 M03 S0
G01 X37.5 Y44.8 M03 S0
X37.6 M03 S0
X31.0 M03 S1000
X14.0 M03 S0
X9.9 M03 S1000
X9.9 M03 S0
G01 X9.9 Y44.9 M03 S0
X9.9 M03 S0
X13.7 M03 S1000
X33.8 M03 S0
X37.6 M03 S1000
X37.6 M03 S0
G01 X37.5 Y45.0 M03 S0
X37.6 M03 S0
X34.0 M03 S1000
X13.5 M03 S0
X9.9 M03 S1000
X9.9 M03 S0
G01 X9.9 Y45.1 M03 S0
X9.9 M03 S0
X13.3 M03 S1000
X34.2 M03 S0
X37.6 M03 S1000
X37.6 M03 S0
G01 X37.5 Y45.2 M03 S0
X37.6 M03 S0
X34.3 M03 S1000
X13.2 M03 S0
X9.9 M03 S1000
X9.9 M03 S0
G01 X9.9 Y45.3 M03 S0
X9.9 M03 S0
X13.1 M03 S1000
X34.4 M03 S0
X37.6 M03 S1000
X37.6 M03 S0
G01 X37.5 Y45.4 M03 S0
X37.6 M03 S0
X34.5 M03 S1000
X13.0 M03 S0
X9.9 M03 S1000
X9.9 M03 S0
G01 X9.9 Y45.5 M03 S0
X9.9 M03 S0
X12.9 M03 S1000
X34.6 M03 S0
X37.6 M03 S1000
X37.6 M03 S0
G01 X37.5 Y45.6 M03 S0
X37.6 M03 S0
X34.7 M03 S1000
X12.8 M03 S0
X9.9 M03 S1000
X9.9 M03 S0
G01 X9.9 Y45.7 M03 S0
X9.9 M03 S0
X12.8 M03 S1000
X34.7 M03 S0
X37.6 M03 S1000
X37.6 M03 S0
G01 X37.5 Y45.8 M03 S0
X37.6 M03 S0
X34.8 M03 S1000
X12.7 M03 S0
X9.9 M03 S1000
X9.9 M03 S0
G01 X9.9 Y45.9 M03 S0
X9.9 M03 S0
X12.7 M03 S1000
X34.8 M03 S0
X37.6 M03 S1000
X37.6 M03 S0
G01 X37.5 Y46.0 M03 S0
X37.6 M03 S0
X34.9 M03 S1000
X12.6 M03 S0
X9.9 M03 S1000
X9.9 M03 S0
G01 X9.9 Y46.1 M03 S0
X9.9 M03 S0
X12.6 M03 S1000
X34.9 M03 S0
X37.6 M03 S1000
X37.6 M03 S0
G01 X37.5 Y46.2 M03 S0
X37.6 M03 S0
X34.9 M03 S1000
X12.6 M03 S0
X9.9 M03 S1000
X9.9 M03 S0
G01 X10.0 Y46.3 M03 S0
X10.0 M03 S0
X12.5 M03 S1000
X35.0 M03 S0
X37.5 M03 S1000
X37.5 M03 S0
G01 X37.4 Y46.4 M03 S0
X37.5 M03 S0
X35.0 M03 S1000
X12.5 M03 S0
X10.0 M03 S1000
X10.0 M03 S0
G01 X10.0 Y46.5 M03 S0
X10.0 M03 S0
X12.4 M03 S1000
X35.1 M03 S0
X37.5 M03 S1000
X37.5 M03 S0
G01 X37.3 Y46.6 M03 S0
X37.4 M03 S0
X35.1 M03 S1000
X12.4 M03 S0
X10.1 M03 S1000
X10.1 M03 S0
G01 X10.1 Y46.7 M03 S0
X10.1 M03 S0
X12.3 M03 S1000
X35.2 M03 S0
X37.4 M03 S1000
X37.4 M03 S0
G01 X37.2 Y46.8 M03 S0
X37.3 M03 S0
X35.2 M03 S1000
X12.3 M03 S0
X10.2 M03 S1000
X10.2 M03 S0
G01 X10.3 Y46.9 M03 S0
X10.3 M03 S0
X12.2 M03 S1000
X35.3 M03 S0
X37.2 M03 S1000
X37.2 M03 S0
G01 X37.0 Y47.0 M03 S0
X37.1 M03 S0
X35.4 M03 S1000
X12.1 M03 S0
X10.4 M03 S1000
X10.4 M03 S0
G01 X10.5 Y47.1 M03 S0
X10.5 M03 S0
X12.0 M03 S1000
X35.5 M03 S0
X37.0 M03 S1000
X37.0 M03 S0
G01 X36.8 Y47.2 M03 S0
X36.9 M03 S0
X35.7 M03 S1000
X11.8 M03 S0
X10.6 M03 S1000
X10.6 M03 S0
G01 X10.9 Y47.3 M03 S0
X10.9 M03 S0
X11.5 M03 S1000
X36.0 M03 S0
X36.6 M03 S1000
X36.6 M03 S0
M03 S0
M05
G00 X0 Y0
